(1001)
(T1  D=0.125 CR=0. - ZMIN=0.143 - FLAT END MILL)
G0 G90 G94 G17
G20
G53 G0 Z0.

(ADAPTIVE1)
M5
M9
T1
S16500 M3
G4 P4.
G55
G0 X1.8031 Y1.7421
Z1.6076
Z1.2139
Z1.1154
G3 X1.702 Y1.8043 Z1.1089 I-0.0506 J0.0311 F40.
X1.8031 Y1.7421 Z1.1024 I0.0506 J-0.0311
X1.702 Y1.8043 Z1.0959 I-0.0506 J0.0311
X1.8031 Y1.7421 Z1.0894 I0.0506 J-0.0311
X1.702 Y1.8043 Z1.0829 I-0.0506 J0.0311
X1.8031 Y1.7421 Z1.0764 I0.0506 J-0.0311
X1.702 Y1.8043 Z1.0698 I-0.0506 J0.0311
X1.8031 Y1.7421 Z1.0633 I0.0506 J-0.0311
X1.702 Y1.8043 Z1.0568 I-0.0506 J0.0311
X1.8031 Y1.7421 Z1.0503 I0.0506 J-0.0311
X1.702 Y1.8043 Z1.0438 I-0.0506 J0.0311
X1.8031 Y1.7421 Z1.0373 I0.0506 J-0.0311
X1.702 Y1.8043 Z1.0308 I-0.0506 J0.0311
X1.8031 Y1.7421 Z1.0242 I0.0506 J-0.0311
X1.702 Y1.8043 Z1.0177 I-0.0506 J0.0311
X1.8031 Y1.7421 Z1.0112 I0.0506 J-0.0311
X1.702 Y1.8043 Z1.0047 I-0.0506 J0.0311
X1.8031 Y1.7421 Z0.9982 I0.0506 J-0.0311
X1.702 Y1.8043 Z0.9917 I-0.0506 J0.0311
X1.8031 Y1.7421 Z0.9852 I0.0506 J-0.0311
X1.702 Y1.8043 Z0.9786 I-0.0506 J0.0311
X1.8031 Y1.7421 Z0.9721 I0.0506 J-0.0311
X1.702 Y1.8043 Z0.9656 I-0.0506 J0.0311
X1.8031 Y1.7421 Z0.9591 I0.0506 J-0.0311
X1.8119 Y1.7732 Z0.958 I-0.0506 J0.0311
X1.6932 I-0.0594 J0.
X1.8119 I0.0594 J0.
G1 X1.8127 Y1.8023
X1.8135 Y1.8058
X1.8141 Y1.8117
X1.8136 Y1.8175
X1.8122 Y1.8233
X1.8101 Y1.8288
X1.8073 Y1.834
X1.8039 Y1.8388
X1.8 Y1.8433
X1.7957 Y1.8474
X1.7911 Y1.851
X1.7862 Y1.8542
X1.781 Y1.857
X1.7755 Y1.8594
X1.7697 Y1.8614
X1.7637 Y1.8629
X1.7574 Y1.864
X1.7509 Y1.8646
X1.7442 Y1.8647
X1.7375 Y1.8642
X1.7307 Y1.8632
X1.724 Y1.8616
X1.7173 Y1.8594
X1.7108 Y1.8567
X1.7044 Y1.8535
X1.6983 Y1.8497
X1.6924 Y1.8454
X1.6869 Y1.8406
X1.6817 Y1.8354
X1.677 Y1.8297
X1.6727 Y1.8236
X1.6689 Y1.8172
X1.6657 Y1.8105
X1.6629 Y1.8036
X1.6607 Y1.7964
X1.6591 Y1.7891
X1.6581 Y1.7816
X1.6577 Y1.774
X1.6579 Y1.7665
X1.6587 Y1.759
X1.6601 Y1.7515
X1.6621 Y1.7442
X1.6647 Y1.7371
X1.6679 Y1.7302
X1.6716 Y1.7235
X1.6758 Y1.7172
X1.6805 Y1.7112
X1.6857 Y1.7057
X1.6914 Y1.7005
X1.6974 Y1.6958
X1.7037 Y1.6917
X1.7104 Y1.688
X1.7174 Y1.6849
X1.7246 Y1.6824
X1.732 Y1.6804
X1.7395 Y1.6791
X1.7471 Y1.6783
X1.7547 Y1.6782
X1.7623 Y1.6787
X1.7699 Y1.6798
X1.7773 Y1.6814
X1.7846 Y1.6837
X1.7917 Y1.6866
X1.7985 Y1.69
X1.805 Y1.694
X1.8112 Y1.6984
X1.817 Y1.7034
X1.8224 Y1.7088
X1.8274 Y1.7146
X1.8318 Y1.7208
X1.836 Y1.7276
X1.8403 Y1.7363
X1.8461 Y1.7507
X1.8503 Y1.7642
X1.8529 Y1.7753
X1.8543 Y1.7854
X1.8549 Y1.7947
X1.8547 Y1.8035
X1.8539 Y1.8119
X1.8524 Y1.8201
X1.8503 Y1.828
X1.8476 Y1.8358
X1.8442 Y1.8433
X1.8403 Y1.8505
X1.8357 Y1.8574
X1.8306 Y1.8639
X1.825 Y1.8701
X1.8187 Y1.8759
X1.812 Y1.8812
X1.8047 Y1.8861
X1.797 Y1.8904
X1.7888 Y1.8941
X1.7802 Y1.8972
X1.7713 Y1.8997
X1.7621 Y1.9014
X1.7526 Y1.9024
X1.743 Y1.9027
X1.7333 Y1.9021
X1.7236 Y1.9008
X1.7139 Y1.8987
X1.7044 Y1.8958
X1.695 Y1.8921
X1.6859 Y1.8876
X1.6772 Y1.8824
X1.6688 Y1.8765
X1.6609 Y1.8698
X1.6535 Y1.8626
X1.6467 Y1.8547
X1.6405 Y1.8462
X1.635 Y1.8373
X1.6302 Y1.8279
X1.6261 Y1.8181
X1.6229 Y1.808
X1.6205 Y1.7976
X1.6189 Y1.7871
X1.6181 Y1.7764
X1.6182 Y1.7657
X1.6192 Y1.7551
X1.621 Y1.7445
X1.6237 Y1.7341
X1.6272 Y1.7239
X1.6315 Y1.714
X1.6366 Y1.7045
X1.6424 Y1.6955
X1.649 Y1.6869
X1.6562 Y1.6789
X1.6641 Y1.6715
X1.6725 Y1.6647
X1.6814 Y1.6586
X1.6908 Y1.6533
X1.7007 Y1.6487
X1.7108 Y1.645
X1.7212 Y1.642
X1.7318 Y1.6399
X1.7426 Y1.6387
X1.7534 Y1.6383
X1.7642 Y1.6388
X1.775 Y1.6402
X1.7856 Y1.6424
X1.796 Y1.6455
X1.8061 Y1.6494
X1.8158 Y1.6541
X1.8252 Y1.6595
X1.8341 Y1.6657
X1.8425 Y1.6727
X1.8506 Y1.6805
X1.859 Y1.6901
X1.867 Y1.7008
X1.8743 Y1.7125
X1.8808 Y1.7249
X1.8862 Y1.7377
X1.8905 Y1.7506
X1.8936 Y1.7633
X1.8956 Y1.7759
X1.8966 Y1.7884
X1.8965 Y1.8007
X1.8955 Y1.8128
X1.8936 Y1.8246
X1.8907 Y1.8362
X1.887 Y1.8475
X1.8823 Y1.8583
X1.8768 Y1.8688
X1.8705 Y1.8788
X1.8634 Y1.8882
X1.8555 Y1.8972
X1.8468 Y1.9055
X1.8375 Y1.9131
X1.8275 Y1.92
X1.8169 Y1.9261
X1.8057 Y1.9315
X1.794 Y1.9359
X1.782 Y1.9394
X1.7695 Y1.942
X1.7568 Y1.9435
X1.744 Y1.9441
X1.731 Y1.9436
X1.718 Y1.942
X1.7051 Y1.9394
X1.6923 Y1.9358
X1.6798 Y1.9311
X1.6677 Y1.9254
X1.656 Y1.9187
X1.6448 Y1.911
X1.6342 Y1.9024
X1.6243 Y1.893
X1.6152 Y1.8827
X1.6068 Y1.8718
X1.5994 Y1.8601
X1.5928 Y1.8478
X1.5873 Y1.835
X1.5828 Y1.8218
X1.5794 Y1.8082
X1.5771 Y1.7944
X1.5758 Y1.7804
Y1.7663
X1.5768 Y1.7522
X1.579 Y1.7383
X1.5823 Y1.7245
X1.5867 Y1.7111
X1.5921 Y1.698
X1.5986 Y1.6854
X1.6061 Y1.6734
X1.6145 Y1.662
X1.6239 Y1.6513
X1.634 Y1.6413
X1.6449 Y1.6323
X1.6566 Y1.6241
X1.6688 Y1.6169
X1.6816 Y1.6106
X1.6949 Y1.6055
X1.7085 Y1.6014
X1.7224 Y1.5984
X1.7365 Y1.5965
X1.7508 Y1.5958
X1.765 Y1.5962
X1.7792 Y1.5978
X1.7931 Y1.6005
X1.8069 Y1.6043
X1.8202 Y1.6092
X1.8332 Y1.6152
X1.8457 Y1.6222
X1.858 Y1.6305
X1.87 Y1.64
X1.8815 Y1.6508
X1.8924 Y1.6628
X1.9024 Y1.6758
X1.9115 Y1.6897
X1.9194 Y1.7044
X1.9261 Y1.7195
X1.9315 Y1.735
X1.9356 Y1.7507
X1.9384 Y1.7666
X1.9399 Y1.7825
X1.9402 Y1.7983
X1.9391 Y1.814
X1.9368 Y1.8294
X1.9334 Y1.8446
X1.9287 Y1.8593
X1.9228 Y1.8736
X1.9159 Y1.8874
X1.9079 Y1.9006
X1.8988 Y1.9131
X1.8887 Y1.9248
X1.8777 Y1.9358
X1.8657 Y1.9459
X1.853 Y1.955
X1.8394 Y1.9631
X1.8252 Y1.9702
X1.8104 Y1.9761
X1.795 Y1.9809
X1.7792 Y1.9844
X1.7631 Y1.9866
X1.7468 Y1.9876
X1.7303 Y1.9872
X1.7138 Y1.9856
X1.6975 Y1.9825
X1.6813 Y1.9782
X1.6655 Y1.9725
X1.65 Y1.9656
X1.6352 Y1.9574
X1.621 Y1.948
X1.6075 Y1.9375
X1.5948 Y1.9258
X1.5831 Y1.9131
X1.5725 Y1.8995
X1.5629 Y1.8851
X1.5545 Y1.8698
X1.5473 Y1.8539
X1.5414 Y1.8375
X1.5368 Y1.8206
X1.5336 Y1.8033
X1.5318 Y1.7858
X1.5314 Y1.7682
X1.5324 Y1.7506
X1.5349 Y1.7331
X1.5387 Y1.7159
X1.5439 Y1.699
X1.5504 Y1.6825
X1.5583 Y1.6666
X1.5674 Y1.6514
X1.5777 Y1.637
X1.5892 Y1.6234
X1.6017 Y1.6108
X1.6152 Y1.5992
X1.6295 Y1.5888
X1.6447 Y1.5795
X1.6606 Y1.5714
X1.677 Y1.5647
X1.694 Y1.5593
X1.7113 Y1.5553
X1.7289 Y1.5527
X1.7467 Y1.5515
X1.7645 Y1.5517
X1.7822 Y1.5534
X1.7998 Y1.5565
X1.817 Y1.561
X1.8339 Y1.5669
X1.8505 Y1.5742
X1.8666 Y1.5829
X1.8822 Y1.593
X1.8972 Y1.6045
X1.9115 Y1.6175
X1.9249 Y1.6318
X1.9372 Y1.6472
X1.9484 Y1.6637
X1.9582 Y1.6811
X1.9665 Y1.6992
X1.9734 Y1.7179
X1.9787 Y1.7369
X1.9824 Y1.7562
X1.9846 Y1.7757
X1.9852 Y1.7951
X1.9842 Y1.8145
X1.9817 Y1.8336
X1.9777 Y1.8523
X1.9723 Y1.8707
X1.9653 Y1.8885
X1.957 Y1.9057
X1.9473 Y1.9221
X1.9363 Y1.9378
X1.9241 Y1.9525
X1.9107 Y1.9663
X1.8962 Y1.9789
X1.8807 Y1.9905
X1.8642 Y2.0007
X1.8469 Y2.0097
X1.8288 Y2.0172
X1.8101 Y2.0233
X1.7909 Y2.028
X1.7713 Y2.031
X1.7514 Y2.0325
X1.7313 Y2.0324
X1.7112 Y2.0307
X1.6912 Y2.0274
X1.6715 Y2.0224
X1.6522 Y2.0159
X1.6333 Y2.0078
X1.6152 Y1.9981
X1.5977 Y1.987
X1.5812 Y1.9745
X1.5657 Y1.9607
X1.5513 Y1.9456
X1.5381 Y1.9294
X1.5263 Y1.9121
X1.5158 Y1.8938
X1.5068 Y1.8748
X1.4994 Y1.855
X1.4935 Y1.8347
X1.4893 Y1.814
X1.4868 Y1.7929
X1.4859 Y1.7717
X1.4868 Y1.7504
X1.4894 Y1.7293
X1.4937 Y1.7084
X1.4996 Y1.6879
X1.5072 Y1.668
X1.5163 Y1.6487
X1.527 Y1.6301
X1.5392 Y1.6125
X1.5527 Y1.596
X1.5675 Y1.5805
X1.5835 Y1.5663
X1.6006 Y1.5534
X1.6187 Y1.5419
X1.6377 Y1.5319
X1.6574 Y1.5235
X1.6777 Y1.5166
X1.6985 Y1.5114
X1.7197 Y1.508
X1.7411 Y1.5062
X1.7625 Y1.5061
X1.7839 Y1.5078
X1.8052 Y1.5111
X1.8262 Y1.5162
X1.8468 Y1.523
X1.8669 Y1.5315
X1.8865 Y1.5417
X1.9055 Y1.5536
X1.9237 Y1.5671
X1.9409 Y1.5822
X1.957 Y1.5988
X1.9718 Y1.6167
X1.9852 Y1.6359
X1.9971 Y1.6562
X2.0073 Y1.6773
X2.0157 Y1.6991
X2.0223 Y1.7216
X2.0272 Y1.7444
X2.0301 Y1.7674
X2.0312 Y1.7905
X2.0305 Y1.8136
X2.0279 Y1.8364
X2.0234 Y1.8589
X2.0172 Y1.881
X2.0093 Y1.9024
X1.9997 Y1.9231
X1.9884 Y1.943
X1.9756 Y1.9619
X1.9613 Y1.9798
X1.9456 Y1.9964
X1.9285 Y2.0118
X1.9102 Y2.0259
X1.8908 Y2.0384
X1.8704 Y2.0494
X1.8491 Y2.0587
X1.827 Y2.0664
X1.8043 Y2.0722
X1.781 Y2.0763
X1.7575 Y2.0784
X1.7337 Y2.0787
X1.71 Y2.077
X1.6863 Y2.0735
X1.6629 Y2.068
X1.6399 Y2.0607
X1.6176 Y2.0515
X1.5959 Y2.0404
X1.5752 Y2.0277
X1.5555 Y2.0133
X1.5369 Y1.9973
X1.5197 Y1.9798
X1.5039 Y1.961
X1.4896 Y1.9409
X1.4769 Y1.9196
X1.466 Y1.8974
X1.4569 Y1.8743
X1.4496 Y1.8506
X1.4443 Y1.8262
X1.4409 Y1.8015
X1.4395 Y1.7766
X1.4401 Y1.7516
X1.4427 Y1.7268
X1.4474 Y1.7022
X1.4539 Y1.678
X1.4624 Y1.6544
X1.4728 Y1.6316
X1.485 Y1.6096
X1.4989 Y1.5887
X1.5145 Y1.569
X1.5316 Y1.5505
X1.5501 Y1.5335
X1.5699 Y1.5181
X1.591 Y1.5042
X1.613 Y1.4921
X1.636 Y1.4818
X1.6597 Y1.4734
X1.6841 Y1.4669
X1.7089 Y1.4624
X1.7339 Y1.4599
X1.7591 Y1.4594
X1.7843 Y1.4609
X1.8094 Y1.4645
X1.8342 Y1.4701
X1.8586 Y1.4777
X1.8824 Y1.4873
X1.9056 Y1.4989
X1.928 Y1.5124
X1.9494 Y1.5277
X1.9697 Y1.5449
X1.9886 Y1.5638
X2.0061 Y1.5843
X2.0219 Y1.6062
X2.036 Y1.6293
X2.0482 Y1.6536
X2.0584 Y1.6787
X2.0665 Y1.7046
X2.0725 Y1.731
X2.0764 Y1.7577
X2.0781 Y1.7845
X2.0777 Y1.8114
X2.0751 Y1.838
X2.0704 Y1.8644
X2.0636 Y1.8902
X2.0547 Y1.9153
X2.0439 Y1.9397
X2.0312 Y1.9631
X2.0166 Y1.9854
X2.0003 Y2.0065
X1.9822 Y2.0262
X1.9627 Y2.0445
X1.9417 Y2.0611
X1.9193 Y2.0761
X1.8958 Y2.0893
X1.8712 Y2.1005
X1.8457 Y2.1098
X1.8194 Y2.117
X1.7926 Y2.1222
X1.7653 Y2.1251
X1.7378 Y2.1259
X1.7103 Y2.1244
X1.6828 Y2.1208
X1.6557 Y2.1149
X1.629 Y2.1068
X1.603 Y2.0966
X1.5778 Y2.0843
X1.5536 Y2.07
X1.5306 Y2.0537
X1.5089 Y2.0356
X1.4887 Y2.0158
X1.4701 Y1.9943
X1.4532 Y1.9714
X1.4382 Y1.9472
X1.4252 Y1.9218
X1.4143 Y1.8954
X1.4054 Y1.8681
X1.3988 Y1.8402
X1.3945 Y1.8119
X1.3924 Y1.7832
X1.3926 Y1.7544
X1.3952 Y1.7257
X1.4 Y1.6973
X1.4072 Y1.6694
X1.4165 Y1.6421
X1.428 Y1.6156
X1.4416 Y1.5901
X1.4572 Y1.5658
X1.4748 Y1.5428
X1.4941 Y1.5212
X1.5151 Y1.5013
X1.5376 Y1.4831
X1.5615 Y1.4668
X1.5867 Y1.4525
X1.613 Y1.4402
X1.6401 Y1.4301
X1.668 Y1.4222
X1.6964 Y1.4165
X1.7252 Y1.4131
X1.7542 Y1.4121
X1.7832 Y1.4134
X1.812 Y1.417
X1.8405 Y1.4229
X1.8684 Y1.431
X1.8955 Y1.4414
X1.9217 Y1.4538
X1.9469 Y1.4683
X1.9709 Y1.4847
X1.9936 Y1.5029
X2.0148 Y1.5228
X2.0344 Y1.5442
X2.0523 Y1.567
X2.0684 Y1.5912
X2.0827 Y1.6165
X2.0951 Y1.6428
X2.1054 Y1.6699
X2.1137 Y1.6978
X2.1198 Y1.7262
X2.1238 Y1.7549
X2.1256 Y1.7839
X2.1252 Y1.813
X2.1225 Y1.8419
X2.1176 Y1.8705
X2.1105 Y1.8987
X2.1013 Y1.9262
X2.09 Y1.953
X2.0767 Y1.9788
X2.0615 Y2.0036
X2.0444 Y2.0271
X2.0256 Y2.0492
X2.0051 Y2.0698
X1.9832 Y2.0888
X1.9598 Y2.1061
X1.9353 Y2.1216
X1.9096 Y2.1352
X1.883 Y2.1468
X1.8555 Y2.1564
X1.8275 Y2.1639
X1.7989 Y2.1692
X1.7701 Y2.1724
X1.741 Y2.1734
X1.712 Y2.1722
X1.6831 Y2.1688
X1.6546 Y2.1634
X1.6266 Y2.1558
X1.5991 Y2.1462
X1.5725 Y2.1347
X1.5467 Y2.1212
X1.522 Y2.1059
X1.4985 Y2.0889
X1.4763 Y2.0702
X1.4555 Y2.0499
X1.4363 Y2.0281
X1.4187 Y2.005
X1.4029 Y1.9806
X1.3888 Y1.9552
X1.3766 Y1.9289
X1.3662 Y1.9017
X1.3578 Y1.8739
X1.3515 Y1.8456
X1.3471 Y1.8169
X1.345 Y1.7879
X1.3449 Y1.7589
X1.3469 Y1.7299
X1.351 Y1.7011
X1.3571 Y1.6727
X1.3652 Y1.6448
X1.3752 Y1.6175
X1.3871 Y1.591
X1.4009 Y1.5655
X1.4165 Y1.541
X1.4339 Y1.5177
X1.4529 Y1.4957
X1.4734 Y1.4751
X1.4953 Y1.456
X1.5184 Y1.4385
X1.5428 Y1.4227
X1.5681 Y1.4086
X1.5945 Y1.3963
X1.6217 Y1.3861
X1.6495 Y1.3778
X1.6779 Y1.3715
X1.7066 Y1.3673
X1.7356 Y1.365
X1.7646 Y1.3648
X1.7936 Y1.3666
X1.8224 Y1.3705
X1.8508 Y1.3764
X1.8788 Y1.3844
X1.9061 Y1.3943
X1.9326 Y1.4062
X1.9583 Y1.4198
X1.9829 Y1.4351
X2.0065 Y1.4521
X2.0289 Y1.4706
X2.05 Y1.4906
X2.0696 Y1.512
X2.0877 Y1.5347
X2.1042 Y1.5586
X2.1191 Y1.5836
X2.1323 Y1.6094
X2.1437 Y1.6361
X2.1534 Y1.6635
X2.1612 Y1.6915
X2.1672 Y1.7199
X2.1712 Y1.7487
X2.1731 Y1.7777
Y1.8067
X2.1711 Y1.8357
X2.1671 Y1.8645
X2.1612 Y1.8929
X2.1535 Y1.9209
X2.1438 Y1.9483
X2.1324 Y1.975
X2.1191 Y2.0008
X2.104 Y2.0257
X2.0873 Y2.0494
X2.069 Y2.072
X2.0492 Y2.0933
X2.0281 Y2.1132
X2.0057 Y2.1317
X1.9821 Y2.1486
X1.9574 Y2.1639
X1.9317 Y2.1775
X1.9051 Y2.1893
X1.8779 Y2.1992
X1.85 Y2.2074
X1.8216 Y2.2136
X1.7929 Y2.218
X1.7639 Y2.2204
X1.7349 Y2.221
X1.7059 Y2.2196
X1.677 Y2.2162
X1.6485 Y2.2109
X1.6203 Y2.2037
X1.5927 Y2.1947
X1.5657 Y2.1839
X1.5395 Y2.1715
X1.5141 Y2.1573
X1.4897 Y2.1416
X1.4663 Y2.1244
X1.4442 Y2.1056
X1.4233 Y2.0853
X1.4039 Y2.0637
X1.3859 Y2.0409
X1.3694 Y2.017
X1.3545 Y1.9921
X1.3411 Y1.9663
X1.3294 Y1.9397
X1.3194 Y1.9125
X1.3112 Y1.8846
X1.3048 Y1.8563
X1.3003 Y1.8276
X1.2978 Y1.7986
X1.297 Y1.7696
X1.2982 Y1.7406
X1.3011 Y1.7117
X1.3059 Y1.683
X1.3124 Y1.6547
X1.3207 Y1.6269
X1.3308 Y1.5996
X1.3426 Y1.5731
X1.3562 Y1.5474
X1.3714 Y1.5227
X1.3881 Y1.4989
X1.4064 Y1.4763
X1.426 Y1.4549
X1.4469 Y1.4347
X1.469 Y1.4159
X1.4922 Y1.3984
X1.5166 Y1.3826
X1.5419 Y1.3683
X1.5681 Y1.3558
X1.595 Y1.3449
X1.6226 Y1.3358
X1.6507 Y1.3285
X1.6792 Y1.3229
X1.708 Y1.3191
X1.737 Y1.3171
X1.766 Y1.317
X1.795 Y1.3187
X1.8238 Y1.3223
X1.8524 Y1.3278
X1.8805 Y1.3351
X1.9081 Y1.3441
X1.9351 Y1.3548
X1.9614 Y1.3671
X1.9869 Y1.3811
X2.0115 Y1.3965
X2.035 Y1.4135
X2.0575 Y1.4319
X2.0788 Y1.4517
X2.0988 Y1.4728
X2.1174 Y1.495
X2.1347 Y1.5184
X2.1506 Y1.5427
X2.165 Y1.5679
X2.1779 Y1.594
X2.1892 Y1.6207
X2.1989 Y1.6481
X2.2068 Y1.6761
X2.213 Y1.7044
X2.2175 Y1.7331
X2.2202 Y1.7621
X2.2211 Y1.7911
X2.2202 Y1.8201
X2.2177 Y1.8491
X2.2134 Y1.8778
X2.2073 Y1.9062
X2.1995 Y1.9342
X2.19 Y1.9616
X2.1788 Y1.9885
X2.166 Y2.0145
X2.1516 Y2.0397
X2.1357 Y2.064
X2.1183 Y2.0873
X2.0996 Y2.1095
X2.0796 Y2.1306
X2.0584 Y2.1504
X2.0359 Y2.1689
X2.0124 Y2.1859
X1.9879 Y2.2015
X1.9625 Y2.2155
X1.9362 Y2.228
X1.9093 Y2.2389
X1.8818 Y2.2481
X1.8537 Y2.2557
X1.8253 Y2.2616
X1.7965 Y2.2658
X1.7676 Y2.2683
X1.7386 Y2.269
X1.7095 Y2.2678
X1.6806 Y2.265
X1.6519 Y2.2604
X1.6236 Y2.2541
X1.5956 Y2.2462
X1.5682 Y2.2367
X1.5414 Y2.2256
X1.5152 Y2.2129
X1.4898 Y2.1988
X1.4654 Y2.1831
X1.4419 Y2.1661
X1.4194 Y2.1476
X1.3981 Y2.1278
X1.3781 Y2.1069
X1.3592 Y2.0847
X1.3417 Y2.0615
X1.3256 Y2.0374
X1.3108 Y2.0124
X1.2975 Y1.9866
X1.2858 Y1.96
X1.2756 Y1.9328
X1.2671 Y1.905
X1.2601 Y1.8768
X1.2549 Y1.8482
X1.2513 Y1.8194
X1.2495 Y1.7904
X1.2492 Y1.7614
X1.2507 Y1.7324
X1.2537 Y1.7035
X1.2585 Y1.6748
X1.2649 Y1.6465
X1.273 Y1.6186
X1.2826 Y1.5912
X1.2939 Y1.5644
X1.3066 Y1.5383
X1.3209 Y1.513
X1.3366 Y1.4886
X1.3537 Y1.4651
X1.372 Y1.4426
X1.3917 Y1.4212
X1.4125 Y1.4009
X1.4345 Y1.3819
X1.4576 Y1.3643
X1.4816 Y1.3479
X1.5065 Y1.333
X1.5323 Y1.3196
X1.5588 Y1.3077
X1.5859 Y1.2973
X1.6136 Y1.2885
X1.6417 Y1.2812
X1.6702 Y1.2757
X1.699 Y1.2717
X1.728 Y1.2695
X1.757 Y1.2689
X1.786 Y1.27
X1.8149 Y1.2727
X1.8436 Y1.2771
X1.8721 Y1.2832
X1.9001 Y1.2909
X1.9276 Y1.3001
X1.9546 Y1.3108
X1.9809 Y1.3231
X2.0065 Y1.3369
X2.0313 Y1.3521
X2.0551 Y1.3686
X2.078 Y1.3865
X2.0999 Y1.4056
X2.1207 Y1.4259
X2.1403 Y1.4474
X2.1587 Y1.4698
X2.1759 Y1.4933
X2.1917 Y1.5176
X2.2062 Y1.5428
X2.2192 Y1.5687
X2.2308 Y1.5954
X2.241 Y1.6226
X2.2496 Y1.6503
X2.2567 Y1.6785
X2.2622 Y1.707
X2.2661 Y1.7358
X2.2684 Y1.7648
X2.2692 Y1.7938
X2.2683 Y1.8228
X2.2658 Y1.8518
X2.2617 Y1.8805
X2.256 Y1.909
X2.2487 Y1.9371
X2.2399 Y1.9648
X2.2296 Y1.992
X2.2177 Y2.0185
X2.2044 Y2.0443
X2.1897 Y2.0694
X2.1737 Y2.0936
X2.1563 Y2.1169
X2.1377 Y2.1391
X2.1178 Y2.1604
X2.0969 Y2.1804
X2.0748 Y2.1993
X2.0517 Y2.217
X2.0277 Y2.2333
X2.0028 Y2.2483
X1.9771 Y2.2619
X1.9508 Y2.2741
X1.9238 Y2.2848
X1.8962 Y2.2941
X1.8682 Y2.3017
X1.8398 Y2.3079
X1.8112 Y2.3124
X1.7823 Y2.3154
X1.7532 Y2.3168
X1.7242 Y2.3166
X1.6952 Y2.3148
X1.6663 Y2.3115
X1.6377 Y2.3066
X1.6094 Y2.3002
X1.5814 Y2.2923
X1.554 Y2.2828
X1.5271 Y2.2719
X1.5008 Y2.2596
X1.4751 Y2.2458
X1.4503 Y2.2308
X1.4263 Y2.2144
X1.4033 Y2.1967
X1.3812 Y2.1779
X1.3601 Y2.1578
X1.3402 Y2.1367
X1.3214 Y2.1146
X1.3038 Y2.0914
X1.2875 Y2.0674
X1.2725 Y2.0425
X1.2588 Y2.0169
X1.2465 Y1.9906
X1.2356 Y1.9637
X1.2262 Y1.9362
X1.2182 Y1.9083
X1.2117 Y1.88
X1.2067 Y1.8513
X1.2032 Y1.8225
X1.2013 Y1.7935
X1.201 Y1.7645
X1.2022 Y1.7354
X1.2049 Y1.7065
X1.2091 Y1.6778
X1.2148 Y1.6493
X1.222 Y1.6212
X1.2307 Y1.5934
X1.2408 Y1.5662
X1.2523 Y1.5396
X1.2653 Y1.5135
X1.2795 Y1.4882
X1.2952 Y1.4638
X1.3121 Y1.4401
X1.3302 Y1.4174
X1.3495 Y1.3957
X1.3699 Y1.375
X1.3913 Y1.3555
X1.4138 Y1.337
X1.4372 Y1.3198
X1.4614 Y1.3038
X1.4865 Y1.2891
X1.5123 Y1.2758
X1.5388 Y1.2638
X1.5658 Y1.2533
X1.5934 Y1.2442
X1.6214 Y1.2366
X1.6498 Y1.2304
X1.6785 Y1.2258
X1.7074 Y1.2227
X1.7364 Y1.221
X1.7654 Y1.2209
X1.7945 Y1.2223
X1.8234 Y1.2252
X1.8521 Y1.2297
X1.8805 Y1.2356
X1.9086 Y1.2431
X1.9362 Y1.252
X1.9634 Y1.2623
X1.9899 Y1.274
X2.0159 Y1.2871
X2.0411 Y1.3015
X2.0656 Y1.3171
X2.0892 Y1.334
X2.112 Y1.3521
X2.1338 Y1.3713
X2.1546 Y1.3916
X2.1743 Y1.4129
X2.1929 Y1.4352
X2.2103 Y1.4584
X2.2266 Y1.4825
X2.2416 Y1.5074
X2.2553 Y1.533
X2.2678 Y1.5592
X2.2789 Y1.586
X2.2887 Y1.6134
X2.2971 Y1.6412
X2.3041 Y1.6694
X2.3096 Y1.6979
X2.3136 Y1.7267
X2.3162 Y1.7556
X2.3173 Y1.7846
X2.3169 Y1.8137
X2.3151 Y1.8427
X2.3118 Y1.8715
X2.307 Y1.9002
X2.3009 Y1.9286
X2.2932 Y1.9566
X2.2842 Y1.9842
X2.2738 Y2.0113
X2.262 Y2.0379
X2.2488 Y2.0638
X2.2343 Y2.0889
X2.2186 Y2.1134
X2.2017 Y2.137
X2.1835 Y2.1597
X2.1643 Y2.1814
X2.144 Y2.2022
X2.1227 Y2.2219
X2.1004 Y2.2406
X2.0772 Y2.258
X2.0531 Y2.2743
X2.0283 Y2.2894
X2.0027 Y2.3031
X1.9764 Y2.3155
X1.9496 Y2.3266
X1.9222 Y2.3364
X1.8944 Y2.3447
X1.8662 Y2.3516
X1.8377 Y2.3572
X1.8089 Y2.3613
X1.78 Y2.3639
X1.751 Y2.3651
X1.7219 Y2.3649
X1.6929 Y2.3631
X1.664 Y2.3599
X1.6354 Y2.3553
X1.607 Y2.3493
X1.5789 Y2.3418
X1.5512 Y2.333
X1.524 Y2.3228
X1.4973 Y2.3114
X1.4712 Y2.2986
X1.4458 Y2.2846
X1.4211 Y2.2693
X1.3971 Y2.2529
X1.374 Y2.2352
X1.3519 Y2.2165
X1.3307 Y2.1966
X1.3105 Y2.1757
X1.2913 Y2.1539
X1.2732 Y2.1312
X1.2563 Y2.1076
X1.2405 Y2.0832
X1.226 Y2.058
X1.2126 Y2.0322
X1.2005 Y2.0058
X1.1897 Y1.9789
X1.1803 Y1.9514
X1.1722 Y1.9235
X1.1655 Y1.8952
X1.1602 Y1.8667
X1.1563 Y1.8379
X1.1538 Y1.8089
X1.1528 Y1.7799
X1.1531 Y1.7509
X1.1548 Y1.7219
X1.1579 Y1.693
X1.1624 Y1.6643
X1.1683 Y1.6358
X1.1756 Y1.6077
X1.1842 Y1.58
X1.1942 Y1.5527
X1.2055 Y1.5259
X1.218 Y1.4997
X1.2319 Y1.4742
X1.2469 Y1.4494
X1.2632 Y1.4253
X1.2806 Y1.402
X1.2991 Y1.3796
X1.3186 Y1.3581
X1.3392 Y1.3376
X1.3607 Y1.3181
X1.3831 Y1.2996
X1.4064 Y1.2823
X1.4306 Y1.2661
X1.4554 Y1.2512
X1.481 Y1.2374
X1.5073 Y1.2249
X1.5341 Y1.2137
X1.5614 Y1.2038
X1.5891 Y1.1952
X1.6173 Y1.188
X1.6457 Y1.1821
X1.6744 Y1.1776
X1.7033 Y1.1745
X1.7323 Y1.1728
X1.7613 Y1.1725
X1.7903 Y1.1736
X1.8193 Y1.1761
X1.8481 Y1.18
X1.8766 Y1.1854
X1.9049 Y1.192
X1.9328 Y1.2
X1.9603 Y1.2094
X1.9874 Y1.22
X2.0139 Y1.2319
X2.0398 Y1.245
X2.065 Y1.2594
X2.0896 Y1.2749
X2.1133 Y1.2916
X2.1363 Y1.3094
X2.1584 Y1.3283
X2.1795 Y1.3482
X2.1997 Y1.3691
X2.219 Y1.3908
X2.2371 Y1.4135
X2.2543 Y1.437
X2.2703 Y1.4612
X2.2851 Y1.4861
X2.2989 Y1.5117
X2.3114 Y1.538
X2.3226 Y1.5648
X2.3326 Y1.592
X2.3413 Y1.6198
X2.3487 Y1.6478
X2.3548 Y1.6762
X2.3595 Y1.7049
X2.3629 Y1.7338
X2.365 Y1.7627
X2.3657 Y1.7918
X2.365 Y1.8208
X2.363 Y1.8498
X2.3597 Y1.8786
X2.355 Y1.9073
X2.3489 Y1.9357
X2.3415 Y1.9638
X2.3328 Y1.9915
X2.3228 Y2.0188
X2.3116 Y2.0456
X2.2991 Y2.0718
X2.2853 Y2.0974
X2.2704 Y2.1223
X2.2544 Y2.1465
X2.2373 Y2.17
X2.219 Y2.1926
X2.1998 Y2.2144
X2.1795 Y2.2352
X2.1583 Y2.255
X2.1362 Y2.2738
X2.1132 Y2.2916
X2.0894 Y2.3083
X2.0649 Y2.3239
X2.0397 Y2.3382
X2.0138 Y2.3514
X1.9873 Y2.3634
X1.9603 Y2.3742
X1.9329 Y2.3837
X1.9185 Y2.388
X1.9158 Y2.3886
X1.9131 Y2.389
X1.9103 Y2.3892
X1.6157
X1.5945 Y2.3881
X1.5737 Y2.3854
X1.5473 Y2.3797
X1.5194 Y2.3714
X1.4922 Y2.3612
X1.4657 Y2.3495
X1.4397 Y2.3364
X1.4144 Y2.3221
X1.3898 Y2.3066
X1.366 Y2.29
X1.343 Y2.2724
X1.3208 Y2.2536
X1.2995 Y2.2338
X1.2791 Y2.2131
X1.2597 Y2.1915
X1.2413 Y2.169
X1.224 Y2.1457
X1.2077 Y2.1217
X1.1924 Y2.0969
X1.1783 Y2.0716
X1.1654 Y2.0456
X1.1536 Y2.019
X1.143 Y1.992
X1.1336 Y1.9645
X1.1256 Y1.9366
X1.1188 Y1.9083
X1.1133 Y1.8798
X1.1091 Y1.851
X1.1063 Y1.8221
X1.1047 Y1.7931
X1.1044 Y1.7641
X1.1054 Y1.7351
X1.1077 Y1.7061
X1.1113 Y1.6773
X1.1161 Y1.6486
X1.1223 Y1.6202
X1.1296 Y1.5921
X1.1383 Y1.5644
X1.1482 Y1.5371
X1.1594 Y1.5103
X1.1717 Y1.484
X1.1853 Y1.4583
X1.2 Y1.4332
X1.2157 Y1.4089
X1.2326 Y1.3852
X1.2505 Y1.3623
X1.2693 Y1.3402
X1.2883 Y1.3199
X1.2948 Y1.3147
X1.3026 Y1.3115
X1.311 Y1.3107
X1.3232 Y1.3113
X1.3236
X1.3426 Y1.3073
X1.3475 Y1.3052
X1.352 Y1.3032
X1.3596 Y1.2986
X1.3652 Y1.2943
X1.368 Y1.292
X1.3718 Y1.2885
X1.3805 Y1.2788
X1.3859 Y1.2722
X1.3982 Y1.2569
X1.4018 Y1.2524
X1.4034 Y1.2498
X1.4071 Y1.2447
X1.4148 Y1.2356
X1.4245 Y1.2259
X1.4381 Y1.2144
X1.455 Y1.2022
X1.478 Y1.1883
X1.504 Y1.1753
X1.5308 Y1.1641
X1.5582 Y1.1544
X1.586 Y1.1461
X1.6142 Y1.1392
X1.6427 Y1.1335
X1.6714 Y1.1292
X1.7003 Y1.1261
X1.7293 Y1.1244
X1.7584 Y1.124
X1.7874 Y1.1249
X1.8164 Y1.1271
X1.8452 Y1.1307
X1.8738 Y1.1355
X1.9022 Y1.1415
X1.9304 Y1.1488
X1.9581 Y1.1574
X1.9855 Y1.1671
X2.0124 Y1.178
X2.0388 Y1.1901
X2.0647 Y1.2034
X2.0899 Y1.2178
X2.1145 Y1.2333
X2.1383 Y1.2498
X2.1614 Y1.2675
X2.1837 Y1.2861
X2.2052 Y1.3057
X2.2258 Y1.3261
X2.2455 Y1.3475
X2.2642 Y1.3697
X2.282 Y1.3926
X2.2988 Y1.4163
X2.3146 Y1.4407
X2.3293 Y1.4658
X2.3429 Y1.4914
X2.3554 Y1.5176
X2.3662 Y1.5431
X2.3674 Y1.5468
X2.3682 Y1.5506
X2.3685 Y1.5545
Y1.9848
X2.3677 Y2.0005
X2.3656 Y2.0161
X2.3615 Y2.0356
X2.3546 Y2.0587
X2.344 Y2.0857
X2.3315 Y2.1119
X2.3174 Y2.1374
X2.3021 Y2.162
X2.2856 Y2.1859
X2.268 Y2.2091
X2.2495 Y2.2314
X2.23 Y2.2529
X2.2095 Y2.2736
X2.1882 Y2.2933
X2.166 Y2.3121
X2.1431 Y2.3299
X2.1193 Y2.3466
X2.0949 Y2.3623
X2.0698 Y2.377
X2.0531 Y2.3858
X2.0488 Y2.3876
X2.0442 Y2.3888
X2.0395 Y2.3892
X1.9103
G3 X1.9024 Y2.3673 I0.0004 J-0.0125
G1 X1.9033 Y2.3665
X2.3668 Y1.9562
X2.3678 Y1.955
X2.3683 Y1.9535
Y1.9519
X2.3677 Y1.9504
X2.3666 Y1.9492
X2.3652 Y1.9484
X2.3637 Y1.9482
X2.3621 Y1.9485
X2.3607 Y1.9493
X2.3597 Y1.9505
X2.3592 Y1.952
Y1.9536
X2.3598 Y1.9551
G3 X2.3685 Y1.9848 I-0.0536 J0.0318
G1 Y2.0904
X2.3677 Y2.1052
X2.3664 Y2.1154
X2.3637 Y2.1281
X2.3592 Y2.143
X2.3519 Y2.1617
X2.3414 Y2.1835
X2.3266 Y2.2085
X2.3101 Y2.2324
X2.2922 Y2.2553
X2.2732 Y2.2772
X2.2533 Y2.2983
X2.2324 Y2.3186
X2.2107 Y2.3379
X2.1883 Y2.3563
X2.1651 Y2.3738
X2.1505 Y2.384
X2.1453 Y2.3868
X2.1397 Y2.3886
X2.1339 Y2.3892
X2.0395
G3 X2.0315 Y2.3674 I0.0004 J-0.0125
G1 X2.0325 Y2.3665
X2.3457 Y2.0833
X2.3476 Y2.0816
G3 X2.3685 Y2.0904 I0.0084 J0.0093
G1 Y2.1828
X2.3681 Y2.1896
X2.367 Y2.1984
X2.3647 Y2.2089
X2.3613 Y2.2203
X2.3557 Y2.2348
X2.3479 Y2.2508
X2.3361 Y2.2708
X2.3194 Y2.2946
X2.3009 Y2.317
X2.2811 Y2.3382
X2.2603 Y2.3585
X2.2386 Y2.3778
X2.2328 Y2.3826
X2.2272 Y2.3862
X2.2209 Y2.3884
X2.2143 Y2.3892
G3 X2.2047 Y2.3693 I0.0004 J-0.0125
G1 X2.2069 Y2.3662
X2.3459 Y2.1758
G3 X2.3685 Y2.1828 I0.0101 J0.0074
G1 Y2.2554
X2.368 Y2.2655
X2.3669 Y2.2734
X2.3651 Y2.2819
X2.362 Y2.2924
X2.3574 Y2.3041
X2.3507 Y2.3178
X2.3413 Y2.3338
X2.3276 Y2.3534
X2.309 Y2.3758
X2.3046 Y2.3803
X2.2985 Y2.3851
X2.2914 Y2.3881
X2.2837 Y2.3892
G3 X2.2734 Y2.3703 I0.0004 J-0.0125
G1 X2.2759 Y2.366
X2.3452 Y2.2494
G3 X2.3685 Y2.2554 I0.0107 J0.0064
G1 Y2.3279
X2.3681 Y2.3347
X2.3672 Y2.3417
X2.3654 Y2.3502
X2.3626 Y2.3596
X2.3591 Y2.3686
X2.3571 Y2.3727
X2.3525 Y2.3795
X2.3463 Y2.3847
X2.3389 Y2.388
X2.3308 Y2.3892
G3 X2.3202 Y2.371 I0.0004 J-0.0125
G1 X2.3228 Y2.3658
X2.3449 Y2.3227
G3 X2.3685 Y2.3279 I0.0111 J0.0057
G1 Y2.3741
X2.3684 Y2.3774
X2.3681 Y2.3791
X2.3676 Y2.3807
X2.3671 Y2.3819
X2.3663 Y2.3833
X2.3652 Y2.3846
X2.3635 Y2.3861
X2.3619 Y2.3873
X2.3605 Y2.3881
X2.3588 Y2.3887
X2.3572 Y2.389
X2.3539 Y2.3892
X2.1339
G3 X2.1269 Y2.3666 I0.0004 J-0.0125
G1 X2.1292 Y2.3649 Z0.9583
X2.1313 Y2.3634 Z0.9592
X2.1332 Y2.362 Z0.9607
X2.1348 Y2.3608 Z0.9627
X2.136 Y2.3599 Z0.965
X2.1367 Y2.3594 Z0.9677
X2.137 Y2.3592 Z0.9705
G0 Z1.2139
X1.3941 Y1.2919
Z0.983
G1 Z0.9705 F40.
Y1.2916 Z0.9677
X1.3942 Y1.2907 Z0.965
Y1.2892 Z0.9627
X1.3943 Y1.2872 Z0.9607
X1.3944 Y1.2849 Z0.9592
X1.3945 Y1.2822 Z0.9583
X1.3946 Y1.2795 Z0.958
G3 X1.4034 Y1.2498 I0.0623 J0.0024
G1 X1.4114 Y1.2374
X1.4142 Y1.2326
X1.4215 Y1.2194
X1.4246 Y1.2128
X1.4295 Y1.1996
X1.4328 Y1.1921
X1.4357 Y1.1866
X1.4397 Y1.1803
X1.4453 Y1.1729
X1.4519 Y1.1656
X1.4607 Y1.1572
X1.4721 Y1.1481
X1.4868 Y1.138
X1.5055 Y1.1273
X1.5304 Y1.1156
X1.5576 Y1.1054
X1.5855 Y1.097
X1.6137 Y1.0902
X1.6422 Y1.0847
X1.6709 Y1.0805
X1.6998 Y1.0775
X1.7288 Y1.0759
X1.7579 Y1.0754
X1.7869 Y1.0763
X1.8159 Y1.0783
X1.8448 Y1.0816
X1.8735 Y1.0861
X1.902 Y1.0917
X1.9302 Y1.0985
X1.9581 Y1.1065
X1.9857 Y1.1156
X2.0129 Y1.1258
X2.0397 Y1.1371
X2.066 Y1.1494
X2.0917 Y1.1629
X2.1169 Y1.1773
X2.1415 Y1.1929
X2.1653 Y1.2094
X2.1885 Y1.2269
X2.2109 Y1.2454
X2.2326 Y1.2648
X2.2534 Y1.285
X2.2735 Y1.306
X2.2926 Y1.3279
X2.3109 Y1.3504
X2.3283 Y1.3737
X2.3447 Y1.3977
X2.3602 Y1.4223
X2.3646 Y1.4299
X2.3667 Y1.4345
X2.368 Y1.4394
X2.3685 Y1.4445
Y1.5545
G3 X2.3459 Y1.5614 I-0.0125 J-0.0004
G1 X2.3443 Y1.5592 Z0.9583
X2.3427 Y1.5571 Z0.9592
X2.3413 Y1.5551 Z0.9607
X2.3401 Y1.5536 Z0.9627
X2.3392 Y1.5524 Z0.965
X2.3387 Y1.5516 Z0.9677
X2.3385 Y1.5514 Z0.9705
G0 Z1.2139
X1.4295 Y1.2427
Z0.983
G1 Z0.9705 F40.
X1.4294 Y1.2424 Z0.9677
X1.4293 Y1.2415 Z0.965
X1.429 Y1.24 Z0.9627
X1.4287 Y1.2381 Z0.9607
X1.4282 Y1.2357 Z0.9592
X1.4278 Y1.2331 Z0.9583
X1.4273 Y1.2304 Z0.958
G3 X1.4295 Y1.1996 I0.0613 J-0.011
G1 X1.4313 Y1.1948
X1.4315 Y1.1942
X1.4333 Y1.1798
X1.4339 Y1.1732
X1.4338 Y1.1695
X1.4341 Y1.1636
X1.4349 Y1.1578
X1.4364 Y1.1521
X1.4385 Y1.1464
X1.4412 Y1.1406
X1.4448 Y1.1341
X1.4498 Y1.1267
X1.4556 Y1.1195
X1.4636 Y1.111
X1.4732 Y1.1022
X1.4854 Y1.0929
X1.5006 Y1.083
X1.5205 Y1.0722
X1.5452 Y1.0614
X1.5726 Y1.0518
X1.6007 Y1.0442
X1.6291 Y1.0381
X1.6577 Y1.0335
X1.6866 Y1.0301
X1.7156 Y1.0279
X1.7446 Y1.027
X1.7736 Y1.0272
X1.8026 Y1.0286
X1.8316 Y1.0311
X1.8604 Y1.0348
X1.8891 Y1.0395
X1.9175 Y1.0454
X1.9457 Y1.0523
X1.9736 Y1.0603
X2.0012 Y1.0694
X2.0285 Y1.0795
X2.0553 Y1.0907
X2.0816 Y1.1029
X2.1075 Y1.1161
X2.1329 Y1.1303
X2.1576 Y1.1454
X2.1818 Y1.1616
X2.2053 Y1.1786
X2.2282 Y1.1965
X2.2504 Y1.2153
X2.2718 Y1.2349
X2.2925 Y1.2553
X2.3124 Y1.2765
X2.3314 Y1.2984
X2.3497 Y1.321
X2.3627 Y1.3383
X2.3658 Y1.3437
X2.3678 Y1.3496
X2.3685 Y1.3558
Y1.4445
G3 X2.3459 Y1.4514 I-0.0125 J-0.0004
G1 X2.3443 Y1.4492 Z0.9583
X2.3427 Y1.4471 Z0.9592
X2.3413 Y1.4452 Z0.9607
X2.3401 Y1.4436 Z0.9627
X2.3392 Y1.4424 Z0.965
X2.3387 Y1.4416 Z0.9677
X2.3385 Y1.4414 Z0.9705
G0 Z1.2139
X1.4494 Y1.2098
Z0.983
G1 Z0.9705 F40.
X1.4492 Y1.2095 Z0.9677
X1.4487 Y1.2087 Z0.965
X1.4479 Y1.2075 Z0.9627
X1.4469 Y1.2058 Z0.9607
X1.4457 Y1.2038 Z0.9592
X1.4443 Y1.2015 Z0.9583
X1.4429 Y1.1991 Z0.958
G3 X1.4338 Y1.1695 I0.0532 J-0.0324
G1 Y1.1666
X1.4331 Y1.16
X1.4319 Y1.1534
X1.4301 Y1.1468
X1.4294 Y1.1448
X1.4275 Y1.1392
X1.4267 Y1.1333
Y1.1274
X1.4274 Y1.1216
X1.4286 Y1.1158
X1.4303 Y1.11
X1.433 Y1.1031
X1.4363 Y1.0963
X1.4409 Y1.0885
X1.4464 Y1.0805
X1.4537 Y1.0717
X1.4626 Y1.0625
X1.4739 Y1.0527
X1.4875 Y1.0426
X1.5052 Y1.0315
X1.5251 Y1.0212
X1.551 Y1.0103
X1.5785 Y1.0012
X1.6067 Y0.994
X1.6352 Y0.9883
X1.6639 Y0.984
X1.6928 Y0.981
X1.7218 Y0.9791
X1.7508 Y0.9784
X1.7799 Y0.9788
X1.8089 Y0.9802
X1.8378 Y0.9828
X1.8666 Y0.9864
X1.8953 Y0.9911
X1.9238 Y0.9968
X1.952 Y1.0036
X1.98 Y1.0114
X2.0077 Y1.0201
X2.0351 Y1.0299
X2.062 Y1.0406
X2.0886 Y1.0524
X2.1148 Y1.065
X2.1404 Y1.0786
X2.1656 Y1.0931
X2.1902 Y1.1085
X2.2143 Y1.1248
X2.2377 Y1.142
X2.2605 Y1.16
X2.2827 Y1.1788
X2.3041 Y1.1983
X2.3249 Y1.2187
X2.3449 Y1.2398
X2.3612 Y1.2582
X2.3651 Y1.2639
X2.3676 Y1.2705
X2.3685 Y1.2775
Y1.3558
G3 X2.3459 Y1.3627 I-0.0125 J-0.0004
G1 X2.3443 Y1.3605 Z0.9583
X2.3427 Y1.3584 Z0.9592
X2.3413 Y1.3564 Z0.9607
X2.3401 Y1.3548 Z0.9627
X2.3392 Y1.3536 Z0.965
X2.3387 Y1.3529 Z0.9677
X2.3385 Y1.3526 Z0.9705
G0 Z1.2139
X1.4582 Y1.1769
Z0.983
G1 Z0.9705 F40.
X1.4579 Y1.1767 Z0.9677
X1.4572 Y1.1761 Z0.965
X1.456 Y1.1752 Z0.9627
X1.4545 Y1.174 Z0.9607
X1.4526 Y1.1725 Z0.9592
X1.4505 Y1.1709 Z0.9583
X1.4483 Y1.1692 Z0.958
G3 X1.4294 Y1.1448 I0.0382 J-0.0492
G1 X1.4276 Y1.1402
X1.4245 Y1.1336
X1.4206 Y1.127
X1.4191 Y1.1249
X1.416 Y1.1199
X1.4136 Y1.1145
X1.4121 Y1.1088
X1.4114 Y1.1029
X1.4112 Y1.097
X1.4116 Y1.0911
X1.4125 Y1.0851
X1.4141 Y1.0781
X1.4164 Y1.071
X1.4197 Y1.0629
X1.4239 Y1.0548
X1.4295 Y1.0456
X1.4363 Y1.0363
X1.4451 Y1.0261
X1.4559 Y1.0155
X1.4684 Y1.005
X1.4851 Y0.9931
X1.5034 Y0.9822
X1.5264 Y0.9708
X1.5534 Y0.9601
X1.5811 Y0.9515
X1.6093 Y0.9446
X1.6379 Y0.9391
X1.6666 Y0.935
X1.6955 Y0.9321
X1.7245 Y0.9304
X1.7536 Y0.9297
X1.7826 Y0.9301
X1.8116 Y0.9315
X1.8406 Y0.934
X1.8694 Y0.9375
X1.8981 Y0.942
X1.9266 Y0.9476
X1.9549 Y0.954
X1.983 Y0.9615
X2.0108 Y0.9699
X2.0383 Y0.9792
X2.0655 Y0.9894
X2.0923 Y1.0006
X2.1188 Y1.0127
X2.1448 Y1.0256
X2.1703 Y1.0395
X2.1954 Y1.0541
X2.2199 Y1.0697
X2.2439 Y1.086
X2.2673 Y1.1032
X2.2902 Y1.1211
X2.3124 Y1.1399
X2.3339 Y1.1594
X2.3548 Y1.1796
X2.3603 Y1.1852
X2.3647 Y1.1912
X2.3675 Y1.1981
X2.3685 Y1.2055
Y1.2775
G3 X2.3459 Y1.2844 I-0.0125 J-0.0004
G1 X2.3443 Y1.2822 Z0.9583
X2.3427 Y1.2801 Z0.9592
X2.3413 Y1.2782 Z0.9607
X2.3401 Y1.2766 Z0.9627
X2.3392 Y1.2754 Z0.965
X2.3387 Y1.2746 Z0.9677
X2.3385 Y1.2744 Z0.9705
G0 Z1.2139
X1.4546 Y1.1495
Z0.983
G1 Z0.9705 F40.
X1.4543 Y1.1493 Z0.9677
X1.4535 Y1.149 Z0.965
X1.4521 Y1.1483 Z0.9627
X1.4503 Y1.1475 Z0.9607
X1.4482 Y1.1465 Z0.9592
X1.4458 Y1.1454 Z0.9583
X1.4432 Y1.1443 Z0.958
G3 X1.4191 Y1.1249 I0.0258 J-0.0567
G1 X1.4179 Y1.1232
X1.4157 Y1.1204
X1.4114 Y1.1156
X1.4048 Y1.1092
X1.4034 Y1.1081
X1.3991 Y1.1041
X1.3957 Y1.0992
X1.3931 Y1.0939
X1.3912 Y1.0883
X1.3899 Y1.0826
X1.3892 Y1.0767
X1.389 Y1.0705
X1.3892 Y1.0639
X1.3901 Y1.0566
X1.3918 Y1.0487
X1.3942 Y1.0403
X1.3977 Y1.0309
X1.4022 Y1.0216
X1.4082 Y1.0111
X1.4155 Y1.0006
X1.4248 Y0.9892
X1.4365 Y0.977
X1.4495 Y0.9655
X1.466 Y0.953
X1.4865 Y0.94
X1.5096 Y0.9279
X1.5363 Y0.9165
X1.5638 Y0.9071
X1.5918 Y0.8995
X1.6202 Y0.8934
X1.6489 Y0.8886
X1.6777 Y0.8851
X1.7067 Y0.8827
X1.7357 Y0.8813
X1.7647 Y0.881
X1.7938 Y0.8818
X1.8228 Y0.8835
X1.8517 Y0.8862
X1.8805 Y0.8898
X1.9092 Y0.8944
X1.9377 Y0.8999
X1.966 Y0.9064
X1.9941 Y0.9138
X2.0219 Y0.9221
X2.0495 Y0.9313
X2.0767 Y0.9413
X2.1037 Y0.9523
X2.1302 Y0.9641
X2.1564 Y0.9767
X2.1821 Y0.9902
X2.2074 Y1.0045
X2.2322 Y1.0196
X2.2565 Y1.0354
X2.2803 Y1.0521
X2.3036 Y1.0695
X2.3263 Y1.0876
X2.3484 Y1.1065
X2.359 Y1.1161
X2.3641 Y1.1223
X2.3674 Y1.1297
X2.3685 Y1.1377
Y1.2055
G3 X2.3459 Y1.2125 I-0.0125 J-0.0004
G1 X2.3443 Y1.2102 Z0.9583
X2.3427 Y1.2081 Z0.9592
X2.3413 Y1.2062 Z0.9607
X2.3401 Y1.2046 Z0.9627
X2.3392 Y1.2034 Z0.965
X2.3387 Y1.2026 Z0.9677
X2.3385 Y1.2024 Z0.9705
G0 Z1.2139
X1.4443 Y1.122
Z0.983
G1 Z0.9705 F40.
X1.4439 Z0.9677
X1.443 Y1.1218 Z0.965
X1.4416 Y1.1216 Z0.9627
X1.4396 Y1.1213 Z0.9607
X1.4373 Y1.121 Z0.9592
X1.4346 Y1.1206 Z0.9583
X1.4319 Y1.1202 Z0.958
G3 X1.4034 Y1.1081 I0.0093 J-0.0616
G1 X1.4023 Y1.1072
X1.3982 Y1.104
X1.3931 Y1.1006
X1.3916 Y1.0996
X1.385 Y1.0958
X1.3799 Y1.0929
X1.3756 Y1.0888
X1.372 Y1.0842
X1.369 Y1.0791
X1.3666 Y1.0737
X1.3647 Y1.0681
X1.3633 Y1.0622
X1.3623 Y1.0558
X1.3618 Y1.0489
Y1.041
X1.3625 Y1.0329
X1.3641 Y1.0236
X1.3665 Y1.0141
X1.37 Y1.0038
X1.3749 Y0.9924
X1.3766 Y0.9893
X1.3802 Y0.9841
X1.3847 Y0.9797
X1.3901 Y0.9765
X1.4048 Y0.9697
X1.4069 Y0.9686
X1.4114 Y0.9652
X1.4245 Y0.9539
X1.429 Y0.9488
X1.4293 Y0.9483
X1.434 Y0.9405
X1.4394 Y0.9331
X1.4468 Y0.9243
X1.4553 Y0.9159
X1.4668 Y0.906
X1.4804 Y0.8962
X1.4985 Y0.8853
X1.5198 Y0.8746
X1.5468 Y0.8638
X1.5745 Y0.8551
X1.6027 Y0.8481
X1.6312 Y0.8426
X1.66 Y0.8384
X1.6888 Y0.8353
X1.7178 Y0.8334
X1.7469 Y0.8324
X1.7759 Y0.8325
X1.8049 Y0.8335
X1.8339 Y0.8354
X1.8628 Y0.8383
X1.8916 Y0.8421
X1.9203 Y0.8467
X1.9488 Y0.8523
X1.9771 Y0.8587
X2.0052 Y0.8661
X2.0331 Y0.8743
X2.0607 Y0.8834
X2.088 Y0.8933
X2.115 Y0.904
X2.1416 Y0.9155
X2.1679 Y0.9279
X2.1938 Y0.941
X2.2193 Y0.955
X2.2444 Y0.9696
X2.269 Y0.9851
X2.2931 Y1.0013
X2.3168 Y1.0182
X2.3399 Y1.0358
X2.3577 Y1.0503
X2.3635 Y1.0566
X2.3672 Y1.0644
X2.3685 Y1.0729
Y1.1377
G3 X2.3459 Y1.1447 I-0.0125 J-0.0004
G1 X2.3443 Y1.1424 Z0.9583
X2.3427 Y1.1403 Z0.9592
X2.3413 Y1.1384 Z0.9607
X2.3401 Y1.1368 Z0.9627
X2.3392 Y1.1356 Z0.965
X2.3387 Y1.1348 Z0.9677
X2.3385 Y1.1346 Z0.9705
G0 Z1.2139
X1.4234 Y0.9911
Z0.983
G1 Z0.9705 F40.
X1.4233 Y0.9908 Z0.9677
Y0.9898 Z0.965
X1.4232 Y0.9883 Z0.9627
Y0.9864 Z0.9607
X1.4231 Y0.984 Z0.9592
X1.423 Y0.9814 Z0.9583
X1.4228 Y0.9786 Z0.958
G3 X1.4293 Y0.9483 I0.0623 J-0.0026
G1 X1.4392 Y0.9299
X1.4394 Y0.9295
X1.4432 Y0.9109
Y0.9105
X1.4436 Y0.9046
X1.4452 Y0.8989
X1.4475 Y0.8934
X1.4504 Y0.8876
X1.4541 Y0.8815
X1.4593 Y0.8744
X1.4656 Y0.8671
X1.4734 Y0.8594
X1.484 Y0.8504
X1.4957 Y0.842
X1.5119 Y0.8323
X1.5312 Y0.8228
X1.5561 Y0.8129
X1.5838 Y0.8043
X1.6121 Y0.7976
X1.6407 Y0.7925
X1.6695 Y0.7886
X1.6984 Y0.7859
X1.7274 Y0.7842
X1.7564 Y0.7836
X1.7855 Y0.7839
X1.8145 Y0.7851
X1.8435 Y0.7872
X1.8724 Y0.7902
X1.9011 Y0.794
X1.9298 Y0.7987
X1.9583 Y0.8042
X1.9867 Y0.8106
X2.0148 Y0.8179
X2.0427 Y0.826
X2.0703 Y0.8349
X2.0977 Y0.8446
X2.1248 Y0.8551
X2.1516 Y0.8664
X2.178 Y0.8784
X2.2041 Y0.8912
X2.2298 Y0.9048
X2.2551 Y0.9191
X2.2799 Y0.9341
X2.3044 Y0.9498
X2.3283 Y0.9662
X2.3518 Y0.9833
X2.3576 Y0.9879
X2.3635 Y0.9943
X2.3672 Y1.0021
X2.3685 Y1.0106
Y1.0729
G3 X2.3459 Y1.0799 I-0.0125 J-0.0004
G1 X2.3443 Y1.0776 Z0.9583
X2.3427 Y1.0755 Z0.9592
X2.3413 Y1.0736 Z0.9607
X2.3401 Y1.072 Z0.9627
X2.3392 Y1.0708 Z0.965
X2.3387 Y1.07 Z0.9677
X2.3385 Y1.0698 Z0.9705
G0 Z1.2139
X1.459 Y0.9506
Z0.983
G1 Z0.9705 F40.
X1.4588 Y0.9504 Z0.9677
X1.4583 Y0.9496 Z0.965
X1.4576 Y0.9483 Z0.9627
X1.4565 Y0.9466 Z0.9607
X1.4553 Y0.9446 Z0.9592
X1.4539 Y0.9424 Z0.9583
X1.4524 Y0.94 Z0.958
G3 X1.4432 Y0.9105 I0.053 J-0.0327
G1 X1.4429 Y0.8919
Y0.8915
X1.4414 Y0.8858
X1.4402 Y0.88
X1.4399 Y0.8741
X1.4404 Y0.8682
X1.4415 Y0.8624
X1.4432 Y0.8568
X1.4456 Y0.8505
X1.4487 Y0.8443
X1.4529 Y0.8372
X1.4581 Y0.8297
X1.4647 Y0.8218
X1.473 Y0.8132
X1.4831 Y0.8045
X1.4959 Y0.795
X1.5112 Y0.7854
X1.5301 Y0.7757
X1.5542 Y0.7656
X1.5818 Y0.7566
X1.61 Y0.7496
X1.6385 Y0.7442
X1.6673 Y0.7402
X1.6962 Y0.7373
X1.7252 Y0.7355
X1.7542 Y0.7347
X1.7833 Y0.7349
X1.8123 Y0.7359
X1.8413 Y0.7379
X1.8702 Y0.7406
X1.899 Y0.7442
X1.9277 Y0.7486
X1.9563 Y0.7539
X1.9847 Y0.7599
X2.013 Y0.7668
X2.041 Y0.7744
X2.0688 Y0.7829
X2.0963 Y0.7921
X2.1236 Y0.802
X2.1506 Y0.8127
X2.1773 Y0.8242
X2.2037 Y0.8364
X2.2297 Y0.8493
X2.2554 Y0.8629
X2.2806 Y0.8772
X2.3055 Y0.8922
X2.33 Y0.9079
X2.354 Y0.9242
X2.3574 Y0.9269
X2.3634 Y0.9333
X2.3672 Y0.9412
X2.3685 Y0.9498
Y1.0106
G3 X2.3459 Y1.0176 I-0.0125 J-0.0004
G1 X2.3443 Y1.0153 Z0.9583
X2.3427 Y1.0132 Z0.9592
X2.3413 Y1.0113 Z0.9607
X2.3401 Y1.0097 Z0.9627
X2.3392 Y1.0085 Z0.965
X2.3387 Y1.0078 Z0.9677
X2.3385 Y1.0075 Z0.9705
G0 Z1.2139
X1.4663 Y0.9211
Z0.983
G1 Z0.9705 F40.
X1.466 Y0.9208 Z0.9677
X1.4654 Y0.9202 Z0.965
X1.4643 Y0.9191 Z0.9627
X1.4629 Y0.9178 Z0.9607
X1.4612 Y0.9161 Z0.9592
X1.4593 Y0.9142 Z0.9583
X1.4573 Y0.9123 Z0.958
G3 X1.4414 Y0.8858 I0.0437 J-0.0444
G1 X1.4389 Y0.8762
X1.4377 Y0.872
X1.4323 Y0.86
X1.4301 Y0.8545
X1.4288 Y0.8488
X1.4282 Y0.8429
X1.4283 Y0.837
X1.4291 Y0.8311
X1.4303 Y0.8254
X1.4322 Y0.8187
X1.4348 Y0.8119
X1.4385 Y0.8042
X1.443 Y0.7964
X1.4491 Y0.7877
X1.4561 Y0.779
X1.4656 Y0.7692
X1.4761 Y0.7599
X1.4903 Y0.7493
X1.5063 Y0.7392
X1.5263 Y0.7287
X1.5512 Y0.7181
X1.5787 Y0.709
X1.6069 Y0.7017
X1.6354 Y0.6961
X1.6641 Y0.6919
X1.693 Y0.6889
X1.722 Y0.6869
X1.751 Y0.6859
X1.78
X1.8091 Y0.6868
X1.8381 Y0.6885
X1.867 Y0.691
X1.8959 Y0.6944
X1.9246 Y0.6985
X1.9533 Y0.7034
X1.9817 Y0.7091
X2.0101 Y0.7155
X2.0382 Y0.7228
X2.0661 Y0.7307
X2.0938 Y0.7395
X2.1213 Y0.7489
X2.1485 Y0.7591
X2.1754 Y0.77
X2.2021 Y0.7816
X2.2284 Y0.7938
X2.2544 Y0.8068
X2.28 Y0.8204
X2.3053 Y0.8348
X2.3302 Y0.8497
X2.3425 Y0.8575
X2.3556 Y0.8664
X2.361 Y0.8711
X2.3651 Y0.8769
X2.3676 Y0.8835
X2.3685 Y0.8906
Y0.9498
G3 X2.3459 Y0.9568 I-0.0125 J-0.0004
G1 X2.3443 Y0.9545 Z0.9583
X2.3427 Y0.9524 Z0.9592
X2.3413 Y0.9505 Z0.9607
X2.3401 Y0.9489 Z0.9627
X2.3392 Y0.9477 Z0.965
X2.3387 Y0.9469 Z0.9677
X2.3385 Y0.9467 Z0.9705
G0 Z1.2139
X1.4628 Y0.8905
Z0.983
G1 Z0.9705 F40.
X1.4625 Y0.8903 Z0.9677
X1.4618 Y0.8898 Z0.965
X1.4605 Y0.889 Z0.9627
X1.4589 Y0.8878 Z0.9607
X1.457 Y0.8865 Z0.9592
X1.4548 Y0.885 Z0.9583
X1.4525 Y0.8834 Z0.958
G3 X1.4323 Y0.86 I0.0355 J-0.0512
G1 X1.4306 Y0.8564
X1.4275 Y0.8498
X1.4242 Y0.8432
X1.4199 Y0.8366
X1.4188 Y0.8351
X1.4157 Y0.8301
X1.4136 Y0.8246
X1.4122 Y0.8188
X1.4115 Y0.813
X1.4114 Y0.8071
X1.4118 Y0.8009
X1.4128 Y0.7946
X1.4145 Y0.7873
X1.4168 Y0.7799
X1.4203 Y0.7715
X1.4245 Y0.7631
X1.4305 Y0.7535
X1.4374 Y0.7441
X1.4462 Y0.7338
X1.4572 Y0.7229
X1.4699 Y0.7123
X1.4864 Y0.7005
X1.5052 Y0.6894
X1.5278 Y0.6782
X1.5548 Y0.6675
X1.5825 Y0.659
X1.6108 Y0.6521
X1.6393 Y0.6468
X1.6681 Y0.6427
X1.697 Y0.6398
X1.726 Y0.638
X1.755 Y0.6371
X1.7841
X1.8131 Y0.638
X1.8421 Y0.6396
X1.871 Y0.6421
X1.8999 Y0.6454
X1.9287 Y0.6494
X1.9573 Y0.6542
X1.9858 Y0.6598
X2.0142 Y0.6661
X2.0424 Y0.6731
X2.0704 Y0.6808
X2.0981 Y0.6893
X2.1257 Y0.6984
X2.153 Y0.7083
X2.1801 Y0.7188
X2.2069 Y0.7301
X2.2334 Y0.7419
X2.2596 Y0.7545
X2.2855 Y0.7677
X2.311 Y0.7815
X2.3362 Y0.796
X2.3544 Y0.8073
X2.3567 Y0.809
X2.363 Y0.8154
X2.3671 Y0.8235
X2.3685 Y0.8324
Y0.8906
G3 X2.3459 Y0.8976 I-0.0125 J-0.0004
G1 X2.3443 Y0.8953 Z0.9583
X2.3427 Y0.8932 Z0.9592
X2.3413 Y0.8913 Z0.9607
X2.3401 Y0.8897 Z0.9627
X2.3392 Y0.8885 Z0.965
X2.3387 Y0.8877 Z0.9677
X2.3385 Y0.8875 Z0.9705
G0 Z1.2139
X1.4544 Y0.8595
Z0.983
G1 Z0.9705 F40.
X1.4541 Y0.8594 Z0.9677
X1.4533 Y0.859 Z0.965
X1.4519 Y0.8584 Z0.9627
X1.4501 Y0.8576 Z0.9607
X1.448 Y0.8566 Z0.9592
X1.4456 Y0.8555 Z0.9583
X1.443 Y0.8544 Z0.958
G3 X1.4188 Y0.8351 I0.0255 J-0.0568
G1 X1.4152 Y0.83
X1.4048 Y0.8163
X1.4 Y0.8103
X1.3965 Y0.8055
X1.394 Y0.8001
X1.3922 Y0.7945
X1.391 Y0.7887
X1.3904 Y0.7829
X1.3902 Y0.7767
X1.3906 Y0.7698
X1.3916 Y0.7626
X1.3935 Y0.7544
X1.396 Y0.7461
X1.3998 Y0.7365
X1.4045 Y0.7271
X1.4108 Y0.7166
X1.4187 Y0.7056
X1.4281 Y0.6944
X1.4403 Y0.6821
X1.4543 Y0.6701
X1.471 Y0.658
X1.4919 Y0.6452
X1.5164 Y0.6328
X1.5433 Y0.6218
X1.5709 Y0.6128
X1.5991 Y0.6056
X1.6275 Y0.5999
X1.6562 Y0.5954
X1.6851 Y0.5921
X1.7141 Y0.5898
X1.7431 Y0.5885
X1.7721 Y0.5881
X1.8012 Y0.5886
X1.8302 Y0.5898
X1.8592 Y0.5918
X1.8881 Y0.5946
X1.9169 Y0.5982
X1.9456 Y0.6025
X1.9743 Y0.6075
X2.0027 Y0.6132
X2.0311 Y0.6196
X2.0592 Y0.6268
X2.0872 Y0.6346
X2.115 Y0.6431
X2.1425 Y0.6523
X2.1699 Y0.6621
X2.1969 Y0.6726
X2.2238 Y0.6838
X2.2503 Y0.6956
X2.2765 Y0.708
X2.3025 Y0.7211
X2.3281 Y0.7348
X2.3496 Y0.7471
X2.3558 Y0.7513
X2.3611 Y0.7559
X2.3651 Y0.7617
X2.3676 Y0.7683
X2.3685 Y0.7753
Y0.8324
G3 X2.3459 Y0.8394 I-0.0125 J-0.0004
G1 X2.3443 Y0.8371 Z0.9583
X2.3427 Y0.835 Z0.9592
X2.3413 Y0.8331 Z0.9607
X2.3401 Y0.8315 Z0.9627
X2.3392 Y0.8303 Z0.965
X2.3387 Y0.8296 Z0.9677
X2.3385 Y0.8293 Z0.9705
G0 Z1.2139
X1.4373 Y0.8319
Z0.983
G1 Z0.9705 F40.
X1.437 Y0.8318 Z0.9677
X1.4361 Y0.8315 Z0.965
X1.4347 Y0.831 Z0.9627
X1.4329 Y0.8303 Z0.9607
X1.4306 Y0.8295 Z0.9592
X1.4281 Y0.8286 Z0.9583
X1.4255 Y0.8277 Z0.958
G3 X1.4 Y0.8103 I0.0212 J-0.0586
G1 X1.3916 Y0.8
X1.389 Y0.7971
X1.3825 Y0.7898
X1.3819 Y0.7892
X1.3808 Y0.7884
X1.3761 Y0.7848
X1.3729 Y0.7798
X1.3704 Y0.7744
X1.3685 Y0.7688
X1.3672 Y0.7631
X1.3663 Y0.7569
X1.3659 Y0.7505
X1.366 Y0.743
X1.3668 Y0.7352
X1.3684 Y0.7265
X1.3708 Y0.7171
X1.3743 Y0.7073
X1.3793 Y0.6962
X1.3852 Y0.6853
X1.3931 Y0.6732
X1.4031 Y0.6603
X1.4144 Y0.648
X1.429 Y0.6344
X1.4472 Y0.6201
X1.4668 Y0.6069
X1.4908 Y0.5935
X1.5172 Y0.5815
X1.5445 Y0.5714
X1.5723 Y0.563
X1.6005 Y0.5562
X1.629 Y0.5506
X1.6578 Y0.5463
X1.6866 Y0.5431
X1.7156 Y0.5409
X1.7446 Y0.5396
X1.7737 Y0.5392
X1.8027 Y0.5396
X1.8317 Y0.5407
X1.8607 Y0.5427
X1.8896 Y0.5454
X1.9185 Y0.5488
X1.9472 Y0.553
X1.9759 Y0.5578
X2.0044 Y0.5633
X2.0328 Y0.5696
X2.061 Y0.5764
X2.089 Y0.584
X2.1169 Y0.5922
X2.1446 Y0.6011
X2.172 Y0.6106
X2.1992 Y0.6207
X2.2262 Y0.6315
X2.2529 Y0.6429
X2.2794 Y0.6549
X2.3055 Y0.6675
X2.3314 Y0.6808
X2.3503 Y0.6913
X2.3555 Y0.6947
X2.3609 Y0.6994
X2.365 Y0.7053
X2.3676 Y0.7119
X2.3685 Y0.719
Y0.7753
G3 X2.3459 Y0.7823 I-0.0125 J-0.0004
G1 X2.3443 Y0.7801 Z0.9583
X2.3427 Y0.7779 Z0.9592
X2.3413 Y0.776 Z0.9607
X2.3401 Y0.7744 Z0.9627
X2.3392 Y0.7732 Z0.965
X2.3387 Y0.7725 Z0.9677
X2.3385 Y0.7722 Z0.9705
G0 Z1.2139
X1.4225 Y0.7991
Z0.983
G1 Z0.9705 F40.
X1.4222 Y0.799 Z0.9677
X1.4213 Z0.965
X1.4198 Y0.7989 Z0.9627
X1.4179 Y0.7987 Z0.9607
X1.4155 Y0.7986 Z0.9592
X1.4129 Y0.7984 Z0.9583
X1.4101 Y0.7982 Z0.958
G3 X1.3808 Y0.7884 I0.0044 J-0.0621
G1 X1.3625 Y0.7757
X1.3617 Y0.7752
X1.3565 Y0.7724
X1.3523 Y0.7683
X1.3486 Y0.7636
X1.3456 Y0.7586
X1.3431 Y0.7532
X1.3411 Y0.7477
X1.3395 Y0.7415
X1.3384 Y0.735
X1.3377 Y0.7275
X1.3376 Y0.7195
X1.3381 Y0.7107
X1.3396 Y0.7009
X1.3419 Y0.6909
X1.3455 Y0.6795
X1.3503 Y0.6678
X1.3565 Y0.6555
X1.3648 Y0.6419
X1.3747 Y0.6282
X1.387 Y0.6139
X1.4022 Y0.5989
X1.4207 Y0.5833
X1.4408 Y0.5689
X1.4652 Y0.5542
X1.4912 Y0.5413
X1.5181 Y0.5303
X1.5456 Y0.521
X1.5735 Y0.5131
X1.6018 Y0.5066
X1.6304 Y0.5013
X1.6592 Y0.4972
X1.688 Y0.4941
X1.717 Y0.4919
X1.746 Y0.4906
X1.7751 Y0.4902
X1.8041 Y0.4905
X1.8331 Y0.4916
X1.8621 Y0.4935
X1.8911 Y0.4961
X1.9199 Y0.4994
X1.9487 Y0.5034
X1.9774 Y0.5081
X2.0059 Y0.5135
X2.0343 Y0.5195
X2.0626 Y0.5261
X2.0907 Y0.5334
X2.1187 Y0.5414
X2.1464 Y0.5499
X2.174 Y0.5591
X2.2013 Y0.5689
X2.2284 Y0.5793
X2.2553 Y0.5904
X2.2819 Y0.602
X2.3083 Y0.6142
X2.3344 Y0.627
X2.3509 Y0.6361
X2.3554 Y0.6391
X2.3608 Y0.6437
X2.365 Y0.6496
X2.3676 Y0.6563
X2.3685 Y0.6634
Y0.719
G3 X2.3459 Y0.726 I-0.0125 J-0.0004
G1 X2.3443 Y0.7237 Z0.9583
X2.3427 Y0.7216 Z0.9592
X2.3413 Y0.7197 Z0.9607
X2.3401 Y0.7181 Z0.9627
X2.3392 Y0.7169 Z0.965
X2.3387 Y0.7161 Z0.9677
X2.3385 Y0.7159 Z0.9705
G0 Z1.2139
X1.4047 Y0.7784
Z0.983
G1 Z0.9705 F40.
X1.4044 Z0.9677
X1.4035 Y0.7785 Z0.965
X1.402 Y0.7787 Z0.9627
X1.4 Y0.7789 Z0.9607
X1.3977 Y0.7791 Z0.9592
X1.3951 Y0.7794 Z0.9583
X1.3923 Y0.7797 Z0.958
G3 X1.3617 Y0.7752 I-0.0065 J-0.062
G1 X1.3454 Y0.7678
X1.3388 Y0.7653
X1.3333 Y0.7632
X1.3285 Y0.7599
X1.3242 Y0.7558
X1.3203 Y0.7513
X1.317 Y0.7464
X1.3142 Y0.7412
X1.3118 Y0.7358
X1.3095 Y0.7293
X1.3078 Y0.7225
X1.3064 Y0.7146
X1.3055 Y0.706
X1.3054 Y0.6968
X1.3061 Y0.6863
X1.3076 Y0.6756
X1.3104 Y0.6636
X1.3146 Y0.6505
X1.3199 Y0.6374
X1.3271 Y0.6231
X1.3365 Y0.6076
X1.3479 Y0.592
X1.3616 Y0.576
X1.3782 Y0.5594
X1.3984 Y0.5424
X1.4216 Y0.5257
X1.4465 Y0.5108
X1.4724 Y0.4977
X1.4992 Y0.4864
X1.5265 Y0.4766
X1.5544 Y0.4683
X1.5826 Y0.4613
X1.611 Y0.4555
X1.6397 Y0.4508
X1.6685 Y0.4471
X1.6974 Y0.4443
X1.7264 Y0.4425
X1.7554 Y0.4414
X1.7845 Y0.4412
X1.8135 Y0.4417
X1.8425 Y0.443
X1.8715 Y0.445
X1.9004 Y0.4477
X1.9293 Y0.4511
X1.9581 Y0.4551
X1.9867 Y0.4598
X2.0153 Y0.4652
X2.0437 Y0.4711
X2.072 Y0.4777
X2.1001 Y0.485
X2.1281 Y0.4928
X2.1559 Y0.5013
X2.1835 Y0.5103
X2.2109 Y0.52
X2.2381 Y0.5302
X2.265 Y0.5411
X2.2917 Y0.5525
X2.3182 Y0.5645
X2.3436 Y0.5768
X2.3556 Y0.584
X2.3561 Y0.5843
X2.3613 Y0.589
X2.3652 Y0.5947
X2.3676 Y0.6012
X2.3685 Y0.6082
Y0.6634
G3 X2.3459 Y0.6704 I-0.0125 J-0.0004
G1 X2.3443 Y0.6681 Z0.9583
X2.3427 Y0.666 Z0.9592
X2.3413 Y0.6641 Z0.9607
X2.3401 Y0.6625 Z0.9627
X2.3392 Y0.6613 Z0.965
X2.3387 Y0.6605 Z0.9677
X2.3385 Y0.6603 Z0.9705
G0 Z1.2139
X1.3819 Y0.7622
Z0.983
G1 Z0.9705 F40.
X1.3816 Y0.7623 Z0.9677
X1.3807 Y0.7625 Z0.965
X1.3792 Y0.7629 Z0.9627
X1.3773 Y0.7634 Z0.9607
X1.375 Y0.764 Z0.9592
X1.3725 Y0.7646 Z0.9583
X1.3698 Y0.7653 Z0.958
G3 X1.3388 I-0.0154 J-0.0604
G1 X1.3228 Y0.7606
X1.3224 Y0.7605
X1.3206
X1.3147 Y0.7601
X1.309 Y0.7585
X1.3037 Y0.7559
X1.2988 Y0.7526
X1.2943 Y0.7487
X1.2903 Y0.7444
X1.2867 Y0.7397
X1.2835 Y0.7347
X1.2802 Y0.7288
X1.2774 Y0.7223
X1.2748 Y0.7149
X1.2726 Y0.7065
X1.2711 Y0.6976
X1.2702 Y0.6874
X1.27 Y0.6764
X1.2708 Y0.6648
X1.2728 Y0.6518
X1.276 Y0.6379
X1.2806 Y0.6236
X1.2871 Y0.6078
X1.2957 Y0.5909
X1.3059 Y0.5741
X1.3186 Y0.5567
X1.3346 Y0.5382
X1.3538 Y0.5192
X1.3761 Y0.5005
X1.3997 Y0.4836
X1.4246 Y0.4686
X1.4504 Y0.4553
X1.477 Y0.4436
X1.5042 Y0.4334
X1.5319 Y0.4245
X1.5599 Y0.4169
X1.5882 Y0.4105
X1.6168 Y0.4052
X1.6455 Y0.4008
X1.6744 Y0.3974
X1.7033 Y0.3949
X1.7323 Y0.3932
X1.7613 Y0.3923
X1.7904 Y0.3922
X1.8194 Y0.3928
X1.8484 Y0.3942
X1.8774 Y0.3962
X1.9063 Y0.3989
X1.9352 Y0.4022
X1.964 Y0.4062
X1.9926 Y0.4109
X2.0212 Y0.4161
X2.0496 Y0.422
X2.078 Y0.4285
X2.1061 Y0.4356
X2.1341 Y0.4433
X2.162 Y0.4516
X2.1896 Y0.4605
X2.2171 Y0.4699
X2.2444 Y0.4799
X2.2714 Y0.4905
X2.2982 Y0.5016
X2.3248 Y0.5134
X2.3453 Y0.5234
X2.3541 Y0.5286
X2.3601 Y0.5332
X2.3646 Y0.5392
X2.3675 Y0.5462
X2.3685 Y0.5537
Y0.6082
G3 X2.3459 Y0.6151 I-0.0125 J-0.0004
G1 X2.3443 Y0.6129 Z0.9583
X2.3427 Y0.6107 Z0.9592
X2.3413 Y0.6088 Z0.9607
X2.3401 Y0.6072 Z0.9627
X2.3392 Y0.606 Z0.965
X2.3387 Y0.6053 Z0.9677
X2.3385 Y0.605 Z0.9705
G0 Z1.2139
X1.3612 Y0.746
Z0.983
G1 Z0.9705 F40.
X1.3609 Y0.7462 Z0.9677
X1.3601 Y0.7466 Z0.965
X1.3588 Y0.7474 Z0.9627
X1.3571 Y0.7484 Z0.9607
X1.3551 Y0.7495 Z0.9592
X1.3528 Y0.7509 Z0.9583
X1.3504 Y0.7522 Z0.958
G3 X1.3206 Y0.7605 I-0.031 J-0.054
G1 X1.3042 Y0.7602
X1.3038 Y0.7603
X1.3008 Y0.761
X1.295 Y0.7621
X1.2891 Y0.7619
X1.2833 Y0.7606
X1.2778 Y0.7585
X1.2726 Y0.7558
X1.2676 Y0.7525
X1.2631 Y0.7487
X1.2588 Y0.7445
X1.2547 Y0.7398
X1.2505 Y0.734
X1.2466 Y0.7277
X1.2429 Y0.7205
X1.2394 Y0.7122
X1.2366 Y0.7033
X1.2342 Y0.6933
X1.2325 Y0.6819
X1.2316 Y0.6702
X1.2317 Y0.6571
X1.2331 Y0.6425
X1.2356 Y0.6275
X1.2397 Y0.6113
X1.2457 Y0.5939
X1.2538 Y0.5754
X1.2639 Y0.5566
X1.2762 Y0.5375
X1.2917 Y0.517
X1.3107 Y0.496
X1.3317 Y0.476
X1.3543 Y0.4577
X1.3781 Y0.441
X1.4029 Y0.426
X1.4287 Y0.4126
X1.4552 Y0.4006
X1.4822 Y0.39
X1.5097 Y0.3807
X1.5376 Y0.3727
X1.5658 Y0.3657
X1.5943 Y0.3598
X1.6229 Y0.3548
X1.6517 Y0.3508
X1.6806 Y0.3477
X1.7095 Y0.3454
X1.7385 Y0.3439
X1.7676 Y0.3432
X1.7966
X1.8256 Y0.3439
X1.8547 Y0.3453
X1.8836 Y0.3473
X1.9126 Y0.35
X1.9414 Y0.3534
X1.9702 Y0.3573
X1.9989 Y0.3619
X2.0274 Y0.3671
X2.0559 Y0.3729
X2.0842 Y0.3793
X2.1124 Y0.3863
X2.1405 Y0.3939
X2.1684 Y0.402
X2.1961 Y0.4107
X2.2236 Y0.42
X2.251 Y0.4298
X2.2781 Y0.4401
X2.305 Y0.4511
X2.3317 Y0.4626
X2.3481 Y0.4709
X2.3544 Y0.4747
X2.3603 Y0.4793
X2.3647 Y0.4853
X2.3675 Y0.4922
X2.3685 Y0.4996
Y0.5537
G3 X2.3459 Y0.5607 I-0.0125 J-0.0004
G1 X2.3443 Y0.5584 Z0.9583
X2.3427 Y0.5563 Z0.9592
X2.3413 Y0.5544 Z0.9607
X2.3401 Y0.5528 Z0.9627
X2.3392 Y0.5516 Z0.965
X2.3387 Y0.5508 Z0.9677
X2.3385 Y0.5506 Z0.9705
G0 Z1.2139
X1.4281 Y1.0978
Z0.983
G1 Z0.9705 F40.
X1.4278 Z0.9677
X1.4269 Y1.0979 Z0.965
X1.4254 Y1.0981 Z0.9627
X1.4234 Y1.0984 Z0.9607
X1.4211 Y1.0987 Z0.9592
X1.4185 Y1.0991 Z0.9583
X1.4157 Y1.0994 Z0.958
G3 X1.385 Y1.0958 I-0.0083 J-0.0617
G1 X1.3784 Y1.093
X1.3718 Y1.0907
X1.3652 Y1.0888
X1.3596 Y1.0871
X1.3545 Y1.084
X1.35 Y1.0802
X1.346 Y1.0759
X1.3425 Y1.0711
X1.3395 Y1.066
X1.337 Y1.0607
X1.3347 Y1.0548
X1.3329 Y1.0483
X1.3313 Y1.0409
X1.3304 Y1.0331
X1.3301 Y1.0242
X1.3304 Y1.0158
X1.3314 Y1.0074
X1.3345 Y0.9991
X1.3398 Y0.9921
X1.3471 Y0.9871
X1.3555 Y0.9844
X1.3652 Y0.9829
X1.3718 Y0.9815
X1.3862 Y0.9783
X1.3901 Y0.9765
G3 X1.4069 Y0.9917 I0.0048 J0.0115
G1 X1.4062 Y0.9942
X1.3834 Y1.0683
X1.3797 Y1.0802
G3 X1.3652 Y1.0888 I-0.0119 J-0.0037
G1 X1.3586 Y1.0872
X1.352 Y1.0857
X1.3454 Y1.0843
X1.3418 Y1.0837
X1.336 Y1.0824
X1.3306 Y1.0803
X1.3255 Y1.0773
X1.3208 Y1.0737
X1.3166 Y1.0695
X1.3128 Y1.065
X1.3094 Y1.0601
X1.3064 Y1.0548
X1.3035 Y1.0487
X1.3012 Y1.0429
X1.2996 Y1.0372
X1.2983 Y1.0308
X1.2975 Y1.025
X1.2973 Y1.0191
X1.2974 Y1.0162
X1.2991 Y1.0078
X1.3032 Y1.0002
X1.3092 Y0.9941
X1.3168 Y0.9901
X1.3253 Y0.9884
X1.3258
X1.3323 Y0.9877
X1.3388 Y0.9869
X1.3454 Y0.986
X1.3555 Y0.9844
G3 X1.3693 Y0.999 I0.0015 J0.0124
G1 X1.3679 Y1.0065
X1.3579 Y1.0619
X1.3558 Y1.0736
G3 X1.3418 Y1.0837 I-0.0123 J-0.0022
G1 X1.3239 Y1.0808
X1.3191 Y1.0807
X1.3171
X1.3112 Y1.0805
X1.3054 Y1.0792
X1.2999 Y1.077
X1.2948 Y1.0741
X1.29 Y1.0706
X1.2857 Y1.0667
X1.2817 Y1.0623
X1.2781 Y1.0576
X1.275 Y1.0526
X1.2723 Y1.0473
X1.2701 Y1.0418
X1.2684 Y1.0362
X1.2672 Y1.0304
X1.2665 Y1.0245
X1.2664 Y1.0186
X1.2666 Y1.0159
X1.2686 Y1.0072
X1.2731 Y0.9995
X1.2797 Y0.9936
X1.2878 Y0.9899
X1.2966 Y0.9888
X1.2993 Y0.9889
X1.3059
X1.3191 Y0.9887
X1.3253 Y0.9884
G3 X1.3372 Y1.0019 I0.0001 J0.0119
G1 X1.3359 Y1.0123
X1.3302 Y1.0561
X1.3283 Y1.0703
G3 X1.3171 Y1.0807 I-0.0118 J-0.0015
G1 X1.3125 Y1.0808
X1.3059 Y1.0815
X1.2993 Y1.0827
X1.2957 Y1.0834
X1.2898 Y1.0843
X1.2839 Y1.0841
X1.2781 Y1.083
X1.2726 Y1.0811
X1.2673 Y1.0785
X1.2623 Y1.0753
X1.2577 Y1.0716
X1.2535 Y1.0674
X1.2496 Y1.0629
X1.2462 Y1.0581
X1.2432 Y1.0531
X1.2406 Y1.0477
X1.2385 Y1.0421
X1.2369 Y1.0365
X1.2357 Y1.0307
X1.2352 Y1.0248
X1.2351 Y1.0189
X1.2356 Y1.013
X1.2358 Y1.0118
X1.2384 Y1.0039
X1.2431 Y0.9971
X1.2496 Y0.9919
X1.2572 Y0.9887
X1.2655 Y0.9878
X1.2861 Y0.9885
X1.2966 Y0.9888
G3 X1.3082 Y1.0018 I-0.0008 J0.0125
G1 X1.3078 Y1.0134
X1.3059 Y1.0571
X1.3053 Y1.0718
G3 X1.2957 Y1.0834 I-0.0125 J-0.0005
G1 X1.2861 Y1.0853
X1.2795 Y1.0868
X1.2693 Y1.0893
X1.2635 Y1.0904
X1.2576 Y1.0905
X1.2518 Y1.0897
X1.2461 Y1.088
X1.2406 Y1.0857
X1.2355 Y1.0829
X1.2306 Y1.0795
X1.2261 Y1.0757
X1.222 Y1.0715
X1.2182 Y1.067
X1.2146 Y1.0619
X1.2114 Y1.0565
X1.2087 Y1.0509
X1.2065 Y1.0454
X1.2048 Y1.0395
X1.2035 Y1.0336
X1.2028 Y1.0278
X1.2025 Y1.0219
X1.2028 Y1.016
X1.2035 Y1.0101
X1.2048 Y1.0043
X1.2049 Y1.0041
X1.2088 Y0.9963
X1.2148 Y0.99
X1.2223 Y0.9857
X1.2308 Y0.9839
X1.2394 Y0.9846
X1.24 Y0.9847
X1.2532 Y0.987
X1.2598 Y0.9876
X1.2655 Y0.9878
G3 X1.2771 Y1. I-0.0009 J0.0125
G1 X1.2773 Y1.0124
X1.2782 Y1.0626
X1.2785 Y1.077
G3 X1.2693 Y1.0893 I-0.0125 J0.0002
G1 X1.2663 Y1.09
X1.2598 Y1.0919
X1.2532 Y1.0942
X1.2479 Y1.0967
X1.2425 Y1.0991
X1.2367 Y1.1001
X1.2308 Y1.1002
X1.2249 Y1.0994
X1.2192 Y1.098
X1.2137 Y1.0959
X1.2084 Y1.0933
X1.2033 Y1.0902
X1.1986 Y1.0866
X1.1941 Y1.0827
X1.1897 Y1.0781
X1.1855 Y1.0731
X1.1817 Y1.0675
X1.1782 Y1.0615
X1.1751 Y1.0552
X1.1726 Y1.0485
X1.1705 Y1.0415
X1.1692 Y1.0352
X1.1683 Y1.0286
X1.168 Y1.022
X1.1682 Y1.016
X1.1689 Y1.0102
X1.1702 Y1.0041
X1.1718 Y0.9984
X1.1739 Y0.9929
X1.1746 Y0.9914
X1.1793 Y0.9846
X1.1857 Y0.9793
X1.1933 Y0.9761
X1.2015 Y0.9751
X1.2096 Y0.9764
X1.2136 Y0.9777
X1.2202 Y0.9797
X1.2281 Y0.9818
X1.2334 Y0.9831
X1.2394 Y0.9846
G3 X1.2486 Y0.9958 I-0.0033 J0.0121
G1 X1.2496 Y1.0112
X1.2534 Y1.0684
X1.2545 Y1.0849
G3 X1.2479 Y1.0967 I-0.0125 J0.0008
G1 X1.2466 Y1.0974
X1.2409 Y1.1006
X1.2334 Y1.1056
X1.2314 Y1.1072
X1.2267 Y1.1107
X1.2212 Y1.113
X1.2155 Y1.1144
X1.2096 Y1.1149
X1.2037 Y1.1146
X1.1979 Y1.1137
X1.1921 Y1.1122
X1.1866 Y1.1102
X1.1812 Y1.1077
X1.1757 Y1.1046
X1.1704 Y1.101
X1.165 Y1.0967
X1.1597 Y1.0916
X1.1546 Y1.086
X1.1499 Y1.0799
X1.1456 Y1.0732
X1.1418 Y1.066
X1.1384 Y1.0585
X1.1357 Y1.0506
X1.1336 Y1.0424
X1.1322 Y1.034
X1.1314 Y1.0256
X1.1313 Y1.018
X1.1318 Y1.0104
X1.1329 Y1.0032
X1.1343 Y0.9971
X1.1364 Y0.9907
X1.1388 Y0.9848
X1.1415 Y0.9796
X1.1448 Y0.9743
X1.1459 Y0.9728
X1.1522 Y0.9665
X1.1601 Y0.9625
X1.169 Y0.961
X1.1778 Y0.9623
X1.1858 Y0.9661
X1.1872 Y0.9671
X1.1938 Y0.9703
X1.2004 Y0.9732
X1.207 Y0.9756
X1.2096 Y0.9764
G3 X1.2178 Y0.9862 I-0.0042 J0.0118
G1 X1.2206 Y1.0036
X1.2326 Y1.0778
X1.2355 Y1.0958
G3 X1.2314 Y1.1072 I-0.0123 J0.002
G1 X1.2233 Y1.1138
X1.2202 Y1.1169
X1.2172 Y1.1204
X1.2161 Y1.1218
X1.2122 Y1.1262
X1.2073 Y1.1294
X1.2018 Y1.1317
X1.1961 Y1.1332
X1.1903 Y1.134
X1.1844 Y1.1342
X1.1785 Y1.1338
X1.1726 Y1.1328
X1.1667 Y1.1313
X1.1605 Y1.1292
X1.1543 Y1.1266
X1.1479 Y1.1232
X1.1414 Y1.119
X1.1349 Y1.1142
X1.1287 Y1.1087
X1.1226 Y1.1023
X1.1168 Y1.0951
X1.1114 Y1.0872
X1.1065 Y1.0787
X1.1022 Y1.0696
X1.0986 Y1.0602
X1.0958 Y1.0503
X1.0937 Y1.0403
X1.0925 Y1.0303
X1.0921 Y1.0203
X1.0925 Y1.0105
X1.0937 Y1.0009
X1.0954 Y0.9922
X1.0977 Y0.9844
X1.1006 Y0.9767
X1.1035 Y0.9705
X1.107 Y0.9645
X1.1109 Y0.9587
X1.1148 Y0.954
X1.1188 Y0.9498
X1.1237 Y0.9455
X1.1259 Y0.9438
X1.1337 Y0.9396
X1.1424 Y0.9379
X1.1512 Y0.9388
X1.1594 Y0.9423
X1.1661 Y0.948
X1.1675 Y0.9494
X1.1792 Y0.9615
X1.1858 Y0.9661
X1.1876 Y0.9677
X1.189 Y0.9695
X1.19 Y0.9715
X1.1907 Y0.9737
X1.1949 Y0.995
X1.2143 Y1.0918
X1.2184 Y1.1119
G3 X1.2161 Y1.1218 I-0.0123 J0.0025
G1 X1.212 Y1.127
X1.2079 Y1.1336
X1.207 Y1.1351
X1.2056 Y1.1379
X1.2025 Y1.143
X1.1984 Y1.1472
X1.1936 Y1.1506
X1.1884 Y1.1534
X1.1828 Y1.1554
X1.1771 Y1.1569
X1.1713 Y1.1578
X1.1654 Y1.1581
X1.1593 Y1.1579
X1.1529 Y1.1573
X1.1459 Y1.156
X1.1388 Y1.154
X1.1315 Y1.1514
X1.1239 Y1.1479
X1.116 Y1.1435
X1.1083 Y1.1384
X1.1007 Y1.1324
X1.0931 Y1.1253
X1.0858 Y1.1173
X1.0789 Y1.1084
X1.0725 Y1.0988
X1.0668 Y1.0884
X1.0619 Y1.0774
X1.0578 Y1.0657
X1.0546 Y1.0536
X1.0523 Y1.0412
X1.0511 Y1.0288
X1.0509 Y1.0165
X1.0516 Y1.0044
X1.0532 Y0.993
X1.0557 Y0.982
X1.0589 Y0.9717
X1.0629 Y0.9619
X1.0675 Y0.9526
X1.0721 Y0.945
X1.0775 Y0.9376
X1.0826 Y0.9315
X1.0875 Y0.9267
X1.0932 Y0.9217
X1.0986 Y0.9179
X1.1037 Y0.9147
X1.1097 Y0.9117
X1.1154 Y0.9095
X1.121 Y0.9077
X1.1218 Y0.9075
X1.131 Y0.907
X1.1398 Y0.9093
X1.1475 Y0.9142
X1.1532 Y0.9213
X1.1565 Y0.9299
X1.164 Y0.9598
X1.201 Y1.1079
X1.2064 Y1.1294
X1.2068 Y1.1316
X1.2067 Y1.1337
X1.2063 Y1.1359
X1.2056 Y1.1379
X1.2044 Y1.1402
X1.2018 Y1.1468
X1.2004 Y1.1512
X1.1998 Y1.1534
X1.1996 Y1.1545
X1.1982 Y1.1602
X1.1953 Y1.1654
X1.1915 Y1.1699
X1.1871 Y1.1739
X1.1823 Y1.1773
X1.1771 Y1.1801
X1.1716 Y1.1823
X1.166 Y1.1841
X1.1602 Y1.1854
X1.1537 Y1.1863
X1.1468 Y1.1867
X1.1395 Y1.1866
X1.1315 Y1.1858
X1.1231 Y1.1842
X1.1147 Y1.182
X1.1057 Y1.1788
X1.0964 Y1.1746
X1.087 Y1.1694
X1.0778 Y1.1633
X1.0685 Y1.156
X1.0593 Y1.1476
X1.0504 Y1.138
X1.0421 Y1.1274
X1.0344 Y1.1158
X1.0275 Y1.1034
X1.0215 Y1.0901
X1.0165 Y1.0761
X1.0125 Y1.0615
X1.0097 Y1.0465
X1.0082 Y1.0314
X1.0078 Y1.0164
X1.0087 Y1.0015
X1.0107 Y0.987
X1.0138 Y0.973
X1.0178 Y0.9599
X1.0227 Y0.9476
X1.0282 Y0.9363
X1.0345 Y0.9258
X1.0413 Y0.9163
X1.0486 Y0.9077
X1.0562 Y0.9
X1.0641 Y0.8931
X1.0714 Y0.8878
X1.0786 Y0.8834
X1.086 Y0.8797
X1.0924 Y0.8771
X1.099 Y0.8749
X1.1059 Y0.8733
X1.1119 Y0.8724
X1.1178 Y0.872
X1.1243 Y0.8721
X1.1262 Y0.8723
X1.1347 Y0.8744
X1.1421 Y0.8789
X1.1479 Y0.8854
X1.1516 Y0.8934
X1.1527 Y0.902
X1.1525 Y0.9105
Y0.9109
X1.1565 Y0.9299
X1.1624 Y0.9602
X1.1945 Y1.1241
X1.1995 Y1.15
X1.1998 Y1.1523
X1.1996 Y1.1545
X1.1985 Y1.16
X1.1976 Y1.1666
X1.1974 Y1.1732
X1.1973 Y1.1791
X1.1956 Y1.1848
X1.193 Y1.19
X1.1896 Y1.1949
X1.1856 Y1.1993
X1.1812 Y1.2032
X1.1764 Y1.2066
X1.1713 Y1.2096
X1.1659 Y1.2122
X1.1598 Y1.2146
X1.153 Y1.2166
X1.1458 Y1.2181
X1.1379 Y1.2191
X1.1292 Y1.2195
X1.1202 Y1.2193
X1.1107 Y1.2182
X1.1004 Y1.2162
X1.0897 Y1.2132
X1.0791 Y1.2092
X1.068 Y1.2041
X1.0567 Y1.1977
X1.0452 Y1.1899
X1.0339 Y1.1809
X1.0232 Y1.1707
X1.0129 Y1.1593
X1.0031 Y1.1466
X0.9941 Y1.1326
X0.9859 Y1.1174
X0.9788 Y1.1013
X0.973 Y1.0844
X0.9685 Y1.0669
X0.9653 Y1.049
X0.9637 Y1.0308
X0.9635 Y1.0127
X0.9647 Y0.9949
X0.9673 Y0.9775
X0.9712 Y0.9607
X0.9764 Y0.9447
X0.9826 Y0.9295
X0.9899 Y0.9153
X0.998 Y0.902
X1.0068 Y0.89
X1.0159 Y0.8794
X1.0255 Y0.87
X1.0353 Y0.8617
X1.0452 Y0.8546
X1.0554 Y0.8486
X1.0653 Y0.8437
X1.0753 Y0.8398
X1.0842 Y0.837
X1.0931 Y0.8351
X1.1013 Y0.834
X1.1082 Y0.8336
X1.1158 Y0.8338
X1.1225 Y0.8345
X1.1284 Y0.8356
X1.1348 Y0.8373
X1.1372 Y0.8381
X1.1443 Y0.842
X1.1501 Y0.8477
X1.154 Y0.8548
X1.1558 Y0.8628
X1.1552 Y0.8709
X1.1531 Y0.8894
X1.1528 Y0.896
X1.1527 Y0.902
G0 Z1.2139
X1.3366 Y0.737
Z0.983
G1 Z0.9705 F40.
X1.3364 Y0.7372 Z0.9677
X1.3357 Y0.7378 Z0.965
X1.3347 Y0.7389 Z0.9627
X1.3332 Y0.7403 Z0.9607
X1.3315 Y0.7419 Z0.9592
X1.3296 Y0.7437 Z0.9583
X1.3276 Y0.7457 Z0.958
G3 X1.3008 Y0.761 I-0.0433 J-0.0448
G1 X1.2861 Y0.7645
X1.2795 Y0.7663
X1.2759 Y0.7673
X1.2702 Y0.7687
X1.2643 Y0.7688
X1.2584 Y0.7681
X1.2527 Y0.7666
X1.2472 Y0.7645
X1.2419 Y0.7618
X1.2369 Y0.7587
X1.2319 Y0.755
X1.2269 Y0.7506
X1.2217 Y0.7453
X1.2168 Y0.7394
X1.2119 Y0.7323
X1.2072 Y0.7244
X1.203 Y0.7157
X1.1991 Y0.7056
X1.1957 Y0.6944
X1.1932 Y0.6825
X1.1915 Y0.669
X1.1907 Y0.6541
X1.1912 Y0.6387
X1.1931 Y0.6221
X1.1966 Y0.6037
X1.2021 Y0.5841
X1.2096 Y0.5639
X1.2189 Y0.5438
X1.2311 Y0.5221
X1.2465 Y0.4993
X1.2646 Y0.4767
X1.2845 Y0.4555
X1.3058 Y0.4357
X1.3284 Y0.4175
X1.3522 Y0.4008
X1.377 Y0.3856
X1.4026 Y0.3719
X1.4288 Y0.3595
X1.4557 Y0.3484
X1.483 Y0.3386
X1.5107 Y0.3298
X1.5387 Y0.3222
X1.567 Y0.3156
X1.5955 Y0.31
X1.6242 Y0.3053
X1.653 Y0.3014
X1.6819 Y0.2984
X1.7108 Y0.2962
X1.7399 Y0.2948
X1.7689 Y0.2941
X1.7979
X1.827 Y0.2947
X1.856 Y0.2961
X1.885 Y0.298
X1.9139 Y0.3007
X1.9428 Y0.3039
X1.9716 Y0.3078
X2.0003 Y0.3122
X2.0289 Y0.3173
X2.0574 Y0.3229
X2.0857 Y0.3291
X2.114 Y0.3359
X2.1421 Y0.3432
X2.1701 Y0.3511
X2.1978 Y0.3596
X2.2255 Y0.3685
X2.2529 Y0.3781
X2.2802 Y0.3881
X2.3072 Y0.3987
X2.3339 Y0.4101
X2.3492 Y0.4178
X2.3545 Y0.421
X2.3603 Y0.4257
X2.3647 Y0.4316
X2.3675 Y0.4385
X2.3685 Y0.4459
Y0.4996
G3 X2.3459 Y0.5066 I-0.0125 J-0.0004
G1 X2.3443 Y0.5044 Z0.9583
X2.3427 Y0.5022 Z0.9592
X2.3413 Y0.5003 Z0.9607
X2.3401 Y0.4987 Z0.9627
X2.3392 Y0.4975 Z0.965
X2.3387 Y0.4968 Z0.9677
X2.3385 Y0.4965 Z0.9705
G0 Z1.2139
X1.6561 Y2.3741
Z0.983
G1 Z0.9705 F40.
X1.6558 Y2.3742 Z0.9677
X1.655 Y2.3747 Z0.965
X1.6537 Y2.3755 Z0.9627
X1.652 Y2.3765 Z0.9607
X1.65 Y2.3777 Z0.9592
X1.6477 Y2.379 Z0.9583
X1.6453 Y2.3804 Z0.958
G3 X1.6157 Y2.3892 I-0.0318 J-0.0536
G1 X1.4904
X1.4752 Y2.3884
X1.4635 Y2.3869
X1.4488 Y2.3837
X1.4316 Y2.3786
X1.41 Y2.3702
X1.3839 Y2.3575
X1.3589 Y2.3428
X1.3348 Y2.3265
X1.3116 Y2.309
X1.2893 Y2.2904
X1.2679 Y2.2707
X1.2474 Y2.2501
X1.2278 Y2.2287
X1.2091 Y2.2064
X1.1914 Y2.1834
X1.1747 Y2.1597
X1.1589 Y2.1353
X1.1442 Y2.1102
X1.1305 Y2.0846
X1.1179 Y2.0585
X1.1064 Y2.0318
X1.096 Y2.0047
X1.0867 Y1.9771
X1.0787 Y1.9492
X1.0719 Y1.921
X1.0663 Y1.8925
X1.0619 Y1.8638
X1.0587 Y1.8349
X1.0567 Y1.8059
X1.0559 Y1.7769
X1.0563 Y1.7478
X1.0579 Y1.7188
X1.0607 Y1.6899
X1.0647 Y1.6612
X1.0699 Y1.6326
X1.0762 Y1.6042
X1.0837 Y1.5762
X1.0924 Y1.5484
X1.1023 Y1.5211
X1.1134 Y1.4943
X1.1256 Y1.4679
X1.1389 Y1.4421
X1.1532 Y1.4168
X1.1686 Y1.3922
X1.185 Y1.3682
X1.2023 Y1.3449
X1.2115 Y1.3336
X1.2157 Y1.3286
X1.2192 Y1.3245
X1.2318 Y1.3102
X1.2403 Y1.3019
X1.2419 Y1.3007
X1.2497 Y1.296
X1.2586 Y1.2941
X1.2677 Y1.2949
X1.2761 Y1.2986
X1.2857 Y1.3043
X1.2861 Y1.3044
X1.3047 Y1.3103
X1.3051 Y1.3104
X1.311 Y1.3107
G3 X1.3169 Y1.3336 I-0.001 J0.0125
G1 X1.3145 Y1.3351 Z0.9583
X1.3123 Y1.3366 Z0.9592
X1.3104 Y1.3379 Z0.9607
X1.3087 Y1.339 Z0.9627
X1.3075 Y1.3398 Z0.965
X1.3067 Y1.3403 Z0.9677
X1.3064 Y1.3405 Z0.9705
G0 Z1.2139
X1.5309 Y2.3741
Z0.983
G1 Z0.9705 F40.
X1.5306 Y2.3742 Z0.9677
X1.5298 Y2.3747 Z0.965
X1.5285 Y2.3755 Z0.9627
X1.5268 Y2.3765 Z0.9607
X1.5248 Y2.3777 Z0.9592
X1.5225 Y2.379 Z0.9583
X1.5201 Y2.3804 Z0.958
G3 X1.4904 Y2.3892 I-0.0318 J-0.0536
G1 X1.3916
X1.3843 Y2.3888
X1.3784 Y2.3885
X1.3725 Y2.3878
X1.3667 Y2.3868
X1.3609 Y2.3855
X1.3552 Y2.384
X1.3496 Y2.3823
X1.344 Y2.3804
X1.3384 Y2.3783
X1.333 Y2.376
X1.3276 Y2.3736
X1.3223 Y2.3711
X1.317 Y2.3684
X1.3118 Y2.3656
X1.3066 Y2.3627
X1.3016 Y2.3597
X1.2965 Y2.3566
X1.2916 Y2.3535
X1.2866 Y2.3502
X1.2818 Y2.3468
X1.2769 Y2.3434
X1.2722 Y2.34
X1.2675 Y2.3364
X1.2628 Y2.3328
X1.2582 Y2.3291
X1.2536 Y2.3254
X1.2491 Y2.3216
X1.2446 Y2.3178
X1.2401 Y2.3139
X1.2357 Y2.3099
X1.2314 Y2.3059
X1.227 Y2.3019
X1.2228 Y2.2978
X1.2185 Y2.2937
X1.2143 Y2.2896
X1.2102 Y2.2854
X1.2061 Y2.2811
X1.202 Y2.2769
X1.198 Y2.2725
X1.194 Y2.2682
X1.19 Y2.2638
X1.1861 Y2.2594
X1.1822 Y2.2549
X1.1784 Y2.2505
X1.1746 Y2.2459
X1.1708 Y2.2414
X1.1671 Y2.2368
X1.1634 Y2.2322
X1.1597 Y2.2275
X1.1561 Y2.2229
X1.1525 Y2.2181
X1.1488 Y2.2131
X1.1453 Y2.2083
X1.1418 Y2.2035
X1.1384 Y2.1987
X1.135 Y2.1938
X1.1313 Y2.1884
X1.128 Y2.1835
X1.1247 Y2.1786
X1.1215 Y2.1736
X1.1183 Y2.1686
X1.1149 Y2.163
X1.1118 Y2.158
X1.1087 Y2.1529
X1.1057 Y2.1478
X1.1027 Y2.1427
X1.0995 Y2.137
X1.0966 Y2.1319
X1.0938 Y2.1267
X1.091 Y2.1215
X1.0882 Y2.1163
X1.0853 Y2.1106
X1.0826 Y2.1053
X1.0799 Y2.1
X1.0774 Y2.0947
X1.0748 Y2.0894
X1.0721 Y2.0837
X1.0695 Y2.078
X1.0671 Y2.0726
X1.0647 Y2.0672
X1.0624 Y2.0617
X1.06 Y2.0561
X1.0575 Y2.05
X1.0553 Y2.0445
X1.0532 Y2.039
X1.0511 Y2.0335
X1.049 Y2.0279
X1.0467 Y2.0216
X1.0448 Y2.0161
X1.0428 Y2.0105
X1.041 Y2.0049
X1.0391 Y1.9993
X1.0372 Y1.9931
X1.0354 Y1.9875
X1.0337 Y1.9818
X1.0321 Y1.9761
X1.0305 Y1.9704
X1.0288 Y1.9643
X1.0273 Y1.9586
X1.0259 Y1.9529
X1.0245 Y1.9472
X1.0231 Y1.9414
X1.0217 Y1.9353
X1.0204 Y1.9295
X1.0192 Y1.9237
X1.018 Y1.9179
X1.0169 Y1.9121
X1.0158 Y1.9061
X1.0147 Y1.8998
X1.0137 Y1.8939
X1.0127 Y1.8881
X1.0119 Y1.8823
X1.011 Y1.8763
X1.0101 Y1.8697
X1.0094 Y1.8638
X1.0087 Y1.858
X1.008 Y1.8521
X1.0074 Y1.8461
X1.0068 Y1.8394
X1.0063 Y1.8336
X1.0058 Y1.8277
X1.0054 Y1.8218
X1.005 Y1.8158
X1.0047 Y1.8092
X1.0044 Y1.8033
X1.0042 Y1.7974
X1.004 Y1.7915
X1.0039 Y1.7856
X1.0038 Y1.779
Y1.7731
Y1.7672
Y1.7613
X1.004 Y1.7554
X1.0041 Y1.7489
X1.0043 Y1.743
X1.0046 Y1.7371
X1.0049 Y1.7312
X1.0052 Y1.7253
X1.0057 Y1.7189
X1.0061 Y1.7126
X1.0066 Y1.7067
X1.0071 Y1.7008
X1.0077 Y1.695
X1.0084 Y1.6887
X1.0091 Y1.6822
X1.0099 Y1.6763
X1.0106 Y1.6705
X1.0115 Y1.6646
X1.0124 Y1.6585
X1.0134 Y1.6519
X1.0144 Y1.646
X1.0154 Y1.6402
X1.0164 Y1.6344
X1.0176 Y1.6284
X1.0189 Y1.6218
X1.0201 Y1.616
X1.0213 Y1.6102
X1.0226 Y1.6045
X1.0239 Y1.5986
X1.0255 Y1.5922
X1.0269 Y1.5865
X1.0284 Y1.5807
X1.0299 Y1.575
X1.0315 Y1.5693
X1.0333 Y1.5632
X1.0349 Y1.5575
X1.0366 Y1.5519
X1.0384 Y1.5462
X1.0402 Y1.5406
X1.0421 Y1.5347
X1.044 Y1.529
X1.046 Y1.5235
X1.048 Y1.5179
X1.05 Y1.5124
X1.0521 Y1.5066
X1.0544 Y1.5007
X1.0566 Y1.4952
X1.0588 Y1.4897
X1.0611 Y1.4842
X1.0634 Y1.4787
X1.066 Y1.4726
X1.0684 Y1.4672
X1.0709 Y1.4618
X1.0733 Y1.4565
X1.0759 Y1.4511
X1.0788 Y1.4451
X1.0814 Y1.4398
X1.084 Y1.4345
X1.0867 Y1.4292
X1.0895 Y1.424
X1.0926 Y1.4182
X1.0954 Y1.413
X1.0983 Y1.4078
X1.1012 Y1.4027
X1.1041 Y1.3975
X1.1074 Y1.3919
X1.1104 Y1.3869
X1.1135 Y1.3818
X1.1166 Y1.3768
X1.1197 Y1.3718
X1.1232 Y1.3664
X1.1265 Y1.3613
X1.1298 Y1.3564
X1.1331 Y1.3515
X1.1364 Y1.3466
X1.1398 Y1.3418
X1.1432 Y1.337
X1.1467 Y1.3322
X1.1502 Y1.3275
X1.1533 Y1.3209
X1.1546 Y1.3137
X1.1542 Y1.3065
X1.1519 Y1.2996
X1.148 Y1.2935
X1.1428 Y1.2885
X1.1174 Y1.2743
X1.1116 Y1.2729
X1.1059 Y1.2714
X1.1003 Y1.2697
X1.0946 Y1.268
X1.089 Y1.2662
X1.0834 Y1.2642
X1.0779 Y1.2621
X1.0724 Y1.2599
X1.067 Y1.2576
X1.0616 Y1.2552
X1.0563 Y1.2527
X1.051 Y1.25
X1.0458 Y1.2472
X1.0407 Y1.2443
X1.0356 Y1.2412
X1.0306 Y1.2381
X1.0257 Y1.2348
X1.0209 Y1.2314
X1.0161 Y1.2279
X1.0115 Y1.2242
X1.0069 Y1.2205
X1.0024 Y1.2166
X0.998 Y1.2127
X0.9938 Y1.2086
X0.9896 Y1.2045
X0.9855 Y1.2002
X0.9815 Y1.1958
X0.9776 Y1.1914
X0.9738 Y1.1868
X0.9702 Y1.1822
X0.9666 Y1.1775
X0.9632 Y1.1727
X0.9598 Y1.1678
X0.9566 Y1.1629
X0.9535 Y1.1579
X0.9505 Y1.1528
X0.9476 Y1.1476
X0.9449 Y1.1424
X0.9422 Y1.1371
X0.9397 Y1.1318
X0.9373 Y1.1264
X0.935 Y1.121
X0.9328 Y1.1155
X0.9308 Y1.1099
X0.9289 Y1.1043
X0.9271 Y1.0987
X0.9254 Y1.093
X0.9239 Y1.0873
X0.9224 Y1.0816
X0.9211 Y1.0759
X0.92 Y1.0701
X0.9189 Y1.0643
X0.918 Y1.0584
X0.9172 Y1.0526
X0.9165 Y1.0467
X0.916 Y1.0408
X0.9156 Y1.0349
X0.9153 Y1.029
X0.9152 Y1.0231
X0.9151 Y1.0172
X0.9153 Y1.0113
X0.9155 Y1.0054
X0.9159 Y0.9995
X0.9164 Y0.9936
X0.917 Y0.9878
X0.9177 Y0.9819
X0.9186 Y0.9761
X0.9197 Y0.9703
X0.9208 Y0.9645
X0.9221 Y0.9587
X0.9235 Y0.953
X0.9251 Y0.9473
X0.9267 Y0.9416
X0.9285 Y0.936
X0.9305 Y0.9304
X0.9325 Y0.9249
X0.9347 Y0.9194
X0.9371 Y0.914
X0.9395 Y0.9086
X0.9421 Y0.9033
X0.9448 Y0.898
X0.9476 Y0.8928
X0.9506 Y0.8877
X0.9537 Y0.8827
X0.9569 Y0.8777
X0.9602 Y0.8729
X0.9637 Y0.8681
X0.9673 Y0.8634
X0.971 Y0.8588
X0.9748 Y0.8543
X0.9788 Y0.8499
X0.9828 Y0.8456
X0.987 Y0.8415
X0.9913 Y0.8374
X0.9957 Y0.8335
X1.0003 Y0.8297
X1.0049 Y0.826
X1.0096 Y0.8225
X1.0145 Y0.8191
X1.0194 Y0.8159
X1.0244 Y0.8128
X1.0296 Y0.8099
X1.0348 Y0.8071
X1.0401 Y0.8045
X1.0455 Y0.8021
X1.051 Y0.7999
X1.0565 Y0.7979
X1.0621 Y0.7961
X1.0678 Y0.7944
X1.0736 Y0.793
X1.0793 Y0.7919
X1.0852 Y0.7909
X1.091 Y0.7902
X1.0969 Y0.7897
X1.1028 Y0.7895
X1.1087 Y0.7896
X1.1146 Y0.7899
X1.1218 Y0.7889
X1.1285 Y0.7861
X1.1343 Y0.7818
X1.1389 Y0.7762
X1.142 Y0.7696
X1.1472 Y0.741
X1.1456 Y0.7305
X1.1448 Y0.7246
X1.144 Y0.7188
X1.1433 Y0.7129
X1.1426 Y0.7071
X1.142 Y0.7012
X1.1415 Y0.6953
X1.141 Y0.6894
X1.1407 Y0.6835
X1.1405 Y0.6776
X1.1403 Y0.6717
Y0.6658
Y0.6599
X1.1405 Y0.654
X1.1408 Y0.6481
X1.1412 Y0.6422
X1.1417 Y0.6363
X1.1423 Y0.6304
X1.143 Y0.6246
X1.1438 Y0.6187
X1.1447 Y0.6129
X1.1458 Y0.6071
X1.1469 Y0.6013
X1.1482 Y0.5955
X1.1496 Y0.5898
X1.1511 Y0.5841
X1.1526 Y0.5784
X1.1543 Y0.5727
X1.1561 Y0.5671
X1.158 Y0.5615
X1.16 Y0.5559
X1.1621 Y0.5504
X1.1643 Y0.5449
X1.1666 Y0.5395
X1.169 Y0.5341
X1.1715 Y0.5287
X1.174 Y0.5234
X1.1767 Y0.5181
X1.1794 Y0.5129
X1.1823 Y0.5077
X1.1852 Y0.5026
X1.1882 Y0.4975
X1.1913 Y0.4925
X1.1944 Y0.4875
X1.1976 Y0.4825
X1.2009 Y0.4776
X1.2043 Y0.4728
X1.2078 Y0.468
X1.2113 Y0.4633
X1.2149 Y0.4586
X1.2185 Y0.4539
X1.2223 Y0.4494
X1.2261 Y0.4448
X1.2299 Y0.4403
X1.2338 Y0.4359
X1.2378 Y0.4315
X1.2418 Y0.4272
X1.2459 Y0.423
X1.2501 Y0.4188
X1.2543 Y0.4146
X1.2585 Y0.4105
X1.2628 Y0.4065
X1.2672 Y0.4025
X1.2716 Y0.3986
X1.2761 Y0.3947
X1.2806 Y0.3909
X1.2851 Y0.3871
X1.2897 Y0.3834
X1.2944 Y0.3798
X1.2991 Y0.3762
X1.3038 Y0.3727
X1.3086 Y0.3692
X1.3134 Y0.3658
X1.3182 Y0.3624
X1.3231 Y0.3591
X1.328 Y0.3558
X1.333 Y0.3526
X1.338 Y0.3495
X1.343 Y0.3464
X1.3481 Y0.3434
X1.3532 Y0.3404
X1.3583 Y0.3374
X1.3635 Y0.3346
X1.3687 Y0.3317
X1.3739 Y0.329
X1.3791 Y0.3263
X1.3844 Y0.3236
X1.3897 Y0.321
X1.395 Y0.3184
X1.4004 Y0.3159
X1.4057 Y0.3134
X1.4111 Y0.311
X1.4165 Y0.3087
X1.422 Y0.3063
X1.4274 Y0.3041
X1.4329 Y0.3019
X1.4385 Y0.2997
X1.444 Y0.2975
X1.4495 Y0.2954
X1.455 Y0.2934
X1.4606 Y0.2914
X1.4667 Y0.2893
X1.4723 Y0.2874
X1.4779 Y0.2856
X1.4835 Y0.2838
X1.4894 Y0.2819
X1.496 Y0.2799
X1.5024 Y0.278
X1.505 Y0.2774
X1.5077 Y0.277
X1.5104 Y0.2769
X2.0243
X2.0534 Y0.2784
X2.0823 Y0.2812
X2.1109 Y0.2862
X2.1393 Y0.2924
X2.1674 Y0.2996
X2.1954 Y0.3075
X2.2231 Y0.316
X2.2507 Y0.3251
X2.2781 Y0.3348
X2.3053 Y0.345
X2.3322 Y0.356
X2.3477 Y0.3636
X2.3541 Y0.3674
X2.3601 Y0.372
X2.3646 Y0.378
X2.3675 Y0.385
X2.3685 Y0.3925
G3 X2.3459 Y0.3994 I-0.0125 J-0.0004
G1 X2.3443 Y0.3972 Z0.9583
X2.3427 Y0.3951 Z0.9592
X2.3413 Y0.3932 Z0.9607
X2.3401 Y0.3916 Z0.9627
X2.3392 Y0.3904 Z0.965
X2.3387 Y0.3896 Z0.9677
X2.3385 Y0.3894 Z0.9705
G0 Z1.2139
X1.9839 Y0.292
Z0.983
G1 Z0.9705 F40.
X1.9842 Y0.2918 Z0.9677
X1.985 Y0.2914 Z0.965
X1.9863 Y0.2906 Z0.9627
X1.988 Y0.2896 Z0.9607
X1.99 Y0.2884 Z0.9592
X1.9923 Y0.287 Z0.9583
X1.9947 Y0.2856 Z0.958
G3 X2.0243 Y0.2769 I0.0318 J0.0536
G1 X2.2089
X2.23 Y0.278
X2.2509 Y0.2807
X2.2793 Y0.2868
X2.3071 Y0.2951
X2.3323 Y0.3043
X2.3469 Y0.311
X2.3536 Y0.3148
X2.3597 Y0.3194
X2.3645 Y0.3255
X2.3675 Y0.3326
X2.3685 Y0.3402
G3 X2.3519 Y0.3516 I-0.0125 J-0.0004
G1 X2.3447 Y0.3491
X2.2053 Y0.3012
G3 X2.2089 Y0.2769 I0.0041 J-0.0118
G1 X2.3341
X2.34 Y0.2772
X2.3461 Y0.2781
X2.3533 Y0.2809
X2.3596 Y0.2855
X2.3644 Y0.2916
X2.3674 Y0.2988
X2.3685 Y0.3065
G3 X2.3483 Y0.3159 I-0.0125 J-0.0004
G1 X2.3456 Y0.3138
X2.3272 Y0.2995
X2.3269 Y0.2993
G3 X2.3341 Y0.2769 I0.0077 J-0.0099
G1 X2.3539
X2.3572 Y0.277
X2.3588 Y0.2774
X2.3605 Y0.278
X2.3619 Y0.2787
X2.3632 Y0.2797
X2.3646 Y0.2808
X2.366 Y0.2824
X2.3671 Y0.2841
X2.3676 Y0.2853
X2.368 Y0.2865
X2.3683 Y0.2878
X2.3684 Y0.289
X2.3685 Y0.3022
Y0.4459
G3 X2.3459 Y0.4529 I-0.0125 J-0.0004
G1 X2.3443 Y0.4506 Z0.9583
X2.3427 Y0.4485 Z0.9592
X2.3413 Y0.4466 Z0.9607
X2.3401 Y0.445 Z0.9627
X2.3392 Y0.4438 Z0.965
X2.3387 Y0.4431 Z0.9677
X2.3385 Y0.4428 Z0.9705
G0 Z1.2139
X1.3105 Y0.7416
Z0.983
G1 Z0.9705 F40.
X1.3103 Y0.7418 Z0.9677
X1.3097 Y0.7425 Z0.965
X1.3087 Y0.7436 Z0.9627
X1.3073 Y0.745 Z0.9607
X1.3057 Y0.7467 Z0.9592
X1.3039 Y0.7487 Z0.9583
X1.302 Y0.7507 Z0.958
G3 X1.2759 Y0.7673 I-0.0455 J-0.0426
G1 X1.2643 Y0.7707
X1.2598 Y0.7724
X1.2429 Y0.7794
X1.2334 Y0.7862
X1.2275 Y0.7905
X1.2202 Y0.7971
X1.2057 Y0.8103
X1.2004 Y0.8147
X1.18 Y0.83
X1.1782 Y0.8315
X1.1773 Y0.8323
X1.1768 Y0.8328
X1.1688 Y0.8432
G3 X1.1466 Y0.835 I-0.0096 J-0.008
G1 X1.1467 Y0.8322 Z0.9583
X1.1468 Y0.8295 Z0.9592
Y0.8272 Z0.9607
X1.1469 Y0.8252 Z0.9627
Y0.8237 Z0.965
Y0.8228 Z0.9677
Y0.8225 Z0.9705
G0 Z1.2139
X1.1792 Y1.1341
Z0.983
G1 Z0.9705 F40.
X1.1793 Y1.1343 Z0.9677
X1.1799 Y1.1351 Z0.965
X1.1807 Y1.1363 Z0.9627
X1.1819 Y1.1379 Z0.9607
X1.1833 Y1.1399 Z0.9592
X1.1848 Y1.142 Z0.9583
X1.1864 Y1.1443 Z0.958
G3 X1.1974 Y1.1732 I-0.0509 J0.036
G1 X1.198 Y1.1798
X1.1997 Y1.1944
X1.1998 Y1.1949
X1.2036 Y1.2062
X1.2063 Y1.2128
X1.207 Y1.2142
X1.2172 Y1.2326
X1.2202 Y1.2373
X1.2307 Y1.2524
X1.2334 Y1.256
X1.2466 Y1.2709
X1.2532 Y1.2778
X1.2672 Y1.292
X1.2729 Y1.2966
X1.2761 Y1.2986
G3 X1.2698 Y1.3213 I-0.0071 J0.0103
G1 X1.2671 Y1.3215 Z0.9583
X1.2644 Y1.3217 Z0.9592
X1.2621 Y1.3219 Z0.9607
X1.2601 Y1.322 Z0.9627
X1.2586 Y1.3221 Z0.965
X1.2577 Y1.3222 Z0.9677
X1.2574 Z0.9705
G0 Z1.2139
X1.432 Y2.3741
Z0.983
G1 Z0.9705 F40.
X1.4317 Y2.3742 Z0.9677
X1.4309 Y2.3747 Z0.965
X1.4296 Y2.3755 Z0.9627
X1.4279 Y2.3765 Z0.9607
X1.4259 Y2.3777 Z0.9592
X1.4236 Y2.379 Z0.9583
X1.4212 Y2.3804 Z0.958
G3 X1.3916 Y2.3892 I-0.0318 J-0.0536
G1 X1.3089
X1.3015 Y2.3888
X1.2935 Y2.3877
X1.2842 Y2.3858
X1.2735 Y2.3825
X1.261 Y2.3777
X1.2464 Y2.3706
X1.2292 Y2.3605
X1.2086 Y2.346
X1.1863 Y2.3275
X1.1653 Y2.3073
X1.1455 Y2.2861
X1.1268 Y2.2639
X1.109 Y2.2409
X1.0921 Y2.2173
X1.0762 Y2.193
X1.0611 Y2.1682
X1.047 Y2.1428
X1.0339 Y2.1169
X1.0217 Y2.0905
X1.0105 Y2.0637
X1.0003 Y2.0365
X0.991 Y2.009
X0.9829 Y1.9811
X0.9757 Y1.9529
X0.9696 Y1.9245
X0.9646 Y1.8959
X0.9606 Y1.8671
X0.9577 Y1.8382
X0.9558 Y1.8093
X0.955 Y1.7802
X0.9553 Y1.7512
X0.9565 Y1.7222
X0.9589 Y1.6932
X0.9622 Y1.6643
X0.9666 Y1.6356
X0.9721 Y1.6071
X0.9786 Y1.5788
X0.9861 Y1.5507
X0.9946 Y1.523
X1.0042 Y1.4955
X1.0148 Y1.4685
X1.0264 Y1.4418
X1.0389 Y1.4156
X1.0524 Y1.3899
X1.056 Y1.3836
X1.0579 Y1.3766
X1.0582 Y1.3621
X1.0491 Y1.3345
X1.0313 Y1.3116
X1.0105 Y1.2913
X0.9889 Y1.2718
X0.9679 Y1.2518
X0.9481 Y1.2306
X0.9309 Y1.209
X0.9161 Y1.187
X0.9034 Y1.1643
X0.8926 Y1.1409
X0.8837 Y1.1167
X0.8769 Y1.0921
X0.872 Y1.0669
X0.8692 Y1.0416
X0.8685 Y1.0163
X0.8697 Y0.9912
X0.873 Y0.9666
X0.8781 Y0.9426
X0.885 Y0.9195
X0.8937 Y0.8973
X0.9037 Y0.8766
X0.9152 Y0.8572
X0.9278 Y0.8392
X0.9415 Y0.8228
X0.956 Y0.8079
X0.9712 Y0.7947
X0.9867 Y0.7832
X1.0026 Y0.7733
X1.0184 Y0.7652
X1.0318 Y0.7596
X1.0449 Y0.7532
X1.0551 Y0.7429
X1.071 Y0.7186
X1.0799 Y0.691
X1.0856 Y0.6625
X1.0905 Y0.6338
X1.096 Y0.6053
X1.1029 Y0.5771
X1.1115 Y0.5494
X1.122 Y0.5223
X1.1344 Y0.496
X1.1486 Y0.4707
X1.1645 Y0.4463
X1.1819 Y0.4231
X1.2008 Y0.401
X1.2209 Y0.3801
X1.2423 Y0.3604
X1.2647 Y0.3419
X1.288 Y0.3246
X1.3123 Y0.3086
X1.3373 Y0.2938
X1.3629 Y0.2802
X1.3638 Y0.2797
X1.3679 Y0.2782
X1.3721 Y0.2772
X1.3764 Y0.2769
X1.5104
G3 X1.5174 Y0.2995 I-0.0004 J0.0125
G1 X1.5151 Y0.3011 Z0.9583
X1.513 Y0.3027 Z0.9592
X1.5111 Y0.3041 Z0.9607
X1.5095 Y0.3053 Z0.9627
X1.5083 Y0.3061 Z0.965
X1.5076 Y0.3067 Z0.9677
X1.5073 Y0.3069 Z0.9705
G0 Z1.2139
X1.3493 Y2.3741
Z0.983
G1 Z0.9705 F40.
X1.349 Y2.3742 Z0.9677
X1.3482 Y2.3747 Z0.965
X1.3469 Y2.3755 Z0.9627
X1.3452 Y2.3765 Z0.9607
X1.3432 Y2.3777 Z0.9592
X1.3409 Y2.379 Z0.9583
X1.3385 Y2.3804 Z0.958
G3 X1.3089 Y2.3892 I-0.0318 J-0.0536
G1 X1.24
X1.2298 Y2.3887
X1.2228 Y2.3877
X1.2143 Y2.3859
X1.2044 Y2.3829
X1.194 Y2.3789
X1.181 Y2.3726
X1.1671 Y2.3644
X1.1498 Y2.3522
X1.1294 Y2.3353
X1.1086 Y2.315
X1.0892 Y2.2934
X1.071 Y2.2707
X1.0539 Y2.2473
X1.0377 Y2.2231
X1.0224 Y2.1984
X1.0081 Y2.1732
X0.9946 Y2.1474
X0.9821 Y2.1212
X0.9705 Y2.0946
X0.9598 Y2.0676
X0.95 Y2.0402
X0.9412 Y2.0126
X0.9334 Y1.9846
X0.9265 Y1.9563
X0.9207 Y1.9279
X0.9158 Y1.8993
X0.9119 Y1.8705
X0.909 Y1.8416
X0.9071 Y1.8126
X0.9062 Y1.7836
X0.9063 Y1.7545
X0.9074 Y1.7255
X0.9095 Y1.6965
X0.9126 Y1.6676
X0.9167 Y1.6389
X0.9217 Y1.6103
X0.9277 Y1.5818
X0.9347 Y1.5536
X0.9427 Y1.5257
X0.9516 Y1.4981
X0.9615 Y1.4707
X0.9723 Y1.4438
X0.984 Y1.4172
X0.9873 Y1.4031
X0.9869 Y1.3885
X0.9807 Y1.3602
X0.9669 Y1.3346
X0.9497 Y1.3112
X0.9313 Y1.2888
X0.913 Y1.2662
X0.8955 Y1.243
X0.8794 Y1.2188
X0.8649 Y1.1936
X0.8523 Y1.1674
X0.8418 Y1.1404
X0.8333 Y1.1126
X0.827 Y1.0842
X0.823 Y1.0555
X0.8213 Y1.0265
X0.8219 Y0.9976
X0.8249 Y0.9691
X0.83 Y0.9412
X0.8373 Y0.9142
X0.8465 Y0.8883
X0.8576 Y0.8637
X0.8704 Y0.8405
X0.8846 Y0.819
X0.9001 Y0.7992
X0.9166 Y0.7812
X0.934 Y0.7651
X0.9521 Y0.7509
X0.9764 Y0.7349
X0.9988 Y0.7164
X1.015 Y0.6924
X1.0264 Y0.6656
X1.0351 Y0.6379
X1.0426 Y0.6098
X1.0502 Y0.5818
X1.0586 Y0.554
X1.0683 Y0.5266
X1.0793 Y0.4998
X1.092 Y0.4736
X1.1061 Y0.4482
X1.1218 Y0.4238
X1.1389 Y0.4003
X1.1573 Y0.3778
X1.1769 Y0.3564
X1.1976 Y0.336
X1.2193 Y0.3167
X1.242 Y0.2986
X1.2643 Y0.2824
X1.2696 Y0.2794
X1.2753 Y0.2775
X1.2814 Y0.2769
X1.3764
G3 X1.3833 Y0.2995 I-0.0004 J0.0125
G1 X1.3811 Y0.3011 Z0.9583
X1.3789 Y0.3027 Z0.9592
X1.377 Y0.3041 Z0.9607
X1.3754 Y0.3053 Z0.9627
X1.3742 Y0.3061 Z0.965
X1.3735 Y0.3067 Z0.9677
X1.3732 Y0.3069 Z0.9705
G0 Z1.2139
X1.2804 Y2.3741
Z0.983
G1 Z0.9705 F40.
X1.2801 Y2.3742 Z0.9677
X1.2793 Y2.3747 Z0.965
X1.278 Y2.3755 Z0.9627
X1.2763 Y2.3765 Z0.9607
X1.2743 Y2.3777 Z0.9592
X1.272 Y2.379 Z0.9583
X1.2696 Y2.3804 Z0.958
G3 X1.24 Y2.3892 I-0.0318 J-0.0536
G1 X1.1704
X1.1637 Y2.3888
X1.1567 Y2.3879
X1.1485 Y2.3862
X1.1402 Y2.3837
X1.1301 Y2.3797
X1.1186 Y2.3741
X1.1059 Y2.3667
X1.0909 Y2.3561
X1.0731 Y2.3414
X1.0526 Y2.3214
X1.0335 Y2.2995
X1.0158 Y2.2765
X0.9992 Y2.2526
X0.9836 Y2.2281
X0.969 Y2.203
X0.9552 Y2.1774
X0.9423 Y2.1514
X0.9304 Y2.1249
X0.9192 Y2.0981
X0.909 Y2.0709
X0.8997 Y2.0434
X0.8913 Y2.0156
X0.8838 Y1.9875
X0.8772 Y1.9592
X0.8716 Y1.9307
X0.8668 Y1.9021
X0.8631 Y1.8733
X0.8602 Y1.8444
X0.8583 Y1.8154
X0.8574 Y1.7864
Y1.7573
X0.8584 Y1.7283
X0.8603 Y1.6993
X0.8631 Y1.6704
X0.8669 Y1.6416
X0.8716 Y1.6129
X0.8772 Y1.5844
X0.8837 Y1.5561
X0.8912 Y1.528
X0.8995 Y1.5002
X0.9088 Y1.4727
X0.9189 Y1.4455
X0.9225 Y1.4314
X0.9247 Y1.4024
X0.9175 Y1.3743
X0.905 Y1.3481
X0.8897 Y1.3234
X0.8734 Y1.2993
X0.8571 Y1.2753
X0.8416 Y1.2507
X0.8272 Y1.2255
X0.8142 Y1.1995
X0.8029 Y1.1728
X0.7932 Y1.1454
X0.7854 Y1.1174
X0.7795 Y1.0889
X0.7756 Y1.0602
X0.7738 Y1.0312
X0.7741 Y1.0021
X0.7765 Y0.9732
X0.7809 Y0.9445
X0.7874 Y0.9161
X0.7959 Y0.8884
X0.8065 Y0.8613
X0.8191 Y0.8351
X0.8336 Y0.81
X0.8501 Y0.7862
X0.868 Y0.7642
X0.8873 Y0.7441
X0.909 Y0.7248
X0.9316 Y0.7066
X0.9513 Y0.6852
X0.9667 Y0.6605
X0.9787 Y0.6341
X0.9887 Y0.6068
X1.007 Y0.5517
X1.0168 Y0.5243
X1.0275 Y0.4973
X1.0394 Y0.4708
X1.0526 Y0.445
X1.0671 Y0.4198
X1.0828 Y0.3954
X1.0999 Y0.3719
X1.1182 Y0.3493
X1.1376 Y0.3277
X1.158 Y0.307
X1.1794 Y0.2874
X1.1838 Y0.2837
X1.1895 Y0.28
X1.1958 Y0.2777
X1.2025 Y0.2769
X1.2814
G3 X1.2884 Y0.2995 I-0.0004 J0.0125
G1 X1.2861 Y0.3011 Z0.9583
X1.284 Y0.3027 Z0.9592
X1.2821 Y0.3041 Z0.9607
X1.2805 Y0.3053 Z0.9627
X1.2793 Y0.3061 Z0.965
X1.2785 Y0.3067 Z0.9677
X1.2783 Y0.3069 Z0.9705
G0 Z1.2139
X1.2109 Y2.3741
Z0.983
G1 Z0.9705 F40.
X1.2106 Y2.3742 Z0.9677
X1.2098 Y2.3747 Z0.965
X1.2085 Y2.3755 Z0.9627
X1.2068 Y2.3765 Z0.9607
X1.2048 Y2.3777 Z0.9592
X1.2025 Y2.379 Z0.9583
X1.2001 Y2.3804 Z0.958
G3 X1.1704 Y2.3892 I-0.0318 J-0.0536
G1 X1.1082
X1.1 Y2.3888
X1.0932 Y2.3879
X1.0862 Y2.3864
X1.0779 Y2.3839
X1.0679 Y2.38
X1.058 Y2.3752
X1.0459 Y2.368
X1.0326 Y2.3587
X1.0167 Y2.3455
X0.9988 Y2.3281
X0.9797 Y2.3062
X0.9623 Y2.283
X0.946 Y2.2589
X0.9309 Y2.2341
X0.9167 Y2.2088
X0.9035 Y2.1829
X0.891 Y2.1567
X0.8795 Y2.13
X0.8688 Y2.103
X0.859 Y2.0757
X0.85 Y2.048
X0.8418 Y2.0202
X0.8346 Y1.992
X0.8282 Y1.9637
X0.8227 Y1.9352
X0.8181 Y1.9065
X0.8143 Y1.8777
X0.8115 Y1.8488
X0.8095 Y1.8198
X0.8085 Y1.7908
X0.8084 Y1.7617
X0.8092 Y1.7327
X0.8109 Y1.7037
X0.8134 Y1.6748
X0.8169 Y1.6459
X0.8212 Y1.6172
X0.8264 Y1.5886
X0.8325 Y1.5602
X0.8394 Y1.532
X0.8473 Y1.504
X0.8559 Y1.4763
X0.8641 Y1.4484
X0.8653 Y1.4194
X0.8592 Y1.391
X0.8483 Y1.3641
X0.8349 Y1.3383
X0.8204 Y1.3131
X0.8057 Y1.2881
X0.7916 Y1.2627
X0.7783 Y1.2369
X0.7662 Y1.2105
X0.7554 Y1.1835
X0.7462 Y1.1559
X0.7385 Y1.1279
X0.7327 Y1.0995
X0.7286 Y1.0707
X0.7264 Y1.0417
X0.7261 Y1.0127
X0.7275 Y0.9837
X0.7308 Y0.9548
X0.736 Y0.9262
X0.7429 Y0.898
X0.7516 Y0.8703
X0.7623 Y0.8433
X0.7747 Y0.817
X0.789 Y0.7917
X0.8049 Y0.7675
X0.8226 Y0.7444
X0.8418 Y0.7226
X0.8625 Y0.7022
X0.8834 Y0.6821
X0.9021 Y0.6598
X0.9176 Y0.6352
X0.9304 Y0.6092
X0.9416 Y0.5824
X0.9519 Y0.5552
X0.9622 Y0.528
X0.9728 Y0.501
X0.9841 Y0.4742
X0.9963 Y0.4479
X1.0097 Y0.4221
X1.0242 Y0.397
X1.0399 Y0.3725
X1.0567 Y0.3488
X1.0747 Y0.326
X1.0937 Y0.304
X1.1107 Y0.286
X1.1168 Y0.2811
X1.1241 Y0.278
X1.1319 Y0.2769
X1.2025
G3 X1.2095 Y0.2995 I-0.0004 J0.0125
G1 X1.2072 Y0.3011 Z0.9583
X1.2051 Y0.3027 Z0.9592
X1.2032 Y0.3041 Z0.9607
X1.2016 Y0.3053 Z0.9627
X1.2004 Y0.3061 Z0.965
X1.1997 Y0.3067 Z0.9677
X1.1994 Y0.3069 Z0.9705
G0 Z1.2139
X1.1486 Y2.3741
Z0.983
G1 Z0.9705 F40.
X1.1483 Y2.3742 Z0.9677
X1.1475 Y2.3747 Z0.965
X1.1462 Y2.3755 Z0.9627
X1.1445 Y2.3765 Z0.9607
X1.1425 Y2.3777 Z0.9592
X1.1402 Y2.379 Z0.9583
X1.1378 Y2.3804 Z0.958
G3 X1.1082 Y2.3892 I-0.0318 J-0.0536
G1 X1.0452
X1.0387 Y2.3888
X1.0327 Y2.388
X1.0258 Y2.3866
X1.0175 Y2.3841
X1.0089 Y2.3807
X0.9991 Y2.376
X0.9873 Y2.3691
X0.9754 Y2.3607
X0.9609 Y2.3486
X0.9444 Y2.3326
X0.9255 Y2.3108
X0.9082 Y2.2875
X0.8923 Y2.2632
X0.8776 Y2.2381
X0.8639 Y2.2125
X0.8511 Y2.1864
X0.8392 Y2.1599
X0.8281 Y2.1331
X0.8178 Y2.1059
X0.8083 Y2.0785
X0.7997 Y2.0507
X0.7919 Y2.0228
X0.7849 Y1.9946
X0.7788 Y1.9662
X0.7734 Y1.9376
X0.769 Y1.9089
X0.7653 Y1.8801
X0.7625 Y1.8512
X0.7606 Y1.8222
X0.7596 Y1.7932
X0.7594 Y1.7641
X0.7601 Y1.7351
X0.7616 Y1.7061
X0.764 Y1.6771
X0.7672 Y1.6483
X0.7713 Y1.6195
X0.7762 Y1.5909
X0.7819 Y1.5624
X0.7884 Y1.5341
X0.7958 Y1.506
X0.8037 Y1.478
X0.8081 Y1.4493
X0.8058 Y1.4203
X0.7983 Y1.3923
X0.7874 Y1.3654
X0.7748 Y1.3392
X0.7482 Y1.2876
X0.7354 Y1.2615
X0.7236 Y1.2349
X0.7128 Y1.208
X0.7033 Y1.1805
X0.6951 Y1.1526
X0.6885 Y1.1243
X0.6835 Y1.0957
X0.6801 Y1.0669
X0.6783 Y1.0379
X0.6781 Y1.0088
X0.6796 Y0.9798
X0.6829 Y0.951
X0.6878 Y0.9223
X0.6943 Y0.894
X0.7025 Y0.8662
X0.7124 Y0.8389
X0.7239 Y0.8122
X0.737 Y0.7863
X0.7517 Y0.7612
X0.7679 Y0.7371
X0.7856 Y0.714
X0.8047 Y0.6922
X0.8247 Y0.6711
X0.8437 Y0.6492
X0.8606 Y0.6256
X0.8752 Y0.6004
X0.888 Y0.5743
X0.8996 Y0.5477
X0.9217 Y0.494
X0.9332 Y0.4673
X0.9453 Y0.4409
X0.9583 Y0.4149
X0.9722 Y0.3895
X0.9872 Y0.3646
X1.0032 Y0.3403
X1.0202 Y0.3168
X1.0382 Y0.294
X1.0443 Y0.287
X1.0506 Y0.2815
X1.0581 Y0.2781
X1.0663 Y0.2769
X1.1319
G3 X1.1388 Y0.2995 I-0.0004 J0.0125
G1 X1.1366 Y0.3011 Z0.9583
X1.1345 Y0.3027 Z0.9592
X1.1326 Y0.3041 Z0.9607
X1.131 Y0.3053 Z0.9627
X1.1298 Y0.3061 Z0.965
X1.129 Y0.3067 Z0.9677
X1.1288 Y0.3069 Z0.9705
G0 Z1.2139
X1.0856 Y2.3741
Z0.983
G1 Z0.9705 F40.
X1.0854 Y2.3742 Z0.9677
X1.0846 Y2.3747 Z0.965
X1.0833 Y2.3755 Z0.9627
X1.0816 Y2.3765 Z0.9607
X1.0795 Y2.3777 Z0.9592
X1.0773 Y2.379 Z0.9583
X1.0749 Y2.3804 Z0.958
G3 X1.0452 Y2.3892 I-0.0318 J-0.0536
G1 X0.9859
X0.9795 Y2.3888
X0.9736 Y2.3881
X0.9667 Y2.3866
X0.9588 Y2.3842
X0.9507 Y2.381
X0.9409 Y2.3763
X0.9302 Y2.3699
X0.9186 Y2.3618
X0.9051 Y2.3506
X0.8898 Y2.3355
X0.8726 Y2.3158
X0.8554 Y2.2924
X0.8397 Y2.268
X0.8253 Y2.2428
X0.8119 Y2.217
X0.7995 Y2.1907
X0.788 Y2.1641
X0.7772 Y2.1371
X0.7673 Y2.1098
X0.7582 Y2.0822
X0.7498 Y2.0544
X0.7423 Y2.0263
X0.7355 Y1.9981
X0.7295 Y1.9697
X0.7243 Y1.9411
X0.72 Y1.9124
X0.7164 Y1.8835
X0.7136 Y1.8546
X0.7117 Y1.8256
X0.7106 Y1.7966
X0.7103 Y1.7676
X0.7109 Y1.7385
X0.7123 Y1.7095
X0.7145 Y1.6805
X0.7174 Y1.6516
X0.7212 Y1.6228
X0.7258 Y1.5942
X0.7312 Y1.5656
X0.7373 Y1.5372
X0.7442 Y1.509
X0.7504 Y1.4806
X0.7518 Y1.4516
X0.7478 Y1.4228
X0.7398 Y1.3949
X0.7293 Y1.3678
X0.7175 Y1.3413
X0.7052 Y1.3149
X0.6931 Y1.2886
X0.6815 Y1.2619
X0.6708 Y1.2349
X0.661 Y1.2076
X0.6524 Y1.1798
X0.6451 Y1.1517
X0.6392 Y1.1233
X0.6347 Y1.0946
X0.6316 Y1.0657
X0.63 Y1.0367
X0.6299 Y1.0076
X0.6314 Y0.9786
X0.6344 Y0.9497
X0.639 Y0.9211
X0.6451 Y0.8927
X0.6527 Y0.8646
X0.6618 Y0.837
X0.6724 Y0.81
X0.6844 Y0.7835
X0.6979 Y0.7578
X0.7127 Y0.7328
X0.729 Y0.7088
X0.7467 Y0.6857
X0.7654 Y0.6636
X0.7843 Y0.6415
X0.802 Y0.6185
X0.818 Y0.5942
X0.8322 Y0.5689
X0.8451 Y0.5428
X0.8571 Y0.5164
X0.8688 Y0.4898
X0.8806 Y0.4632
X0.8927 Y0.4368
X0.9054 Y0.4107
X0.9188 Y0.385
X0.9331 Y0.3597
X0.9483 Y0.3349
X0.9645 Y0.3108
X0.9816 Y0.2871
X0.9879 Y0.2816
X0.9955 Y0.2781
X1.0038 Y0.2769
X1.0663
G3 X1.0733 Y0.2995 I-0.0004 J0.0125
G1 X1.0711 Y0.3011 Z0.9583
X1.0689 Y0.3027 Z0.9592
X1.067 Y0.3041 Z0.9607
X1.0654 Y0.3053 Z0.9627
X1.0642 Y0.3061 Z0.965
X1.0635 Y0.3067 Z0.9677
X1.0632 Y0.3069 Z0.9705
G0 Z1.2139
X1.0263 Y2.3741
Z0.983
G1 Z0.9705 F40.
X1.026 Y2.3742 Z0.9677
X1.0252 Y2.3747 Z0.965
X1.024 Y2.3755 Z0.9627
X1.0223 Y2.3765 Z0.9607
X1.0202 Y2.3777 Z0.9592
X1.0179 Y2.379 Z0.9583
X1.0156 Y2.3804 Z0.958
G3 X0.9859 Y2.3892 I-0.0318 J-0.0536
G1 X0.9266
X0.9207 Y2.3889
X0.9147 Y2.388
X0.9075 Y2.3863
X0.9003 Y2.384
X0.8919 Y2.3805
X0.8819 Y2.3755
X0.8721 Y2.3694
X0.86 Y2.3606
X0.8476 Y2.3499
X0.8326 Y2.3347
X0.8157 Y2.3146
X0.7989 Y2.2909
X0.7837 Y2.2662
X0.7698 Y2.2406
X0.757 Y2.2146
X0.7451 Y2.188
X0.7341 Y2.1612
X0.7239 Y2.134
X0.7145 Y2.1065
X0.7059 Y2.0787
X0.698 Y2.0508
X0.6909 Y2.0226
X0.6845 Y1.9943
X0.6789 Y1.9658
X0.6741 Y1.9371
X0.67 Y1.9084
X0.6667 Y1.8795
X0.6642 Y1.8506
X0.6624 Y1.8216
X0.6615 Y1.7926
X0.6613 Y1.7635
X0.662 Y1.7345
X0.6634 Y1.7055
X0.6655 Y1.6765
X0.6685 Y1.6476
X0.6722 Y1.6188
X0.6767 Y1.5901
X0.6819 Y1.5615
X0.6939 Y1.5047
X0.6967 Y1.4757
X0.695 Y1.4468
X0.6892 Y1.4183
X0.6805 Y1.3906
X0.6702 Y1.3634
X0.659 Y1.3366
X0.6476 Y1.3099
X0.6365 Y1.283
X0.6261 Y1.2559
X0.6164 Y1.2285
X0.6078 Y1.2008
X0.6003 Y1.1727
X0.594 Y1.1444
X0.5889 Y1.1158
X0.5851 Y1.087
X0.5826 Y1.0581
X0.5815 Y1.029
X0.5818 Y1.
X0.5836 Y0.971
X0.5867 Y0.9421
X0.5912 Y0.9134
X0.5972 Y0.885
X0.6046 Y0.8569
X0.6134 Y0.8292
X0.6235 Y0.802
X0.635 Y0.7753
X0.6478 Y0.7492
X0.6619 Y0.7238
X0.6772 Y0.6992
X0.6938 Y0.6753
X0.7115 Y0.6523
X0.7296 Y0.6296
X0.7473 Y0.6065
X0.7637 Y0.5826
X0.7788 Y0.5577
X0.7926 Y0.5322
X0.8055 Y0.5061
X0.8178 Y0.4798
X0.83 Y0.4534
X0.8423 Y0.4271
X0.855 Y0.401
X0.8683 Y0.3752
X0.8823 Y0.3498
X0.8971 Y0.3248
X0.9127 Y0.3003
X0.9203 Y0.2894
X0.9249 Y0.2842
X0.9307 Y0.2802
X0.9373 Y0.2777
X0.9442 Y0.2769
X1.0038
G3 X1.0108 Y0.2995 I-0.0004 J0.0125
G1 X1.0085 Y0.3011 Z0.9583
X1.0064 Y0.3027 Z0.9592
X1.0045 Y0.3041 Z0.9607
X1.0029 Y0.3053 Z0.9627
X1.0017 Y0.3061 Z0.965
X1.0009 Y0.3067 Z0.9677
X1.0007 Y0.3069 Z0.9705
G0 Z1.2139
X0.967 Y2.3741
Z0.983
G1 Z0.9705 F40.
X0.9667 Y2.3742 Z0.9677
X0.9659 Y2.3747 Z0.965
X0.9646 Y2.3755 Z0.9627
X0.9629 Y2.3765 Z0.9607
X0.9609 Y2.3777 Z0.9592
X0.9586 Y2.379 Z0.9583
X0.9562 Y2.3804 Z0.958
G3 X0.9266 Y2.3892 I-0.0318 J-0.0536
G1 X0.8709
X0.865 Y2.3889
X0.8591 Y2.3881
X0.8524 Y2.3866
X0.8451 Y2.3844
X0.8374 Y2.3813
X0.828 Y2.3768
X0.8183 Y2.371
X0.8074 Y2.3632
X0.795 Y2.3529
X0.7814 Y2.3394
X0.7663 Y2.322
X0.7491 Y2.2985
X0.7338 Y2.2738
X0.72 Y2.2483
X0.7073 Y2.2222
X0.6956 Y2.1956
X0.6847 Y2.1687
X0.6747 Y2.1414
X0.6655 Y2.1139
X0.657 Y2.0861
X0.6492 Y2.0581
X0.6422 Y2.0299
X0.6359 Y2.0015
X0.6303 Y1.973
X0.6255 Y1.9444
X0.6214 Y1.9156
X0.6181 Y1.8868
X0.6155 Y1.8578
X0.6136 Y1.8289
X0.6125 Y1.7998
X0.6122 Y1.7708
X0.6126 Y1.7417
X0.6138 Y1.7127
X0.6157 Y1.6837
X0.6183 Y1.6548
X0.6217 Y1.6259
X0.6258 Y1.5972
X0.6307 Y1.5686
X0.6361 Y1.54
X0.6408 Y1.5114
X0.6425 Y1.4823
X0.6401 Y1.4534
X0.6343 Y1.4249
X0.6261 Y1.3971
X0.6165 Y1.3697
X0.6061 Y1.3425
X0.5955 Y1.3155
X0.5853 Y1.2883
X0.5755 Y1.2609
X0.5665 Y1.2333
X0.5584 Y1.2054
X0.5513 Y1.1773
X0.5453 Y1.1488
X0.5404 Y1.1202
X0.5367 Y1.0914
X0.5343 Y1.0624
X0.5331 Y1.0334
X0.5332 Y1.0044
X0.5347 Y0.9754
X0.5374 Y0.9464
X0.5414 Y0.9177
X0.5468 Y0.8891
X0.5534 Y0.8609
X0.5614 Y0.8329
X0.5706 Y0.8054
X0.581 Y0.7782
X0.5926 Y0.7516
X0.6055 Y0.7256
X0.6196 Y0.7002
X0.6349 Y0.6755
X0.6513 Y0.6515
X0.6685 Y0.6281
X0.6859 Y0.6049
X0.7029 Y0.5813
X0.719 Y0.5571
X0.7339 Y0.5322
X0.7478 Y0.5067
X0.7609 Y0.4808
X0.7737 Y0.4547
X0.7862 Y0.4285
X0.7989 Y0.4024
X0.812 Y0.3764
X0.8255 Y0.3507
X0.8397 Y0.3253
X0.8545 Y0.3004
X0.8616 Y0.2898
X0.8663 Y0.2844
X0.8721 Y0.2803
X0.8787 Y0.2778
X0.8858 Y0.2769
X0.9442
G3 X0.9512 Y0.2995 I-0.0004 J0.0125
G1 X0.9489 Y0.3011 Z0.9583
X0.9468 Y0.3027 Z0.9592
X0.9449 Y0.3041 Z0.9607
X0.9433 Y0.3053 Z0.9627
X0.9421 Y0.3061 Z0.965
X0.9413 Y0.3067 Z0.9677
X0.9411 Y0.3069 Z0.9705
G0 Z1.2139
X0.9113 Y2.3741
Z0.983
G1 Z0.9705 F40.
X0.911 Y2.3742 Z0.9677
X0.9102 Y2.3747 Z0.965
X0.9089 Y2.3755 Z0.9627
X0.9072 Y2.3765 Z0.9607
X0.9052 Y2.3777 Z0.9592
X0.9029 Y2.379 Z0.9583
X0.9005 Y2.3804 Z0.958
G3 X0.8709 Y2.3892 I-0.0318 J-0.0536
G1 X0.8145
X0.8086 Y2.3889
X0.8028 Y2.388
X0.7961 Y2.3865
X0.7893 Y2.3844
X0.7811 Y2.3811
X0.7724 Y2.3767
X0.7629 Y2.3709
X0.7514 Y2.3627
X0.7402 Y2.3532
X0.7267 Y2.3396
X0.712 Y2.3223
X0.6952 Y2.2991
X0.6802 Y2.2742
X0.6667 Y2.2485
X0.6543 Y2.2222
X0.643 Y2.1955
X0.6325 Y2.1684
X0.6229 Y2.141
X0.614 Y2.1133
X0.6058 Y2.0854
X0.5984 Y2.0574
X0.5917 Y2.0291
X0.5856 Y2.0007
X0.5803 Y1.9721
X0.5757 Y1.9435
X0.5718 Y1.9147
X0.5686 Y1.8858
X0.5662 Y1.8569
X0.5644 Y1.8279
X0.5634 Y1.7988
X0.5631 Y1.7698
X0.5635 Y1.7407
X0.5646 Y1.7117
X0.5665 Y1.6827
X0.569 Y1.6538
X0.5723 Y1.6249
X0.5763 Y1.5962
X0.5809 Y1.5675
X0.5856 Y1.5388
X0.5885 Y1.5099
X0.5882 Y1.4809
X0.5846 Y1.452
X0.5783 Y1.4237
X0.5701 Y1.3958
X0.5608 Y1.3683
X0.5413 Y1.3136
X0.5318 Y1.2861
X0.5228 Y1.2585
X0.5145 Y1.2307
X0.5071 Y1.2026
X0.5007 Y1.1742
X0.4952 Y1.1457
X0.4908 Y1.117
X0.4876 Y1.0881
X0.4854 Y1.0592
X0.4845 Y1.0301
X0.4847 Y1.0011
X0.4862 Y0.9721
X0.4889 Y0.9432
X0.4928 Y0.9144
X0.498 Y0.8858
X0.5043 Y0.8574
X0.5118 Y0.8294
X0.5205 Y0.8017
X0.5304 Y0.7744
X0.5414 Y0.7475
X0.5535 Y0.7211
X0.5668 Y0.6952
X0.5812 Y0.67
X0.5966 Y0.6454
X0.6129 Y0.6214
X0.6466 Y0.574
X0.6629 Y0.5499
X0.6783 Y0.5254
X0.6929 Y0.5002
X0.7068 Y0.4747
X0.72 Y0.4488
X0.733 Y0.4229
X0.7459 Y0.3968
X0.759 Y0.3709
X0.7724 Y0.3451
X0.7863 Y0.3196
X0.8006 Y0.2949
X0.8043 Y0.2895
X0.809 Y0.2842
X0.8148 Y0.2802
X0.8213 Y0.2778
X0.8283 Y0.2769
X0.8858
G3 X0.8928 Y0.2995 I-0.0004 J0.0125
G1 X0.8905 Y0.3011 Z0.9583
X0.8884 Y0.3027 Z0.9592
X0.8865 Y0.3041 Z0.9607
X0.8849 Y0.3053 Z0.9627
X0.8837 Y0.3061 Z0.965
X0.8829 Y0.3067 Z0.9677
X0.8827 Y0.3069 Z0.9705
G0 Z1.2139
X0.8549 Y2.3741
Z0.983
G1 Z0.9705 F40.
X0.8547 Y2.3742 Z0.9677
X0.8539 Y2.3747 Z0.965
X0.8526 Y2.3755 Z0.9627
X0.8509 Y2.3765 Z0.9607
X0.8488 Y2.3777 Z0.9592
X0.8466 Y2.379 Z0.9583
X0.8442 Y2.3804 Z0.958
G3 X0.8145 Y2.3892 I-0.0318 J-0.0536
G1 X0.7588
X0.7529 Y2.3889
X0.747 Y2.3879
X0.7405 Y2.3864
X0.7336 Y2.3841
X0.7254 Y2.3807
X0.7168 Y2.3763
X0.7073 Y2.3704
X0.696 Y2.3621
X0.685 Y2.3524
X0.6718 Y2.3389
X0.6574 Y2.3216
X0.6412 Y2.2986
X0.6265 Y2.2736
X0.6133 Y2.2478
X0.6013 Y2.2213
X0.5903 Y2.1944
X0.5802 Y2.1672
X0.5709 Y2.1396
X0.5624 Y2.1119
X0.5546 Y2.0839
X0.5475 Y2.0557
X0.541 Y2.0274
X0.5353 Y1.9989
X0.5302 Y1.9703
X0.5258 Y1.9416
X0.5221 Y1.9128
X0.5191 Y1.8839
X0.5168 Y1.855
X0.5151 Y1.826
X0.5142 Y1.7969
X0.5139 Y1.7679
X0.5144 Y1.7388
X0.5155 Y1.7098
X0.5173 Y1.6808
X0.5198 Y1.6519
X0.523 Y1.623
X0.5268 Y1.5942
X0.5311 Y1.5655
X0.5345 Y1.5366
X0.5357 Y1.5076
X0.5339 Y1.4786
X0.5294 Y1.4499
X0.5228 Y1.4216
X0.5147 Y1.3937
X0.5058 Y1.3661
X0.4966 Y1.3385
X0.4875 Y1.311
X0.4787 Y1.2833
X0.4704 Y1.2554
X0.4628 Y1.2274
X0.456 Y1.1991
X0.4502 Y1.1707
X0.4452 Y1.1421
X0.4413 Y1.1133
X0.4384 Y1.0844
X0.4365 Y1.0554
X0.4358 Y1.0264
X0.4362 Y0.9973
X0.4377 Y0.9683
X0.4403 Y0.9394
X0.4442 Y0.9106
X0.4491 Y0.882
X0.4552 Y0.8536
X0.4625 Y0.8254
X0.4708 Y0.7976
X0.4802 Y0.7701
X0.4906 Y0.743
X0.5021 Y0.7164
X0.5147 Y0.6902
X0.5283 Y0.6645
X0.5429 Y0.6394
X0.5584 Y0.6148
X0.5745 Y0.5907
X0.5909 Y0.5667
X0.6072 Y0.5426
X0.6229 Y0.5182
X0.638 Y0.4934
X0.6524 Y0.4681
X0.6661 Y0.4425
X0.6795 Y0.4168
X0.706 Y0.365
X0.7194 Y0.3393
X0.7331 Y0.3137
X0.7442 Y0.2943
X0.7474 Y0.2896
X0.7521 Y0.2843
X0.7579 Y0.2803
X0.7645 Y0.2778
X0.7715 Y0.2769
X0.8283
G3 X0.8353 Y0.2995 I-0.0004 J0.0125
G1 X0.833 Y0.3011 Z0.9583
X0.8309 Y0.3027 Z0.9592
X0.829 Y0.3041 Z0.9607
X0.8274 Y0.3053 Z0.9627
X0.8262 Y0.3061 Z0.965
X0.8254 Y0.3067 Z0.9677
X0.8252 Y0.3069 Z0.9705
G0 Z1.2139
X0.7992 Y2.3741
Z0.983
G1 Z0.9705 F40.
X0.799 Y2.3742 Z0.9677
X0.7982 Y2.3747 Z0.965
X0.7969 Y2.3755 Z0.9627
X0.7952 Y2.3765 Z0.9607
X0.7931 Y2.3777 Z0.9592
X0.7909 Y2.379 Z0.9583
X0.7885 Y2.3804 Z0.958
G3 X0.7588 Y2.3892 I-0.0318 J-0.0536
G1 X0.7061
X0.6999 Y2.3888
X0.694 Y2.3881
X0.6875 Y2.3867
X0.681 Y2.3847
X0.6733 Y2.3816
X0.6647 Y2.3774
X0.6558 Y2.3721
X0.6451 Y2.3644
X0.6345 Y2.3555
X0.6217 Y2.343
X0.6088 Y2.328
X0.5936 Y2.3072
X0.5784 Y2.2824
X0.565 Y2.2567
X0.5528 Y2.2303
X0.5418 Y2.2034
X0.5317 Y2.1762
X0.5225 Y2.1486
X0.514 Y2.1209
X0.5062 Y2.0929
X0.4991 Y2.0647
X0.4927 Y2.0364
X0.4869 Y2.0079
X0.4818 Y1.9793
X0.4774 Y1.9506
X0.4736 Y1.9218
X0.4705 Y1.8929
X0.4681 Y1.864
X0.4663 Y1.835
X0.4652 Y1.806
X0.4648 Y1.7769
X0.465 Y1.7479
X0.4658 Y1.7188
X0.4674 Y1.6898
X0.4696 Y1.6609
X0.4724 Y1.632
X0.4759 Y1.6031
X0.4795 Y1.5743
X0.4823 Y1.5454
X0.4831 Y1.5163
X0.4812 Y1.4874
X0.4769 Y1.4586
X0.4707 Y1.4303
X0.4631 Y1.4022
X0.4548 Y1.3744
X0.4375 Y1.3189
X0.4292 Y1.2911
X0.4213 Y1.2631
X0.414 Y1.235
X0.4075 Y1.2067
X0.4017 Y1.1782
X0.3968 Y1.1496
X0.3929 Y1.1208
X0.39 Y1.0919
X0.388 Y1.0629
X0.3871 Y1.0339
X0.3872 Y1.0049
X0.3884 Y0.9758
X0.3907 Y0.9469
X0.394 Y0.918
X0.3984 Y0.8893
X0.4038 Y0.8608
X0.4103 Y0.8325
X0.4178 Y0.8044
X0.4264 Y0.7766
X0.436 Y0.7492
X0.4465 Y0.7222
X0.4581 Y0.6955
X0.4707 Y0.6693
X0.4842 Y0.6436
X0.4986 Y0.6184
X0.5138 Y0.5937
X0.5296 Y0.5693
X0.5456 Y0.545
X0.5615 Y0.5207
X0.5771 Y0.4962
X0.5921 Y0.4713
X0.6065 Y0.4461
X0.6204 Y0.4206
X0.634 Y0.3949
X0.6608 Y0.3434
X0.6744 Y0.3177
X0.6865 Y0.296
X0.6905 Y0.2899
X0.6952 Y0.2845
X0.701 Y0.2804
X0.7077 Y0.2778
X0.7148 Y0.2769
X0.7715
G3 X0.7784 Y0.2995 I-0.0004 J0.0125
G1 X0.7762 Y0.3011 Z0.9583
X0.7741 Y0.3027 Z0.9592
X0.7721 Y0.3041 Z0.9607
X0.7706 Y0.3053 Z0.9627
X0.7693 Y0.3061 Z0.965
X0.7686 Y0.3067 Z0.9677
X0.7684 Y0.3069 Z0.9705
G0 Z1.2139
X0.7465 Y2.3741
Z0.983
G1 Z0.9705 F40.
X0.7462 Y2.3742 Z0.9677
X0.7454 Y2.3747 Z0.965
X0.7442 Y2.3755 Z0.9627
X0.7425 Y2.3765 Z0.9607
X0.7404 Y2.3777 Z0.9592
X0.7381 Y2.379 Z0.9583
X0.7358 Y2.3804 Z0.958
G3 X0.7061 Y2.3892 I-0.0318 J-0.0536
G1 X0.6534
X0.646 Y2.3888
X0.6402 Y2.388
X0.6342 Y2.3867
X0.6275 Y2.3847
X0.6197 Y2.3817
X0.612 Y2.3779
X0.6028 Y2.3724
X0.5929 Y2.3654
X0.5822 Y2.3565
X0.5701 Y2.3447
X0.557 Y2.3296
X0.5427 Y2.3102
X0.5274 Y2.2855
X0.514 Y2.2597
X0.502 Y2.2333
X0.4911 Y2.2063
X0.4812 Y2.179
X0.4721 Y2.1514
X0.4638 Y2.1236
X0.4562 Y2.0956
X0.4493 Y2.0674
X0.443 Y2.039
X0.4374 Y2.0105
X0.4324 Y1.9819
X0.4281 Y1.9532
X0.4244 Y1.9244
X0.4213 Y1.8955
X0.4189 Y1.8665
X0.4171 Y1.8375
X0.416 Y1.8085
X0.4155 Y1.7795
X0.4157 Y1.7504
X0.4165 Y1.7214
X0.4179 Y1.6924
X0.42 Y1.6634
X0.4226 Y1.6345
X0.4257 Y1.6056
X0.4288 Y1.5767
X0.4307 Y1.5477
X0.4305 Y1.5187
X0.4281 Y1.4897
X0.4236 Y1.461
X0.4174 Y1.4326
X0.4101 Y1.4045
X0.4022 Y1.3766
X0.3859 Y1.3208
X0.378 Y1.2928
X0.3706 Y1.2648
X0.3637 Y1.2365
X0.3576 Y1.2082
X0.3521 Y1.1796
X0.3476 Y1.1509
X0.3438 Y1.1221
X0.341 Y1.0932
X0.3392 Y1.0642
X0.3383 Y1.0352
Y1.0061
X0.3394 Y0.9771
X0.3415 Y0.9481
X0.3446 Y0.9193
X0.3488 Y0.8905
X0.3539 Y0.8619
X0.3599 Y0.8335
X0.367 Y0.8053
X0.375 Y0.7774
X0.384 Y0.7498
X0.394 Y0.7225
X0.4048 Y0.6956
X0.4167 Y0.669
X0.4294 Y0.6429
X0.443 Y0.6173
X0.4574 Y0.592
X0.4725 Y0.5672
X0.488 Y0.5427
X0.5037 Y0.5182
X0.5193 Y0.4937
X0.5346 Y0.469
X0.5494 Y0.444
X0.5637 Y0.4187
X0.5777 Y0.3933
X0.5914 Y0.3677
X0.605 Y0.342
X0.6187 Y0.3164
X0.6303 Y0.2955
X0.634 Y0.2899
X0.6387 Y0.2845
X0.6445 Y0.2804
X0.6512 Y0.2778
X0.6583 Y0.2769
X0.7148
G3 X0.7218 Y0.2995 I-0.0004 J0.0125
G1 X0.7195 Y0.3011 Z0.9583
X0.7174 Y0.3027 Z0.9592
X0.7155 Y0.3041 Z0.9607
X0.7139 Y0.3053 Z0.9627
X0.7127 Y0.3061 Z0.965
X0.7119 Y0.3067 Z0.9677
X0.7117 Y0.3069 Z0.9705
G0 Z1.2139
X0.6938 Y2.3741
Z0.983
G1 Z0.9705 F40.
X0.6935 Y2.3742 Z0.9677
X0.6927 Y2.3747 Z0.965
X0.6914 Y2.3755 Z0.9627
X0.6897 Y2.3765 Z0.9607
X0.6877 Y2.3777 Z0.9592
X0.6854 Y2.379 Z0.9583
X0.683 Y2.3804 Z0.958
G3 X0.6534 Y2.3892 I-0.0318 J-0.0536
G1 X0.597
X0.5911 Y2.3889
X0.5853 Y2.3879
X0.5793 Y2.3865
X0.5721 Y2.3841
X0.5646 Y2.3809
X0.5563 Y2.3766
X0.5466 Y2.3705
X0.5372 Y2.3635
X0.5255 Y2.3532
X0.5142 Y2.3414
X0.5007 Y2.3251
X0.4859 Y2.3038
X0.4712 Y2.2787
X0.4584 Y2.2526
X0.4469 Y2.2259
X0.4366 Y2.1988
X0.4272 Y2.1713
X0.4186 Y2.1435
X0.4107 Y2.1156
X0.4036 Y2.0874
X0.397 Y2.0591
X0.3912 Y2.0307
X0.3859 Y2.0021
X0.3813 Y1.9734
X0.3773 Y1.9446
X0.3739 Y1.9158
X0.3712 Y1.8869
X0.369 Y1.8579
X0.3675 Y1.8289
X0.3666 Y1.7999
X0.3663 Y1.7708
X0.3666 Y1.7418
X0.3676 Y1.7127
X0.3691 Y1.6837
X0.3712 Y1.6548
X0.3738 Y1.6258
X0.3765 Y1.5969
X0.3784 Y1.5679
X0.3788 Y1.5389
X0.3773 Y1.5099
X0.3737 Y1.481
X0.3685 Y1.4525
X0.362 Y1.4242
X0.3547 Y1.396
X0.3471 Y1.368
X0.3393 Y1.34
X0.3316 Y1.312
X0.3243 Y1.2839
X0.3175 Y1.2557
X0.3113 Y1.2273
X0.3057 Y1.1988
X0.3009 Y1.1701
X0.2968 Y1.1414
X0.2936 Y1.1125
X0.2913 Y1.0835
X0.2899 Y1.0545
X0.2893 Y1.0255
X0.2898 Y0.9964
X0.2911 Y0.9674
X0.2934 Y0.9385
X0.2966 Y0.9096
X0.3008 Y0.8809
X0.3059 Y0.8523
X0.312 Y0.8239
X0.319 Y0.7957
X0.3269 Y0.7677
X0.3357 Y0.74
X0.3455 Y0.7127
X0.3561 Y0.6856
X0.3676 Y0.659
X0.38 Y0.6327
X0.3932 Y0.6068
X0.4071 Y0.5813
X0.4217 Y0.5562
X0.4368 Y0.5314
X0.4521 Y0.5067
X0.4675 Y0.4821
X0.4827 Y0.4573
X0.4976 Y0.4324
X0.5122 Y0.4073
X0.5264 Y0.3819
X0.5403 Y0.3564
X0.5541 Y0.3309
X0.568 Y0.3053
X0.5769 Y0.2904
X0.578 Y0.289
X0.5844 Y0.2825
X0.5926 Y0.2783
X0.6016 Y0.2769
X0.6583
G3 X0.6652 Y0.2995 I-0.0004 J0.0125
G1 X0.663 Y0.3011 Z0.9583
X0.6609 Y0.3027 Z0.9592
X0.6589 Y0.3041 Z0.9607
X0.6573 Y0.3053 Z0.9627
X0.6561 Y0.3061 Z0.965
X0.6554 Y0.3067 Z0.9677
X0.6551 Y0.3069 Z0.9705
G0 Z1.2139
X0.6374 Y2.3741
Z0.983
G1 Z0.9705 F40.
X0.6371 Y2.3742 Z0.9677
X0.6364 Y2.3747 Z0.965
X0.6351 Y2.3755 Z0.9627
X0.6334 Y2.3765 Z0.9607
X0.6313 Y2.3777 Z0.9592
X0.6291 Y2.379 Z0.9583
X0.6267 Y2.3804 Z0.958
G3 X0.597 Y2.3892 I-0.0318 J-0.0536
G1 X0.5443
X0.5384 Y2.3889
X0.5325 Y2.388
X0.5264 Y2.3865
X0.5198 Y2.3843
X0.5119 Y2.381
X0.504 Y2.3769
X0.4949 Y2.3712
X0.4848 Y2.3637
X0.4743 Y2.3546
X0.4622 Y2.3421
X0.4495 Y2.3268
X0.4355 Y2.3068
X0.4208 Y2.2818
X0.408 Y2.2557
X0.3966 Y2.229
X0.3863 Y2.2018
X0.377 Y2.1743
X0.3685 Y2.1465
X0.3608 Y2.1185
X0.3538 Y2.0903
X0.3474 Y2.062
X0.3416 Y2.0335
X0.3365 Y2.0049
X0.332 Y1.9763
X0.328 Y1.9475
X0.3247 Y1.9186
X0.322 Y1.8897
X0.3198 Y1.8607
X0.3183 Y1.8317
X0.3173 Y1.8027
X0.317 Y1.7736
X0.3172 Y1.7446
X0.3181 Y1.7156
X0.3195 Y1.6865
X0.3215 Y1.6576
X0.3238 Y1.6286
X0.3259 Y1.5996
X0.3272 Y1.5706
X0.327 Y1.5416
X0.325 Y1.5126
X0.3212 Y1.4838
X0.316 Y1.4552
X0.3097 Y1.4269
X0.3027 Y1.3987
X0.2954 Y1.3706
X0.288 Y1.3425
X0.2807 Y1.3143
X0.2738 Y1.2861
X0.2673 Y1.2578
X0.2614 Y1.2294
X0.2561 Y1.2008
X0.2515 Y1.1721
X0.2476 Y1.1433
X0.2446 Y1.1145
X0.2423 Y1.0855
X0.2409 Y1.0565
X0.2404 Y1.0274
X0.2407 Y0.9984
X0.242 Y0.9694
X0.2441 Y0.9404
X0.2471 Y0.9115
X0.2511 Y0.8827
X0.2559 Y0.8541
X0.2616 Y0.8256
X0.2681 Y0.7973
X0.2756 Y0.7692
X0.2839 Y0.7414
X0.2931 Y0.7138
X0.3031 Y0.6866
X0.314 Y0.6596
X0.3257 Y0.6331
X0.3382 Y0.6068
X0.3514 Y0.581
X0.3654 Y0.5555
X0.3798 Y0.5303
X0.3948 Y0.5054
X0.425 Y0.4558
X0.44 Y0.4309
X0.4548 Y0.4059
X0.4693 Y0.3807
X0.4835 Y0.3554
X0.5115 Y0.3045
X0.5207 Y0.2895
X0.5212 Y0.2889
X0.5276 Y0.2825
X0.5357 Y0.2783
X0.5447 Y0.2769
X0.6016
G3 X0.6086 Y0.2995 I-0.0004 J0.0125
G1 X0.6064 Y0.3011 Z0.9583
X0.6042 Y0.3027 Z0.9592
X0.6023 Y0.3041 Z0.9607
X0.6007 Y0.3053 Z0.9627
X0.5995 Y0.3061 Z0.965
X0.5988 Y0.3067 Z0.9677
X0.5985 Y0.3069 Z0.9705
G0 Z1.2139
