(1001)
(T2  D=0.0312 CR=0. - ZMIN=0.1509 - FLAT END MILL)
G0 G90 G94 G17
G20
G53 G0 Z0.

(CONTOUR5)
M5
M9
T2
S16500 M3
G4 P4.
G55
G0 X1.8944 Y2.4557
Z1.6076
Z1.0958
G1 Z1.0221 F14.
X1.8941 Z1.0209
X1.8935 Z1.0199
X1.8925 Z1.0192
X1.8913 Z1.019
X0.1716 Z1.0011
X0.1715
Y0.2104 Z0.9776
X0.1716 Y0.2103
X0.1722
X0.1723
X2.435
X2.4351 Y0.2104
Y2.4557
X2.435
X0.1716
X0.1715
Y0.2104
X0.1716 Y0.2103
X0.1723
X0.1747
X0.1772
X0.1821
X0.187
X0.192
X0.1969
X0.2018
X0.2067
X0.2117 Z0.9775
X0.2166
X0.2215
X0.2264
X0.2314 Z0.9774
X0.2363
X0.2412
X0.2461 Z0.9773
X0.251
X0.256 Z0.9772
X0.2609
X0.2658 Z0.9771
X0.2707
X0.2757 Z0.977
X0.2806 Z0.9769
X0.2855
X0.2904 Z0.9768
X0.2954 Z0.9767
X0.3003
X0.3052 Z0.9766
X0.3101 Z0.9765
X0.3151 Z0.9764
X0.32
X0.3249 Z0.9763
X0.3298 Z0.9762
X0.3348 Z0.9761
X0.3397 Z0.976
X0.3446 Z0.9759
X0.3495 Z0.9758
X0.3545 Z0.9757
X0.3594 Z0.9756
X0.3643 Z0.9755
X0.3692 Z0.9754
X0.3742 Z0.9753
X0.3791 Z0.9752
X0.384 Z0.9751
X0.3889 Z0.975
X0.3939 Z0.9749
X0.3988 Z0.9747
X0.4037 Z0.9746
X0.4086 Z0.9745
X0.4136 Z0.9744
X0.4185 Z0.9743
X0.4234 Z0.9741
X0.4283 Z0.974
X0.4333 Z0.9739
X0.4382 Z0.9737
X0.4431 Z0.9736
X0.448 Z0.9735
X0.453 Z0.9733
X0.4579 Z0.9732
X0.4628 Z0.973
X0.4677 Z0.9729
X0.4727 Z0.9728
X0.4776 Z0.9726
X0.4825 Z0.9725
X0.4874 Z0.9723
X0.4924 Z0.9722
X0.4973 Z0.972
X0.5022 Z0.9718
X0.5071 Z0.9717
X0.5121 Z0.9715
X0.517 Z0.9714
X0.5219 Z0.9712
X0.5268 Z0.971
X0.5318 Z0.9709
X0.5367 Z0.9707
X0.5416 Z0.9705
X0.5465 Z0.9704
X0.5515 Z0.9702
X0.581 Z0.9692
X1.2508 Z0.9458
X1.2557 Z0.9456
X1.2606 Z0.9455
X1.2656 Z0.9453
X1.2705 Z0.9451
X1.2754 Z0.9449
X1.2803 Z0.9448
X1.2853 Z0.9446
X1.2902 Z0.9445
X1.2951 Z0.9443
X1.3 Z0.9441
X1.305 Z0.944
X1.3099 Z0.9438
X1.3148 Z0.9437
X1.3197 Z0.9435
X1.3247 Z0.9434
X1.3296 Z0.9432
X1.3345 Z0.9431
X1.3394 Z0.9429
X1.3444 Z0.9428
X1.3493 Z0.9427
X1.3542 Z0.9425
X1.3591 Z0.9424
X1.3641 Z0.9422
X1.369 Z0.9421
X1.3739 Z0.942
X1.3788 Z0.9418
X1.3838 Z0.9417
X1.3887 Z0.9416
X1.3936 Z0.9415
X1.3985 Z0.9413
X1.4035 Z0.9412
X1.4084 Z0.9411
X1.4133 Z0.941
X1.4182 Z0.9409
X1.4232 Z0.9408
X1.4281 Z0.9407
X1.433 Z0.9405
X1.4379 Z0.9404
X1.4428 Z0.9403
X1.4478 Z0.9402
X1.4527 Z0.9401
X1.4576 Z0.94
X1.4625
X1.4675 Z0.9399
X1.4724 Z0.9398
X1.4773 Z0.9397
X1.4822 Z0.9396
X1.4872 Z0.9395
X1.4921 Z0.9394
X1.497
X1.5019 Z0.9393
X1.5069 Z0.9392
X1.5118 Z0.9391
X1.5167
X1.5216 Z0.939
X1.5266 Z0.9389
X1.5315
X1.5364 Z0.9388
X1.5413
X1.5463 Z0.9387
X1.5512
X1.5561 Z0.9386
X1.561
X1.566 Z0.9385
X1.5709
X1.5758
X1.5807 Z0.9384
X1.5857
X1.5906
X1.5955
X1.6004 Z0.9383
X1.6054
X1.6103
X1.6152
X1.6201
X1.6251
X1.6312
X1.6324
X2.435
X2.4351 Y0.2104
Y2.4557
X2.435
X0.1716
X0.1715
Y0.2104
X0.1716 Y0.2103
X1.6324
X1.6349
X1.6373
X1.6423
X1.6472
X1.6521 Z0.9382
X1.657
X1.662
X1.6669
X1.6718
X1.6767 Z0.9381
X1.6817
X1.6866
X1.6915
X1.6964 Z0.938
X1.7014
X1.7063 Z0.9379
X1.7112
X1.7161 Z0.9378
X1.7211
X1.726 Z0.9377
X1.7309
X1.7358 Z0.9376
X1.7408
X1.7457 Z0.9375
X1.7506 Z0.9374
X1.7555
X1.7605 Z0.9373
X1.7654 Z0.9372
X1.7703 Z0.9371
X1.7752
X1.7802 Z0.937
X1.7851 Z0.9369
X1.79 Z0.9368
X1.7949 Z0.9367
X1.7999 Z0.9366
X1.8048 Z0.9365
X1.8097 Z0.9364
X1.8146
X1.8196 Z0.9363
X1.8245 Z0.9362
X1.8294 Z0.936
X1.8343 Z0.9359
X1.8393 Z0.9358
X1.8442 Z0.9357
X1.8491 Z0.9356
X1.854 Z0.9355
X1.859 Z0.9354
X1.8639 Z0.9353
X1.8688 Z0.9351
X1.8737 Z0.935
X1.8787 Z0.9349
X1.8836 Z0.9348
X1.8885 Z0.9346
X1.8934 Z0.9345
X1.8984 Z0.9344
X1.9033 Z0.9342
X1.9082 Z0.9341
X1.9131 Z0.934
X1.9181 Z0.9338
X1.923 Z0.9337
X1.9279 Z0.9335
X1.9328 Z0.9334
X1.9378 Z0.9332
X1.9427 Z0.9331
X1.9476 Z0.9329
X1.9525 Z0.9328
X1.9575 Z0.9326
X1.9624 Z0.9325
X1.9673 Z0.9323
X1.9722 Z0.9322
X1.9772 Z0.932
X1.9821 Z0.9318
X1.987 Z0.9317
X1.9919 Z0.9315
X1.9969 Z0.9313
X2.0018 Z0.9312
X2.0067 Z0.931
X2.0116 Z0.9308
X2.0412 Z0.9298
X2.4348 Z0.9161
X2.4349
X2.4351 Y0.2104
Y0.24 Z0.915
Y0.4862 Z0.9064
Y0.4912 Z0.9063
Y0.4961 Z0.9061
Y0.501 Z0.9059
Y0.5059 Z0.9057
Y0.5109 Z0.9056
Y0.5158 Z0.9054
Y0.5207 Z0.9053
Y0.5256 Z0.9051
Y0.5306 Z0.9049
Y0.5355 Z0.9048
Y0.5404 Z0.9046
Y0.5453 Z0.9045
Y0.5503 Z0.9043
Y0.5552 Z0.9042
Y0.5601 Z0.904
Y0.565 Z0.9039
Y0.57 Z0.9037
Y0.5749 Z0.9036
Y0.5798 Z0.9034
Y0.5847 Z0.9033
Y0.5897 Z0.9031
Y0.5946 Z0.903
Y0.5995 Z0.9029
Y0.6044 Z0.9027
Y0.6094 Z0.9026
Y0.6143 Z0.9025
Y0.6192 Z0.9024
Y0.6241 Z0.9022
Y0.6291 Z0.9021
Y0.634 Z0.902
Y0.6389 Z0.9019
Y0.6438 Z0.9017
Y0.6488 Z0.9016
Y0.6537 Z0.9015
Y0.6586 Z0.9014
Y0.6635 Z0.9013
Y0.6685 Z0.9012
Y0.6734 Z0.9011
Y0.6783 Z0.901
Y0.6832 Z0.9009
Y0.6882 Z0.9008
Y0.6931 Z0.9007
Y0.698 Z0.9006
Y0.7029 Z0.9005
Y0.7079 Z0.9004
Y0.7128 Z0.9003
Y0.7177 Z0.9002
Y0.7226 Z0.9001
Y0.7275
Y0.7325 Z0.9
Y0.7374 Z0.8999
Y0.7423 Z0.8998
Y0.7472
Y0.7522 Z0.8997
Y0.7571 Z0.8996
Y0.762
Y0.7669 Z0.8995
Y0.7719
Y0.7768 Z0.8994
Y0.7817
Y0.7866 Z0.8993
Y0.7916
Y0.7965 Z0.8992
Y0.8014
Y0.8063 Z0.8991
Y0.8113
Y0.8162
Y0.8211 Z0.899
Y0.826
Y0.831
Y0.8359
Y0.8408 Z0.8989
Y0.8457
Y0.8507
Y0.8556
Y0.8605
Y0.8667
Y0.868
Y2.4557
X2.435
X0.1716
X0.1715
Y0.2104
X0.1716 Y0.2103
X2.435
X2.4351 Y0.2104
Y0.868
Y0.8704
Y0.8729
Y0.8778
Y0.8827
Y0.8877
Y0.8926
Y0.8975 Z0.8988
Y0.9024
Y0.9074
Y0.9123
Y0.9172
Y0.9221 Z0.8987
Y0.9271
Y0.932 Z0.8986
Y0.9369
Y0.9418
Y0.9468 Z0.8985
Y0.9517
Y0.9566 Z0.8984
Y0.9615
Y0.9665 Z0.8983
Y0.9714
Y0.9763 Z0.8982
Y0.9812 Z0.8981
Y0.9862
Y0.9911 Z0.898
Y0.996 Z0.8979
Y1.0009
Y1.0059 Z0.8978
Y1.0108 Z0.8977
Y1.0157 Z0.8976
Y1.0206 Z0.8975
Y1.0256 Z0.8974
Y1.0305
Y1.0354 Z0.8973
Y1.0403 Z0.8972
Y1.0453 Z0.8971
Y1.0502 Z0.897
Y1.0551 Z0.8969
Y1.06 Z0.8968
Y1.065 Z0.8967
Y1.0699 Z0.8966
Y1.0748 Z0.8965
Y1.0797 Z0.8963
Y1.0847 Z0.8962
Y1.0896 Z0.8961
Y1.0945 Z0.896
Y1.0994 Z0.8959
Y1.1044 Z0.8958
Y1.1093 Z0.8956
Y1.1142 Z0.8955
Y1.1191 Z0.8954
Y1.1241 Z0.8953
Y1.129 Z0.8951
Y1.1339 Z0.895
Y1.1388 Z0.8949
Y1.1438 Z0.8947
Y1.1487 Z0.8946
Y1.1536 Z0.8944
Y1.1585 Z0.8943
Y1.1635 Z0.8942
Y1.1684 Z0.894
Y1.1733 Z0.8939
Y1.1782 Z0.8937
Y1.1831 Z0.8936
Y1.1881 Z0.8934
Y1.193 Z0.8933
Y1.1979 Z0.8931
Y1.2028 Z0.8929
Y1.2078 Z0.8928
Y1.2127 Z0.8926
Y1.2176 Z0.8925
Y1.2225 Z0.8923
Y1.2275 Z0.8921
Y1.2324 Z0.892
Y1.2373 Z0.8918
Y1.2422 Z0.8916
Y1.2472 Z0.8915
Y1.2767 Z0.8904
Y1.9465 Z0.8671
Y1.9514 Z0.8669
Y1.9563 Z0.8667
Y1.9613 Z0.8665
Y1.9662 Z0.8664
Y1.9711 Z0.8662
Y1.976 Z0.866
Y1.981 Z0.8659
Y1.9859 Z0.8657
Y1.9908 Z0.8656
Y1.9957 Z0.8654
Y2.0007 Z0.8652
Y2.0056 Z0.8651
Y2.0105 Z0.8649
Y2.0154 Z0.8648
Y2.0204 Z0.8646
Y2.0253 Z0.8645
Y2.0302 Z0.8643
Y2.0351 Z0.8642
Y2.0401 Z0.8641
Y2.045 Z0.8639
Y2.0499 Z0.8638
Y2.0548 Z0.8636
Y2.0598 Z0.8635
Y2.0647 Z0.8634
Y2.0696 Z0.8632
Y2.0745 Z0.8631
Y2.0795 Z0.863
Y2.0844 Z0.8629
Y2.0893 Z0.8627
Y2.0942 Z0.8626
Y2.0992 Z0.8625
Y2.1041 Z0.8624
Y2.109 Z0.8623
Y2.1139 Z0.8621
Y2.1189 Z0.862
Y2.1238 Z0.8619
Y2.1287 Z0.8618
Y2.1336 Z0.8617
Y2.1386 Z0.8616
Y2.1435 Z0.8615
Y2.1484 Z0.8614
Y2.1533 Z0.8613
Y2.1583 Z0.8612
Y2.1632 Z0.8611
Y2.1681 Z0.861
Y2.173 Z0.8609
Y2.178
Y2.1829 Z0.8608
Y2.1878 Z0.8607
Y2.1927 Z0.8606
Y2.1977 Z0.8605
Y2.2026
Y2.2075 Z0.8604
Y2.2124 Z0.8603
Y2.2174
Y2.2223 Z0.8602
Y2.2272 Z0.8601
Y2.2321
Y2.2371 Z0.86
Y2.242
Y2.2469 Z0.8599
Y2.2518
Y2.2568 Z0.8598
Y2.2617
Y2.2666
Y2.2715 Z0.8597
Y2.2765
Y2.2814
Y2.2863 Z0.8596
Y2.2912
Y2.2962
Y2.3011
Y2.306
Y2.3109
Y2.3159 Z0.8595
Y2.3208
Y2.3269
Y2.3281
Y2.4557
X2.435
X0.1716
X0.1715
Y0.2104
X0.1716 Y0.2103
X2.435
X2.4351 Y0.2104
Y2.3281
Y2.3306
Y2.3331
Y2.338
Y2.3429
Y2.3478
Y2.3527
Y2.3577
Y2.3626
Y2.3675 Z0.8594
Y2.3724
Y2.3774
Y2.3823
Y2.3872 Z0.8593
Y2.3921
Y2.3971 Z0.8592
Y2.402
Y2.4069
Y2.4118 Z0.8591
Y2.4168
Y2.4217 Z0.859
Y2.4266 Z0.8589
Y2.4315
Y2.4365 Z0.8588
Y2.4414
Y2.4463 Z0.8587
Y2.4512 Z0.8586
Y2.4547
Y2.4553
Y2.4556
X2.435 Y2.4557
X2.4346
X2.4297 Z0.8585
X2.4248 Z0.8584
X2.4198 Z0.8583
X2.4149 Z0.8582
X2.41
X2.4051 Z0.8581
X2.4001 Z0.858
X2.3952 Z0.8579
X2.3903 Z0.8578
X2.3854 Z0.8577
X2.3804 Z0.8576
X2.3755 Z0.8575
X2.3706 Z0.8574
X2.3657 Z0.8573
X2.3607 Z0.8572
X2.3558 Z0.8571
X2.3509 Z0.857
X2.346 Z0.8569
X2.341 Z0.8568
X2.3361 Z0.8566
X2.3312 Z0.8565
X2.3263 Z0.8564
X2.3213 Z0.8563
X2.3164 Z0.8561
X2.3115 Z0.856
X2.3066 Z0.8559
X2.3016 Z0.8558
X2.2967 Z0.8556
X2.2918 Z0.8555
X2.2869 Z0.8554
X2.2819 Z0.8552
X2.277 Z0.8551
X2.2721 Z0.8549
X2.2672 Z0.8548
X2.2622 Z0.8546
X2.2573 Z0.8545
X2.2524 Z0.8543
X2.2475 Z0.8542
X2.2425 Z0.854
X2.2376 Z0.8539
X2.2327 Z0.8537
X2.2278 Z0.8536
X2.2228 Z0.8534
X2.2179 Z0.8533
X2.213 Z0.8531
X2.2081 Z0.8529
X2.2031 Z0.8528
X2.1982 Z0.8526
X2.1933 Z0.8524
X2.1884 Z0.8523
X2.1834 Z0.8521
X2.1539 Z0.8511
X1.4841 Z0.8277
X1.4792 Z0.8275
X1.4743 Z0.8273
X1.4694 Z0.8272
X1.4644 Z0.827
X1.4595 Z0.8268
X1.4546 Z0.8267
X1.4497 Z0.8265
X1.4447 Z0.8264
X1.4398 Z0.8262
X1.4349 Z0.826
X1.43 Z0.8259
X1.425 Z0.8257
X1.4201 Z0.8256
X1.4152 Z0.8254
X1.4103 Z0.8253
X1.4053 Z0.8251
X1.4004 Z0.825
X1.3955 Z0.8248
X1.3906 Z0.8247
X1.3856 Z0.8245
X1.3807 Z0.8244
X1.3758 Z0.8243
X1.3709 Z0.8241
X1.3659 Z0.824
X1.361 Z0.8239
X1.3561 Z0.8237
X1.3512 Z0.8236
X1.3462 Z0.8235
X1.3413 Z0.8234
X1.3364 Z0.8232
X1.3315 Z0.8231
X1.3265 Z0.823
X1.3216 Z0.8229
X1.3167 Z0.8228
X1.3118 Z0.8227
X1.3068 Z0.8225
X1.3019 Z0.8224
X1.297 Z0.8223
X1.2921 Z0.8222
X1.2871 Z0.8221
X1.2822 Z0.822
X1.2773 Z0.8219
X1.2724 Z0.8218
X1.2674 Z0.8217
X1.2625
X1.2576 Z0.8216
X1.2527 Z0.8215
X1.2477 Z0.8214
X1.2428 Z0.8213
X1.2379 Z0.8212
X1.233
X1.228 Z0.8211
X1.2231 Z0.821
X1.2182
X1.2133 Z0.8209
X1.2083 Z0.8208
X1.2034
X1.1985 Z0.8207
X1.1936
X1.1886 Z0.8206
X1.1837
X1.1788 Z0.8205
X1.1739
X1.1689 Z0.8204
X1.164
X1.1591
X1.1542 Z0.8203
X1.1492
X1.1443
X1.1394 Z0.8202
X1.1345
X1.1295
X1.1246
X1.1197
X1.1148
X1.1098
X1.1037
X1.1025
X0.1716
X0.1715
Y0.2104
X0.1716 Y0.2103
X2.435
X2.4351 Y0.2104
Y2.3281
Y2.4557
X2.435
X1.1025
X1.1
X1.0976
X1.0926
X1.0877 Z0.8201
X1.0828
X1.0779
X1.0729
X1.068
X1.0631
X1.0582 Z0.82
X1.0532
X1.0483
X1.0434 Z0.8199
X1.0385
X1.0335
X1.0286 Z0.8198
X1.0237
X1.0188 Z0.8197
X1.0138
X1.0089 Z0.8196
X1.004
X0.9991 Z0.8195
X0.9941
X0.9892 Z0.8194
X0.9843 Z0.8193
X0.9794
X0.9744 Z0.8192
X0.9695 Z0.8191
X0.9646 Z0.819
X0.9597
X0.9547 Z0.8189
X0.9498 Z0.8188
X0.9449 Z0.8187
X0.94 Z0.8186
X0.935 Z0.8185
X0.9301 Z0.8184
X0.9252 Z0.8183
X0.9203 Z0.8182
X0.9153 Z0.8181
X0.9104 Z0.818
X0.9055 Z0.8179
X0.9006 Z0.8178
X0.8956 Z0.8177
X0.8907 Z0.8176
X0.8858 Z0.8175
X0.8809 Z0.8174
X0.876 Z0.8173
X0.871 Z0.8171
X0.8661 Z0.817
X0.8612 Z0.8169
X0.8563 Z0.8168
X0.8513 Z0.8166
X0.8464 Z0.8165
X0.8415 Z0.8164
X0.8366 Z0.8163
X0.8316 Z0.8161
X0.8267 Z0.816
X0.8218 Z0.8158
X0.8169 Z0.8157
X0.8119 Z0.8156
X0.807 Z0.8154
X0.8021 Z0.8153
X0.7972 Z0.8151
X0.7922 Z0.815
X0.7873 Z0.8148
X0.7824 Z0.8147
X0.7775 Z0.8145
X0.7725 Z0.8144
X0.7676 Z0.8142
X0.7627 Z0.814
X0.7578 Z0.8139
X0.7528 Z0.8137
X0.7479 Z0.8136
X0.743 Z0.8134
X0.7381 Z0.8132
X0.7331 Z0.8131
X0.7282 Z0.8129
X0.7233 Z0.8127
X0.6937 Z0.8117
X0.1717 Z0.7935
X0.1715
Y2.4555
Y2.4552 Z0.7934
Y2.4533
Y2.4411 Z0.793
Y2.3081 Z0.7883
Y2.3032 Z0.7881
Y2.2983 Z0.788
Y2.2933 Z0.7878
Y2.2884 Z0.7876
Y2.2835 Z0.7875
Y2.2786 Z0.7873
Y2.2736 Z0.7871
Y2.2687 Z0.787
Y2.2638 Z0.7868
Y2.2589 Z0.7867
Y2.254 Z0.7865
Y2.249 Z0.7864
Y2.2441 Z0.7862
Y2.2392 Z0.7861
Y2.2343 Z0.7859
Y2.2293 Z0.7858
Y2.2244 Z0.7856
Y2.2195 Z0.7855
Y2.2146 Z0.7853
Y2.2096 Z0.7852
Y2.2047 Z0.785
Y2.1998 Z0.7849
Y2.1949 Z0.7848
Y2.1899 Z0.7846
Y2.185 Z0.7845
Y2.1801 Z0.7844
Y2.1752 Z0.7842
Y2.1702 Z0.7841
Y2.1653 Z0.784
Y2.1604 Z0.7839
Y2.1555 Z0.7837
Y2.1505 Z0.7836
Y2.1456 Z0.7835
Y2.1407 Z0.7834
Y2.1358 Z0.7833
Y2.1308 Z0.7832
Y2.1259 Z0.7831
Y2.121 Z0.783
Y2.1161 Z0.7829
Y2.1111 Z0.7828
Y2.1062 Z0.7827
Y2.1013 Z0.7826
Y2.0964 Z0.7825
Y2.0914 Z0.7824
Y2.0865 Z0.7823
Y2.0816 Z0.7822
Y2.0767 Z0.7821
Y2.0717 Z0.782
Y2.0668
Y2.0619 Z0.7819
Y2.057 Z0.7818
Y2.052 Z0.7817
Y2.0471
Y2.0422 Z0.7816
Y2.0373 Z0.7815
Y2.0323
Y2.0274 Z0.7814
Y2.0225
Y2.0176 Z0.7813
Y2.0126 Z0.7812
Y2.0077
Y2.0028 Z0.7811
Y1.9979
Y1.9929
Y1.988 Z0.781
Y1.9831
Y1.9782
Y1.9732 Z0.7809
Y1.9683
Y1.9634
Y1.9585
Y1.9535 Z0.7808
Y1.9486
Y1.9437
Y1.9388
Y1.9338
Y1.9276
Y1.9264
Y0.2104
X0.1716 Y0.2103
X2.435
X2.4351 Y0.2104
Y2.4557
X2.435
X1.1025
X0.1716
X0.1715
Y1.9264
Y1.9239
Y1.9214
Y1.9165
Y1.9116
Y1.9067
Y1.9017
Y1.8968 Z0.7807
Y1.8919
Y1.887
Y1.882
Y1.8771 Z0.7806
Y1.8722
Y1.8673
Y1.8623 Z0.7805
Y1.8574
Y1.8525
Y1.8476 Z0.7804
Y1.8426
Y1.8377 Z0.7803
Y1.8328
Y1.8279 Z0.7802
Y1.8229 Z0.7801
Y1.818
Y1.8131 Z0.78
Y1.8082
Y1.8032 Z0.7799
Y1.7983 Z0.7798
Y1.7934 Z0.7797
Y1.7885
Y1.7836 Z0.7796
Y1.7786 Z0.7795
Y1.7737 Z0.7794
Y1.7688 Z0.7793
Y1.7639 Z0.7792
Y1.7589
Y1.754 Z0.7791
Y1.7491 Z0.779
Y1.7442 Z0.7789
Y1.7392 Z0.7788
Y1.7343 Z0.7787
Y1.7294 Z0.7786
Y1.7245 Z0.7785
Y1.7195 Z0.7784
Y1.7146 Z0.7782
Y1.7097 Z0.7781
Y1.7048 Z0.778
Y1.6998 Z0.7779
Y1.6949 Z0.7778
Y1.69 Z0.7777
Y1.6851 Z0.7775
Y1.6801 Z0.7774
Y1.6752 Z0.7773
Y1.6703 Z0.7771
Y1.6654 Z0.777
Y1.6604 Z0.7769
Y1.6555 Z0.7768
Y1.6506 Z0.7766
Y1.6457 Z0.7765
Y1.6407 Z0.7763
Y1.6358 Z0.7762
Y1.6309 Z0.776
Y1.626 Z0.7759
Y1.621 Z0.7758
Y1.6161 Z0.7756
Y1.6112 Z0.7755
Y1.6063 Z0.7753
Y1.6013 Z0.7752
Y1.5964 Z0.775
Y1.5915 Z0.7748
Y1.5866 Z0.7747
Y1.5816 Z0.7745
Y1.5767 Z0.7744
Y1.5718 Z0.7742
Y1.5669 Z0.774
Y1.5619 Z0.7739
Y1.557 Z0.7737
Y1.5521 Z0.7735
Y1.5472 Z0.7734
Y1.5176 Z0.7723
Y0.8478 Z0.7489
Y0.8429 Z0.7488
Y0.838 Z0.7486
Y0.8331 Z0.7484
Y0.8281 Z0.7483
Y0.8232 Z0.7481
Y0.8183 Z0.7479
Y0.8134 Z0.7478
Y0.8084 Z0.7476
Y0.8035 Z0.7475
Y0.7986 Z0.7473
Y0.7937 Z0.7471
Y0.7887 Z0.747
Y0.7838 Z0.7468
Y0.7789 Z0.7467
Y0.774 Z0.7465
Y0.769 Z0.7464
Y0.7641 Z0.7462
Y0.7592 Z0.7461
Y0.7543 Z0.7459
Y0.7493 Z0.7458
Y0.7444 Z0.7457
Y0.7395 Z0.7455
Y0.7346 Z0.7454
Y0.7296 Z0.7453
Y0.7247 Z0.7451
Y0.7198 Z0.745
Y0.7149 Z0.7449
Y0.7099 Z0.7447
Y0.705 Z0.7446
Y0.7001 Z0.7445
Y0.6952 Z0.7444
Y0.6902 Z0.7443
Y0.6853 Z0.7441
Y0.6804 Z0.744
Y0.6755 Z0.7439
Y0.6705 Z0.7438
Y0.6656 Z0.7437
Y0.6607 Z0.7436
Y0.6558 Z0.7435
Y0.6508 Z0.7434
Y0.6459 Z0.7433
Y0.641 Z0.7432
Y0.6361 Z0.7431
Y0.6311 Z0.743
Y0.6262 Z0.7429
Y0.6213 Z0.7428
Y0.6164 Z0.7427
Y0.6114
Y0.6065 Z0.7426
Y0.6016 Z0.7425
Y0.5967 Z0.7424
Y0.5918
Y0.5868 Z0.7423
Y0.5819 Z0.7422
Y0.577
Y0.5721 Z0.7421
Y0.5671 Z0.742
Y0.5622
Y0.5573 Z0.7419
Y0.5524
Y0.5474 Z0.7418
Y0.5425
Y0.5376 Z0.7417
Y0.5327
Y0.5277
Y0.5228 Z0.7416
Y0.5179
Y0.513
Y0.508 Z0.7415
Y0.5031
Y0.4982
Y0.4933
Y0.4883
Y0.4834 Z0.7414
Y0.4785
Y0.4736
Y0.4674
Y0.4662
Y0.2104
X0.1716 Y0.2103
X2.435
X2.4351 Y0.2104
Y2.4557
X2.435
X0.1716
X0.1715
Y0.4662
Y0.4637
Y0.4613
Y0.4564
Y0.4514
Y0.4465
Y0.4416
Y0.4367
Y0.4317 Z0.7413
Y0.4268
Y0.4219
Y0.417
Y0.412 Z0.7412
Y0.4071
Y0.4022
Y0.3973 Z0.7411
Y0.3923
Y0.3874 Z0.741
Y0.3825
Y0.3776 Z0.7409
Y0.3726
Y0.3677 Z0.7408
Y0.3628
Y0.3579 Z0.7407
Y0.3529
Y0.348 Z0.7406
Y0.3431 Z0.7405
Y0.3382 Z0.7404
Y0.3332
Y0.3283 Z0.7403
Y0.3234 Z0.7402
Y0.3185 Z0.7401
Y0.3135
Y0.3086 Z0.74
Y0.3037 Z0.7399
Y0.2988 Z0.7398
Y0.2938 Z0.7397
Y0.2889 Z0.7396
Y0.284 Z0.7395
Y0.2791 Z0.7394
Y0.2741 Z0.7393
Y0.2692 Z0.7392
Y0.2643 Z0.7391
Y0.2594 Z0.739
Y0.2544 Z0.7389
Y0.2495 Z0.7388
Y0.2446 Z0.7386
Y0.2397 Z0.7385
Y0.2347 Z0.7384
Y0.2298 Z0.7383
Y0.2249 Z0.7382
Y0.22 Z0.738
Y0.215 Z0.7379
Y0.2109 Z0.7378
Y0.2105
Y0.2104
X0.1716 Y0.2103
X0.1718
X0.1767 Z0.7376
X0.1816 Z0.7375
X0.1866 Z0.7374
X0.1915 Z0.7372
X0.1964 Z0.7371
X0.2013 Z0.737
X0.2063 Z0.7368
X0.2112 Z0.7367
X0.2161 Z0.7365
X0.221 Z0.7364
X0.226 Z0.7362
X0.2309 Z0.7361
X0.2358 Z0.7359
X0.2407 Z0.7358
X0.2457 Z0.7356
X0.2506 Z0.7355
X0.2555 Z0.7353
X0.2604 Z0.7351
X0.2654 Z0.735
X0.2703 Z0.7348
X0.2752 Z0.7347
X0.2801 Z0.7345
X0.2851 Z0.7343
X0.29 Z0.7342
X0.2949 Z0.734
X0.3245 Z0.733
X0.9942 Z0.7096
X0.9992 Z0.7094
X1.0041 Z0.7092
X1.009 Z0.7091
X1.0139 Z0.7089
X1.0189 Z0.7087
X1.0238 Z0.7086
X1.0287 Z0.7084
X1.0336 Z0.7082
X1.0386 Z0.7081
X1.0435 Z0.7079
X1.0484 Z0.7078
X1.0533 Z0.7076
X1.0583 Z0.7075
X1.0632 Z0.7073
X1.0681 Z0.7072
X1.073 Z0.707
X1.078 Z0.7069
X1.0829 Z0.7067
X1.0878 Z0.7066
X1.0927 Z0.7064
X1.0977 Z0.7063
X1.1026 Z0.7062
X1.1075 Z0.706
X1.1124 Z0.7059
X1.1174 Z0.7058
X1.1223 Z0.7056
X1.1272 Z0.7055
X1.1321 Z0.7054
X1.1371 Z0.7052
X1.142 Z0.7051
X1.1469 Z0.705
X1.1518 Z0.7049
X1.1568 Z0.7048
X1.1617 Z0.7047
X1.1666 Z0.7045
X1.1715 Z0.7044
X1.1765 Z0.7043
X1.1814 Z0.7042
X1.1863 Z0.7041
X1.1912 Z0.704
X1.1962 Z0.7039
X1.2011 Z0.7038
X1.206 Z0.7037
X1.2109 Z0.7036
X1.2158 Z0.7035
X1.2208
X1.2257 Z0.7034
X1.2306 Z0.7033
X1.2355 Z0.7032
X1.2405 Z0.7031
X1.2454
X1.2503 Z0.703
X1.2552 Z0.7029
X1.2602
X1.2651 Z0.7028
X1.27 Z0.7027
X1.2749
X1.2799 Z0.7026
X1.2848
X1.2897 Z0.7025
X1.2946
X1.2996 Z0.7024
X1.3045
X1.3094 Z0.7023
X1.3143
X1.3193 Z0.7022
X1.3242
X1.3291
X1.334
X1.339 Z0.7021
X1.3439
X1.3488
X1.3537
X1.3587
X1.3636
X1.3685
X1.3747
X1.3759
X2.435
X2.4351 Y0.2104
Y2.4557
X2.435
X0.1716
X0.1715
Y0.4662
Y0.2104
X0.1716 Y0.2103
X1.3759
X1.3783
X1.3808 Z0.702
X1.3857
X1.3906
X1.3956
X1.4005
X1.4054
X1.4103
X1.4153
X1.4202 Z0.7019
X1.4251
X1.43
X1.435 Z0.7018
X1.4399
X1.4448
X1.4497 Z0.7017
X1.4547
X1.4596 Z0.7016
X1.4645
X1.4694 Z0.7015
X1.4744
X1.4793 Z0.7014
X1.4842 Z0.7013
X1.4891
X1.4941 Z0.7012
X1.499 Z0.7011
X1.5039
X1.5088 Z0.701
X1.5138 Z0.7009
X1.5187 Z0.7008
X1.5236
X1.5285 Z0.7007
X1.5335 Z0.7006
X1.5384 Z0.7005
X1.5433 Z0.7004
X1.5482 Z0.7003
X1.5532 Z0.7002
X1.5581 Z0.7001
X1.563 Z0.7
X1.5679 Z0.6999
X1.5729 Z0.6998
X1.5778 Z0.6997
X1.5827 Z0.6996
X1.5876 Z0.6995
X1.5926 Z0.6994
X1.5975 Z0.6993
X1.6024 Z0.6992
X1.6073 Z0.699
X1.6123 Z0.6989
X1.6172 Z0.6988
X1.6221 Z0.6987
X1.627 Z0.6985
X1.632 Z0.6984
X1.6369 Z0.6983
X1.6418 Z0.6981
X1.6467 Z0.698
X1.6517 Z0.6979
X1.6566 Z0.6977
X1.6615 Z0.6976
X1.6664 Z0.6975
X1.6714 Z0.6973
X1.6763 Z0.6972
X1.6812 Z0.697
X1.6861 Z0.6969
X1.6911 Z0.6967
X1.696 Z0.6966
X1.7009 Z0.6964
X1.7058 Z0.6963
X1.7108 Z0.6961
X1.7157 Z0.6959
X1.7206 Z0.6958
X1.7255 Z0.6956
X1.7305 Z0.6955
X1.7354 Z0.6953
X1.7403 Z0.6951
X1.7452 Z0.695
X1.7502 Z0.6948
X1.7551 Z0.6946
X1.7846 Z0.6936
X2.4347 Z0.6709
X2.435
X2.4351 Y0.2104
Y0.2108
Y0.2114 Z0.6708
Y0.2126
Y0.2149 Z0.6707
Y0.2297 Z0.6702
Y0.2346 Z0.67
Y0.2395 Z0.6699
Y0.2445 Z0.6697
Y0.2494 Z0.6695
Y0.2543 Z0.6694
Y0.2592 Z0.6692
Y0.2642 Z0.669
Y0.2691 Z0.6689
Y0.274 Z0.6687
Y0.2789 Z0.6686
Y0.2839 Z0.6684
Y0.2888 Z0.6683
Y0.2937 Z0.6681
Y0.2986 Z0.6679
Y0.3036 Z0.6678
Y0.3085 Z0.6676
Y0.3134 Z0.6675
Y0.3183 Z0.6674
Y0.3233 Z0.6672
Y0.3282 Z0.6671
Y0.3331 Z0.6669
Y0.338 Z0.6668
Y0.343 Z0.6667
Y0.3479 Z0.6665
Y0.3528 Z0.6664
Y0.3577 Z0.6663
Y0.3627 Z0.6661
Y0.3676 Z0.666
Y0.3725 Z0.6659
Y0.3774 Z0.6658
Y0.3824 Z0.6656
Y0.3873 Z0.6655
Y0.3922 Z0.6654
Y0.3971 Z0.6653
Y0.4021 Z0.6652
Y0.407 Z0.6651
Y0.4119 Z0.665
Y0.4168 Z0.6649
Y0.4218 Z0.6648
Y0.4267 Z0.6647
Y0.4316 Z0.6646
Y0.4365 Z0.6645
Y0.4415 Z0.6644
Y0.4464 Z0.6643
Y0.4513 Z0.6642
Y0.4562 Z0.6641
Y0.4612 Z0.664
Y0.4661 Z0.6639
Y0.471
Y0.4759 Z0.6638
Y0.4808 Z0.6637
Y0.4858 Z0.6636
Y0.4907
Y0.4956 Z0.6635
Y0.5005 Z0.6634
Y0.5055
Y0.5104 Z0.6633
Y0.5153 Z0.6632
Y0.5202
Y0.5252 Z0.6631
Y0.5301
Y0.535 Z0.663
Y0.5399
Y0.5449
Y0.5498 Z0.6629
Y0.5547
Y0.5596 Z0.6628
Y0.5646
Y0.5695
Y0.5744
Y0.5793 Z0.6627
Y0.5843
Y0.5892
Y0.5941
Y0.599
Y0.604
Y0.6103
Y0.6116
Y2.4557
X2.435
X0.1716
X0.1715
Y0.2104
X0.1716 Y0.2103
X2.435
X2.4351 Y0.2104
Y0.6116
Y0.6141
Y0.6166
Y0.6215
Y0.6264
Y0.6313
Y0.6363 Z0.6626
Y0.6412
Y0.6461
Y0.651
Y0.656
Y0.6609 Z0.6625
Y0.6658
Y0.6707
Y0.6757 Z0.6624
Y0.6806
Y0.6855 Z0.6623
Y0.6904
Y0.6954
Y0.7003 Z0.6622
Y0.7052
Y0.7101 Z0.6621
Y0.7151 Z0.662
Y0.72
Y0.7249 Z0.6619
Y0.7298 Z0.6618
Y0.7348
Y0.7397 Z0.6617
Y0.7446 Z0.6616
Y0.7495
Y0.7545 Z0.6615
Y0.7594 Z0.6614
Y0.7643 Z0.6613
Y0.7692 Z0.6612
Y0.7742 Z0.6611
Y0.7791 Z0.661
Y0.784
Y0.7889 Z0.6609
Y0.7939 Z0.6608
Y0.7988 Z0.6607
Y0.8037 Z0.6606
Y0.8086 Z0.6605
Y0.8136 Z0.6603
Y0.8185 Z0.6602
Y0.8234 Z0.6601
Y0.8283 Z0.66
Y0.8333 Z0.6599
Y0.8382 Z0.6598
Y0.8431 Z0.6597
Y0.848 Z0.6595
Y0.853 Z0.6594
Y0.8579 Z0.6593
Y0.8628 Z0.6592
Y0.8677 Z0.659
Y0.8727 Z0.6589
Y0.8776 Z0.6588
Y0.8825 Z0.6586
Y0.8874 Z0.6585
Y0.8924 Z0.6584
Y0.8973 Z0.6582
Y0.9022 Z0.6581
Y0.9071 Z0.6579
Y0.9121 Z0.6578
Y0.917 Z0.6576
Y0.9219 Z0.6575
Y0.9268 Z0.6573
Y0.9318 Z0.6572
Y0.9367 Z0.657
Y0.9416 Z0.6569
Y0.9465 Z0.6567
Y0.9515 Z0.6566
Y0.9564 Z0.6564
Y0.9613 Z0.6562
Y0.9662 Z0.6561
Y0.9712 Z0.6559
Y0.9761 Z0.6558
Y0.981 Z0.6556
Y0.9859 Z0.6554
Y0.9909 Z0.6552
Y1.0204 Z0.6542
Y1.6902 Z0.6308
Y1.6951 Z0.6307
Y1.7 Z0.6305
Y1.7049 Z0.6303
Y1.7099 Z0.6302
Y1.7148 Z0.63
Y1.7197 Z0.6298
Y1.7246 Z0.6297
Y1.7296 Z0.6295
Y1.7345 Z0.6293
Y1.7394 Z0.6292
Y1.7443 Z0.629
Y1.7493 Z0.6289
Y1.7542 Z0.6287
Y1.7591 Z0.6286
Y1.764 Z0.6284
Y1.769 Z0.6283
Y1.7739 Z0.6281
Y1.7788 Z0.628
Y1.7837 Z0.6278
Y1.7887 Z0.6277
Y1.7936 Z0.6276
Y1.7985 Z0.6274
Y1.8034 Z0.6273
Y1.8084 Z0.6271
Y1.8133 Z0.627
Y1.8182 Z0.6269
Y1.8231 Z0.6268
Y1.8281 Z0.6266
Y1.833 Z0.6265
Y1.8379 Z0.6264
Y1.8428 Z0.6263
Y1.8478 Z0.6261
Y1.8527 Z0.626
Y1.8576 Z0.6259
Y1.8625 Z0.6258
Y1.8675 Z0.6257
Y1.8724 Z0.6256
Y1.8773 Z0.6255
Y1.8822 Z0.6254
Y1.8872 Z0.6253
Y1.8921 Z0.6252
Y1.897 Z0.6251
Y1.9019 Z0.625
Y1.9069 Z0.6249
Y1.9118 Z0.6248
Y1.9167 Z0.6247
Y1.9216 Z0.6246
Y1.9266
Y1.9315 Z0.6245
Y1.9364 Z0.6244
Y1.9413 Z0.6243
Y1.9463 Z0.6242
Y1.9512
Y1.9561 Z0.6241
Y1.961 Z0.624
Y1.966
Y1.9709 Z0.6239
Y1.9758
Y1.9807 Z0.6238
Y1.9857
Y1.9906 Z0.6237
Y1.9955
Y2.0004 Z0.6236
Y2.0054
Y2.0103 Z0.6235
Y2.0152
Y2.0201
Y2.0251 Z0.6234
Y2.03
Y2.0349
Y2.0398
Y2.0448
Y2.0497 Z0.6233
Y2.0546
Y2.0595
Y2.0645
Y2.0706
Y2.0718
Y2.4557
X2.435
X0.1716
X0.1715
Y0.2104
X0.1716 Y0.2103
X2.435
X2.4351 Y0.2104
Y2.0718
Y2.0743
Y2.0767
Y2.0817
Y2.0866
Y2.0915
Y2.0964
Y2.1014
Y2.1063 Z0.6232
Y2.1112
Y2.1161
Y2.1211
Y2.126 Z0.6231
Y2.1309
Y2.1358
Y2.1408 Z0.623
Y2.1457
Y2.1506 Z0.6229
Y2.1555
Y2.1605 Z0.6228
Y2.1654
Y2.1703 Z0.6227
Y2.1752
Y2.1802 Z0.6226
Y2.1851 Z0.6225
Y2.19
Y2.1949 Z0.6224
Y2.1998 Z0.6223
Y2.2048
Y2.2097 Z0.6222
Y2.2146 Z0.6221
Y2.2195 Z0.622
Y2.2245 Z0.6219
Y2.2294
Y2.2343 Z0.6218
Y2.2392 Z0.6217
Y2.2442 Z0.6216
Y2.2491 Z0.6215
Y2.254 Z0.6214
Y2.2589 Z0.6213
Y2.2639 Z0.6212
Y2.2688 Z0.6211
Y2.2737 Z0.621
Y2.2786 Z0.6209
Y2.2836 Z0.6208
Y2.2885 Z0.6206
Y2.2934 Z0.6205
Y2.2983 Z0.6204
Y2.3033 Z0.6203
Y2.3082 Z0.6202
Y2.3131 Z0.6201
Y2.318 Z0.6199
Y2.323 Z0.6198
Y2.3279 Z0.6197
Y2.3328 Z0.6195
Y2.3377 Z0.6194
Y2.3427 Z0.6193
Y2.3476 Z0.6191
Y2.3525 Z0.619
Y2.3574 Z0.6189
Y2.3624 Z0.6187
Y2.3673 Z0.6186
Y2.3722 Z0.6184
Y2.3771 Z0.6183
Y2.3821 Z0.6181
Y2.387 Z0.618
Y2.3919 Z0.6178
Y2.3968 Z0.6177
Y2.4018 Z0.6175
Y2.4067 Z0.6174
Y2.4116 Z0.6172
Y2.4165 Z0.617
Y2.4215 Z0.6169
Y2.4264 Z0.6167
Y2.4313 Z0.6165
Y2.4362 Z0.6164
Y2.4412 Z0.6162
Y2.4461 Z0.616
Y2.4534 Z0.6158
Y2.4552 Z0.6157
Y2.4555
Y2.4557
X2.435
X2.4348
X1.7404 Z0.5915
X1.7355 Z0.5913
X1.7306 Z0.5911
X1.7257 Z0.591
X1.7207 Z0.5908
X1.7158 Z0.5906
X1.7109 Z0.5905
X1.706 Z0.5903
X1.701 Z0.5901
X1.6961 Z0.59
X1.6912 Z0.5898
X1.6863 Z0.5897
X1.6813 Z0.5895
X1.6764 Z0.5894
X1.6715 Z0.5892
X1.6666 Z0.5891
X1.6616 Z0.5889
X1.6567 Z0.5888
X1.6518 Z0.5886
X1.6469 Z0.5885
X1.6419 Z0.5883
X1.637 Z0.5882
X1.6321 Z0.5881
X1.6272 Z0.5879
X1.6223 Z0.5878
X1.6173 Z0.5877
X1.6124 Z0.5875
X1.6075 Z0.5874
X1.6026 Z0.5873
X1.5976 Z0.5871
X1.5927 Z0.587
X1.5878 Z0.5869
X1.5829 Z0.5868
X1.5779 Z0.5867
X1.573 Z0.5866
X1.5681 Z0.5864
X1.5632 Z0.5863
X1.5582 Z0.5862
X1.5533 Z0.5861
X1.5484 Z0.586
X1.5435 Z0.5859
X1.5385 Z0.5858
X1.5336 Z0.5857
X1.5287 Z0.5856
X1.5238 Z0.5855
X1.5188 Z0.5854
X1.5139
X1.509 Z0.5853
X1.5041 Z0.5852
X1.4991 Z0.5851
X1.4942 Z0.585
X1.4893
X1.4844 Z0.5849
X1.4794 Z0.5848
X1.4745 Z0.5847
X1.4696
X1.4647 Z0.5846
X1.4597
X1.4548 Z0.5845
X1.4499 Z0.5844
X1.445
X1.44 Z0.5843
X1.4351
X1.4302
X1.4253 Z0.5842
X1.4203
X1.4154 Z0.5841
X1.4105
X1.4056
X1.4006
X1.3957 Z0.584
X1.3908
X1.3859
X1.3809
X1.376
X1.3711
X1.3662 Z0.5839
X1.3599
X1.3586
X0.1716
X0.1715
Y0.2104
X0.1716 Y0.2103
X2.435
X2.4351 Y0.2104
Y2.0718
Y2.4557
X2.435
X1.3586
X1.3562
X1.3537
X1.3488
X1.3439
X1.3389
X1.334
X1.3291
X1.3242
X1.3192 Z0.5838
X1.3143
X1.3094
X1.3045
X1.2995 Z0.5837
X1.2946
X1.2897 Z0.5836
X1.2848
X1.2798
X1.2749 Z0.5835
X1.27
X1.2651 Z0.5834
X1.2601
X1.2552 Z0.5833
X1.2503 Z0.5832
X1.2454
X1.2404 Z0.5831
X1.2355 Z0.583
X1.2306
X1.2257 Z0.5829
X1.2207 Z0.5828
X1.2158 Z0.5827
X1.2109
X1.206 Z0.5826
X1.201 Z0.5825
X1.1961 Z0.5824
X1.1912 Z0.5823
X1.1863 Z0.5822
X1.1813 Z0.5821
X1.1764 Z0.582
X1.1715 Z0.5819
X1.1666 Z0.5818
X1.1616 Z0.5817
X1.1567 Z0.5816
X1.1518 Z0.5815
X1.1469 Z0.5814
X1.1419 Z0.5813
X1.137 Z0.5812
X1.1321 Z0.581
X1.1272 Z0.5809
X1.1222 Z0.5808
X1.1173 Z0.5807
X1.1124 Z0.5806
X1.1075 Z0.5804
X1.1025 Z0.5803
X1.0976 Z0.5802
X1.0927 Z0.58
X1.0878 Z0.5799
X1.0828 Z0.5798
X1.0779 Z0.5796
X1.073 Z0.5795
X1.0681 Z0.5793
X1.0631 Z0.5792
X1.0582 Z0.5791
X1.0533 Z0.5789
X1.0484 Z0.5788
X1.0434 Z0.5786
X1.0385 Z0.5785
X1.0336 Z0.5783
X1.0287 Z0.5781
X1.0237 Z0.578
X1.0188 Z0.5778
X1.0139 Z0.5777
X1.009 Z0.5775
X1.004 Z0.5773
X0.9991 Z0.5772
X0.9942 Z0.577
X0.9893 Z0.5768
X0.9843 Z0.5767
X0.9794 Z0.5765
X0.9499 Z0.5755
X0.2801 Z0.5521
X0.2752 Z0.5519
X0.2702 Z0.5517
X0.2653 Z0.5516
X0.2604 Z0.5514
X0.2555 Z0.5512
X0.2505 Z0.5511
X0.2456 Z0.5509
X0.2407 Z0.5508
X0.2358 Z0.5506
X0.2308 Z0.5504
X0.2259 Z0.5503
X0.221 Z0.5501
X0.2161 Z0.55
X0.2111 Z0.5498
X0.2062 Z0.5497
X0.2013 Z0.5495
X0.1964 Z0.5494
X0.1914 Z0.5492
X0.1865 Z0.5491
X0.1816 Z0.549
X0.1767 Z0.5488
X0.1718 Z0.5487
X0.1716
X0.1715
Y2.4555
Y2.4552
Y2.4534 Z0.5486
Y2.451 Z0.5485
Y2.4461 Z0.5484
Y2.4411 Z0.5483
Y2.4362 Z0.5481
Y2.4313 Z0.548
Y2.4264 Z0.5479
Y2.4214 Z0.5478
Y2.4165 Z0.5476
Y2.4116 Z0.5475
Y2.4067 Z0.5474
Y2.4017 Z0.5473
Y2.3968 Z0.5472
Y2.3919 Z0.5471
Y2.387 Z0.547
Y2.382 Z0.5468
Y2.3771 Z0.5467
Y2.3722 Z0.5466
Y2.3673 Z0.5465
Y2.3623 Z0.5464
Y2.3574 Z0.5463
Y2.3525
Y2.3476 Z0.5462
Y2.3426 Z0.5461
Y2.3377 Z0.546
Y2.3328 Z0.5459
Y2.3279 Z0.5458
Y2.3229 Z0.5457
Y2.318
Y2.3131 Z0.5456
Y2.3082 Z0.5455
Y2.3032 Z0.5454
Y2.2983
Y2.2934 Z0.5453
Y2.2885 Z0.5452
Y2.2835
Y2.2786 Z0.5451
Y2.2737
Y2.2688 Z0.545
Y2.2638
Y2.2589 Z0.5449
Y2.254
Y2.2491 Z0.5448
Y2.2441
Y2.2392
Y2.2343 Z0.5447
Y2.2294
Y2.2244
Y2.2195
Y2.2146 Z0.5446
Y2.2097
Y2.2047
Y2.1998
Y2.1949
Y2.19
Y2.1838
Y2.1826
Y0.2104
X0.1716 Y0.2103
X2.435
X2.4351 Y0.2104
Y2.4557
X2.435
X0.1716
X0.1715
Y2.1826
Y2.1802
Y2.1777
Y2.1728
Y2.1678
Y2.1629 Z0.5445
Y2.158
Y2.1531
Y2.1482
Y2.1432
Y2.1383 Z0.5444
Y2.1334
Y2.1285
Y2.1235
Y2.1186 Z0.5443
Y2.1137
Y2.1088 Z0.5442
Y2.1038
Y2.0989 Z0.5441
Y2.094
Y2.0891 Z0.544
Y2.0841
Y2.0792 Z0.5439
Y2.0743
Y2.0694 Z0.5438
Y2.0644 Z0.5437
Y2.0595
Y2.0546 Z0.5436
Y2.0497 Z0.5435
Y2.0447 Z0.5434
Y2.0398
Y2.0349 Z0.5433
Y2.03 Z0.5432
Y2.025 Z0.5431
Y2.0201 Z0.543
Y2.0152 Z0.5429
Y2.0103 Z0.5428
Y2.0053 Z0.5427
Y2.0004
Y1.9955 Z0.5426
Y1.9906 Z0.5424
Y1.9856 Z0.5423
Y1.9807 Z0.5422
Y1.9758 Z0.5421
Y1.9709 Z0.542
Y1.9659 Z0.5419
Y1.961 Z0.5418
Y1.9561 Z0.5417
Y1.9512 Z0.5416
Y1.9462 Z0.5414
Y1.9413 Z0.5413
Y1.9364 Z0.5412
Y1.9315 Z0.5411
Y1.9265 Z0.5409
Y1.9216 Z0.5408
Y1.9167 Z0.5407
Y1.9118 Z0.5405
Y1.9068 Z0.5404
Y1.9019 Z0.5403
Y1.897 Z0.5401
Y1.8921 Z0.54
Y1.8871 Z0.5398
Y1.8822 Z0.5397
Y1.8773 Z0.5395
Y1.8724 Z0.5394
Y1.8674 Z0.5392
Y1.8625 Z0.5391
Y1.8576 Z0.5389
Y1.8527 Z0.5388
Y1.8477 Z0.5386
Y1.8428 Z0.5385
Y1.8379 Z0.5383
Y1.833 Z0.5381
Y1.828 Z0.538
Y1.8231 Z0.5378
Y1.8182 Z0.5376
Y1.8133 Z0.5375
Y1.8083 Z0.5373
Y1.8034 Z0.5371
Y1.7739 Z0.5361
Y1.1041 Z0.5127
Y1.0992 Z0.5125
Y1.0942 Z0.5124
Y1.0893 Z0.5122
Y1.0844 Z0.512
Y1.0795 Z0.5119
Y1.0745 Z0.5117
Y1.0696 Z0.5116
Y1.0647 Z0.5114
Y1.0598 Z0.5112
Y1.0548 Z0.5111
Y1.0499 Z0.5109
Y1.045 Z0.5108
Y1.0401 Z0.5106
Y1.0351 Z0.5105
Y1.0302 Z0.5103
Y1.0253 Z0.5102
Y1.0204 Z0.51
Y1.0154 Z0.5099
Y1.0105 Z0.5097
Y1.0056 Z0.5096
Y1.0007 Z0.5094
Y0.9957 Z0.5093
Y0.9908 Z0.5092
Y0.9859 Z0.509
Y0.981 Z0.5089
Y0.976 Z0.5088
Y0.9711 Z0.5086
Y0.9662 Z0.5085
Y0.9613 Z0.5084
Y0.9564 Z0.5083
Y0.9514 Z0.5082
Y0.9465 Z0.508
Y0.9416 Z0.5079
Y0.9367 Z0.5078
Y0.9317 Z0.5077
Y0.9268 Z0.5076
Y0.9219 Z0.5075
Y0.917 Z0.5074
Y0.912 Z0.5073
Y0.9071 Z0.5072
Y0.9022 Z0.5071
Y0.8973 Z0.507
Y0.8923 Z0.5069
Y0.8874 Z0.5068
Y0.8825 Z0.5067
Y0.8776 Z0.5066
Y0.8726 Z0.5065
Y0.8677 Z0.5064
Y0.8628
Y0.8579 Z0.5063
Y0.8529 Z0.5062
Y0.848 Z0.5061
Y0.8431
Y0.8382 Z0.506
Y0.8332 Z0.5059
Y0.8283
Y0.8234 Z0.5058
Y0.8185
Y0.8135 Z0.5057
Y0.8086
Y0.8037 Z0.5056
Y0.7988
Y0.7938 Z0.5055
Y0.7889
Y0.784 Z0.5054
Y0.7791
Y0.7741
Y0.7692 Z0.5053
Y0.7643
Y0.7594
Y0.7544
Y0.7495 Z0.5052
Y0.7446
Y0.7397
Y0.7347
Y0.7298
Y0.7237
Y0.7225
Y0.2104
X0.1716 Y0.2103
X2.435
X2.4351 Y0.2104
Y2.4557
X2.435
X0.1716
X0.1715
Y0.7225
Y0.72
Y0.7175
Y0.7126
Y0.7077
Y0.7028
Y0.6978
Y0.6929 Z0.5051
Y0.688
Y0.6831
Y0.6781
Y0.6732
Y0.6683 Z0.505
Y0.6634
Y0.6584 Z0.5049
Y0.6535
Y0.6486
Y0.6437 Z0.5048
Y0.6387
Y0.6338 Z0.5047
Y0.6289
Y0.624 Z0.5046
Y0.619
Y0.6141 Z0.5045
Y0.6092 Z0.5044
Y0.6043
Y0.5993 Z0.5043
Y0.5944 Z0.5042
Y0.5895
Y0.5846 Z0.5041
Y0.5796 Z0.504
Y0.5747 Z0.5039
Y0.5698 Z0.5038
Y0.5649 Z0.5037
Y0.5599
Y0.555 Z0.5036
Y0.5501 Z0.5035
Y0.5452 Z0.5034
Y0.5402 Z0.5033
Y0.5353 Z0.5032
Y0.5304 Z0.5031
Y0.5255 Z0.503
Y0.5205 Z0.5029
Y0.5156 Z0.5028
Y0.5107 Z0.5026
Y0.5058 Z0.5025
Y0.5008 Z0.5024
Y0.4959 Z0.5023
Y0.491 Z0.5022
Y0.4861 Z0.5021
Y0.4811 Z0.5019
Y0.4762 Z0.5018
Y0.4713 Z0.5017
Y0.4664 Z0.5016
Y0.4614 Z0.5014
Y0.4565 Z0.5013
Y0.4516 Z0.5012
Y0.4467 Z0.501
Y0.4417 Z0.5009
Y0.4368 Z0.5007
Y0.4319 Z0.5006
Y0.427 Z0.5005
Y0.422 Z0.5003
Y0.4171 Z0.5002
Y0.4122 Z0.5
Y0.4073 Z0.4999
Y0.4023 Z0.4997
Y0.3974 Z0.4996
Y0.3925 Z0.4994
Y0.3876 Z0.4992
Y0.3826 Z0.4991
Y0.3777 Z0.4989
Y0.3728 Z0.4988
Y0.3679 Z0.4986
Y0.363 Z0.4984
Y0.358 Z0.4983
Y0.3531 Z0.4981
Y0.3482 Z0.4979
Y0.3433 Z0.4978
Y0.3137 Z0.4967
Y0.2105 Z0.4931
X0.1716 Y0.2103
X0.1815 Z0.4928
X0.5804 Z0.4789
X0.738 Z0.4734
X0.7429 Z0.4732
X0.7478 Z0.473
X0.7528 Z0.4728
X0.7577 Z0.4727
X0.7626 Z0.4725
X0.7675 Z0.4723
X0.7725 Z0.4722
X0.7774 Z0.472
X0.7823 Z0.4719
X0.7872 Z0.4717
X0.7922 Z0.4715
X0.7971 Z0.4714
X0.802 Z0.4712
X0.8069 Z0.4711
X0.8119 Z0.4709
X0.8168 Z0.4708
X0.8217 Z0.4706
X0.8266 Z0.4705
X0.8316 Z0.4704
X0.8365 Z0.4702
X0.8414 Z0.4701
X0.8463 Z0.4699
X0.8512 Z0.4698
X0.8562 Z0.4697
X0.8611 Z0.4695
X0.866 Z0.4694
X0.8709 Z0.4693
X0.8759 Z0.4692
X0.8808 Z0.469
X0.8857 Z0.4689
X0.8906 Z0.4688
X0.8956 Z0.4687
X0.9005 Z0.4686
X0.9054 Z0.4684
X0.9103 Z0.4683
X0.9153 Z0.4682
X0.9202 Z0.4681
X0.9251 Z0.468
X0.93 Z0.4679
X0.935 Z0.4678
X0.9399 Z0.4677
X0.9448 Z0.4676
X0.9497 Z0.4675
X0.9547 Z0.4674
X0.9596 Z0.4673
X0.9645 Z0.4672
X0.9694
X0.9744 Z0.4671
X0.9793 Z0.467
X0.9842 Z0.4669
X0.9891 Z0.4668
X0.9941
X0.999 Z0.4667
X1.0039 Z0.4666
X1.0088
X1.0138 Z0.4665
X1.0187 Z0.4664
X1.0236
X1.0285 Z0.4663
X1.0335
X1.0384 Z0.4662
X1.0433
X1.0482 Z0.4661
X1.0532
X1.0581
X1.063 Z0.466
X1.0679
X1.0729
X1.0778 Z0.4659
X1.0827
X1.0876
X1.0926
X1.0975
X1.1024 Z0.4658
X1.1073
X1.1123
X1.1184
X1.1197
X2.435
X2.4351 Y0.2104
Y2.4557
X2.435
X0.1716
X0.1715
Y0.7225
Y0.2104
X0.1716 Y0.2103
X1.1197
X1.1221
X1.1246
X1.1295
X1.1344
X1.1394
X1.1443
X1.1492
X1.1541
X1.159 Z0.4657
X1.164
X1.1689
X1.1738 Z0.4656
X1.1787
X1.1837
X1.1886 Z0.4655
X1.1935
X1.1984
X1.2034 Z0.4654
X1.2083
X1.2132 Z0.4653
X1.2181 Z0.4652
X1.2231
X1.228 Z0.4651
X1.2329
X1.2378 Z0.465
X1.2428 Z0.4649
X1.2477
X1.2526 Z0.4648
X1.2575 Z0.4647
X1.2625 Z0.4646
X1.2674 Z0.4645
X1.2723
X1.2772 Z0.4644
X1.2822 Z0.4643
X1.2871 Z0.4642
X1.292 Z0.4641
X1.2969 Z0.464
X1.3019 Z0.4639
X1.3068 Z0.4638
X1.3117 Z0.4637
X1.3166 Z0.4636
X1.3216 Z0.4635
X1.3265 Z0.4634
X1.3314 Z0.4633
X1.3363 Z0.4632
X1.3413 Z0.4631
X1.3462 Z0.4629
X1.3511 Z0.4628
X1.356 Z0.4627
X1.361 Z0.4626
X1.3659 Z0.4624
X1.3708 Z0.4623
X1.3757 Z0.4622
X1.3807 Z0.4621
X1.3856 Z0.4619
X1.3905 Z0.4618
X1.3954 Z0.4617
X1.4004 Z0.4615
X1.4053 Z0.4614
X1.4102 Z0.4612
X1.4151 Z0.4611
X1.4201 Z0.4609
X1.425 Z0.4608
X1.4299 Z0.4606
X1.4348 Z0.4605
X1.4398 Z0.4603
X1.4447 Z0.4602
X1.4496 Z0.46
X1.4545 Z0.4599
X1.4595 Z0.4597
X1.4644 Z0.4596
X1.4693 Z0.4594
X1.4742 Z0.4592
X1.4792 Z0.4591
X1.4841 Z0.4589
X1.489 Z0.4587
X1.4939 Z0.4586
X1.4989 Z0.4584
X1.5284 Z0.4574
X2.1982 Z0.434
X2.2031 Z0.4338
X2.208 Z0.4336
X2.213 Z0.4335
X2.2179 Z0.4333
X2.2228 Z0.4331
X2.2277 Z0.433
X2.2327 Z0.4328
X2.2376 Z0.4327
X2.2425 Z0.4325
X2.2474 Z0.4323
X2.2524 Z0.4322
X2.2573 Z0.432
X2.2622 Z0.4319
X2.2671 Z0.4317
X2.2721 Z0.4316
X2.277 Z0.4314
X2.2819 Z0.4313
X2.2868 Z0.4311
X2.2918 Z0.431
X2.2967 Z0.4308
X2.3016 Z0.4307
X2.3065 Z0.4306
X2.3115 Z0.4304
X2.3164 Z0.4303
X2.3213 Z0.4302
X2.3262 Z0.43
X2.3312 Z0.4299
X2.3361 Z0.4298
X2.341 Z0.4297
X2.3459 Z0.4295
X2.3509 Z0.4294
X2.3558 Z0.4293
X2.3607 Z0.4292
X2.3656 Z0.4291
X2.3705 Z0.429
X2.3755 Z0.4288
X2.3804 Z0.4287
X2.3853 Z0.4286
X2.3902 Z0.4285
X2.3952 Z0.4284
X2.4001 Z0.4283
X2.405 Z0.4282
X2.4099 Z0.4281
X2.4149 Z0.428
X2.4198
X2.4247 Z0.4279
X2.4296 Z0.4278
X2.4346 Z0.4277
X2.435
X2.4351 Y0.2104
Y0.2107
Y0.2114
Y0.2148 Z0.4276
Y0.2197 Z0.4275
Y0.2246
Y0.2296 Z0.4274
Y0.2345 Z0.4273
Y0.2394
Y0.2443 Z0.4272
Y0.2493 Z0.4271
Y0.2542
Y0.2591 Z0.427
Y0.264
Y0.269 Z0.4269
Y0.2739
Y0.2788 Z0.4268
Y0.2837
Y0.2887 Z0.4267
Y0.2936
Y0.2985
Y0.3034 Z0.4266
Y0.3084
Y0.3133
Y0.3182 Z0.4265
Y0.3231
Y0.3281
Y0.333
Y0.3379
Y0.3428
Y0.3478
Y0.3539
Y0.3551
Y2.4557
X2.435
X0.1716
X0.1715
Y0.2104
X0.1716 Y0.2103
X2.435
X2.4351 Y0.2104
Y0.3551
Y0.3576
Y0.36
Y0.365
Y0.3699 Z0.4264
Y0.3748
Y0.3797
Y0.3847
Y0.3896
Y0.3945
Y0.3994 Z0.4263
Y0.4044
Y0.4093
Y0.4142 Z0.4262
Y0.4191
Y0.4241
Y0.429 Z0.4261
Y0.4339
Y0.4388 Z0.426
Y0.4437
Y0.4487 Z0.4259
Y0.4536
Y0.4585 Z0.4258
Y0.4634
Y0.4684 Z0.4257
Y0.4733 Z0.4256
Y0.4782
Y0.4831 Z0.4255
Y0.4881 Z0.4254
Y0.493 Z0.4253
Y0.4979
Y0.5028 Z0.4252
Y0.5078 Z0.4251
Y0.5127 Z0.425
Y0.5176 Z0.4249
Y0.5225 Z0.4248
Y0.5275 Z0.4247
Y0.5324 Z0.4246
Y0.5373 Z0.4245
Y0.5422 Z0.4244
Y0.5472 Z0.4243
Y0.5521 Z0.4242
Y0.557 Z0.4241
Y0.5619 Z0.424
Y0.5669 Z0.4239
Y0.5718 Z0.4238
Y0.5767 Z0.4237
Y0.5816 Z0.4236
Y0.5866 Z0.4234
Y0.5915 Z0.4233
Y0.5964 Z0.4232
Y0.6013 Z0.4231
Y0.6063 Z0.4229
Y0.6112 Z0.4228
Y0.6161 Z0.4227
Y0.621 Z0.4226
Y0.626 Z0.4224
Y0.6309 Z0.4223
Y0.6358 Z0.4221
Y0.6407 Z0.422
Y0.6457 Z0.4219
Y0.6506 Z0.4217
Y0.6555 Z0.4216
Y0.6604 Z0.4214
Y0.6654 Z0.4213
Y0.6703 Z0.4211
Y0.6752 Z0.421
Y0.6801 Z0.4208
Y0.6851 Z0.4207
Y0.69 Z0.4205
Y0.6949 Z0.4203
Y0.6998 Z0.4202
Y0.7048 Z0.42
Y0.7097 Z0.4199
Y0.7146 Z0.4197
Y0.7195 Z0.4195
Y0.7245 Z0.4194
Y0.7294 Z0.4192
Y0.7343 Z0.419
Y0.7639 Z0.418
Y1.4336 Z0.3946
Y1.4386 Z0.3944
Y1.4435 Z0.3943
Y1.4484 Z0.3941
Y1.4533 Z0.3939
Y1.4583 Z0.3938
Y1.4632 Z0.3936
Y1.4681 Z0.3934
Y1.473 Z0.3933
Y1.478 Z0.3931
Y1.4829 Z0.393
Y1.4878 Z0.3928
Y1.4927 Z0.3927
Y1.4977 Z0.3925
Y1.5026 Z0.3923
Y1.5075 Z0.3922
Y1.5124 Z0.392
Y1.5174 Z0.3919
Y1.5223 Z0.3918
Y1.5272 Z0.3916
Y1.5321 Z0.3915
Y1.5371 Z0.3913
Y1.542 Z0.3912
Y1.5469 Z0.3911
Y1.5518 Z0.3909
Y1.5568 Z0.3908
Y1.5617 Z0.3907
Y1.5666 Z0.3905
Y1.5715 Z0.3904
Y1.5765 Z0.3903
Y1.5814 Z0.3902
Y1.5863 Z0.39
Y1.5912 Z0.3899
Y1.5962 Z0.3898
Y1.6011 Z0.3897
Y1.606 Z0.3896
Y1.6109 Z0.3895
Y1.6159 Z0.3894
Y1.6208 Z0.3893
Y1.6257 Z0.3892
Y1.6306 Z0.3891
Y1.6355 Z0.389
Y1.6405 Z0.3889
Y1.6454 Z0.3888
Y1.6503 Z0.3887
Y1.6552 Z0.3886
Y1.6602 Z0.3885
Y1.6651 Z0.3884
Y1.67 Z0.3883
Y1.6749
Y1.6799 Z0.3882
Y1.6848 Z0.3881
Y1.6897 Z0.388
Y1.6946
Y1.6996 Z0.3879
Y1.7045 Z0.3878
Y1.7094
Y1.7143 Z0.3877
Y1.7193 Z0.3876
Y1.7242
Y1.7291 Z0.3875
Y1.734
Y1.739 Z0.3874
Y1.7439
Y1.7488
Y1.7537 Z0.3873
Y1.7587
Y1.7636
Y1.7685 Z0.3872
Y1.7734
Y1.7784
Y1.7833
Y1.7882 Z0.3871
Y1.7931
Y1.7981
Y1.803
Y1.8079
Y1.8141
Y1.8153
Y2.4557
X2.435
X0.1716
X0.1715
Y0.2104
X0.1716 Y0.2103
X2.435
X2.4351 Y0.2104
Y1.8153
Y1.8177
Y1.8202
Y1.8251
Y1.83
Y1.835
Y1.8399
Y1.8448 Z0.387
Y1.8497
Y1.8547
Y1.8596
Y1.8645 Z0.3869
Y1.8694
Y1.8744
Y1.8793 Z0.3868
Y1.8842
Y1.8891
Y1.8941 Z0.3867
Y1.899
Y1.9039 Z0.3866
Y1.9088
Y1.9138 Z0.3865
Y1.9187 Z0.3864
Y1.9236
Y1.9285 Z0.3863
Y1.9335
Y1.9384 Z0.3862
Y1.9433 Z0.3861
Y1.9482 Z0.386
Y1.9532
Y1.9581 Z0.3859
Y1.963 Z0.3858
Y1.9679 Z0.3857
Y1.9729 Z0.3856
Y1.9778 Z0.3855
Y1.9827
Y1.9876 Z0.3854
Y1.9926 Z0.3853
Y1.9975 Z0.3852
Y2.0024 Z0.3851
Y2.0073 Z0.385
Y2.0123 Z0.3849
Y2.0172 Z0.3848
Y2.0221 Z0.3846
Y2.027 Z0.3845
Y2.032 Z0.3844
Y2.0369 Z0.3843
Y2.0418 Z0.3842
Y2.0467 Z0.3841
Y2.0517 Z0.384
Y2.0566 Z0.3838
Y2.0615 Z0.3837
Y2.0664 Z0.3836
Y2.0714 Z0.3834
Y2.0763 Z0.3833
Y2.0812 Z0.3832
Y2.0861 Z0.3831
Y2.0911 Z0.3829
Y2.096 Z0.3828
Y2.1009 Z0.3826
Y2.1058 Z0.3825
Y2.1108 Z0.3823
Y2.1157 Z0.3822
Y2.1206 Z0.3821
Y2.1255 Z0.3819
Y2.1305 Z0.3818
Y2.1354 Z0.3816
Y2.1403 Z0.3815
Y2.1452 Z0.3813
Y2.1502 Z0.3811
Y2.1551 Z0.381
Y2.16 Z0.3808
Y2.1649 Z0.3807
Y2.1699 Z0.3805
Y2.1748 Z0.3803
Y2.1797 Z0.3802
Y2.1846 Z0.38
Y2.1896 Z0.3798
Y2.1945 Z0.3797
Y2.224 Z0.3786
Y2.4555 Z0.3705
Y2.4557
X2.435
X2.4348
X2.4345
X2.4339
X2.4304 Z0.3704
X2.0955 Z0.3587
X1.997 Z0.3552
X1.9921 Z0.3551
X1.9871 Z0.3549
X1.9822 Z0.3547
X1.9773 Z0.3546
X1.9724 Z0.3544
X1.9674 Z0.3542
X1.9625 Z0.3541
X1.9576 Z0.3539
X1.9527 Z0.3538
X1.9477 Z0.3536
X1.9428 Z0.3534
X1.9379 Z0.3533
X1.933 Z0.3531
X1.928 Z0.353
X1.9231 Z0.3528
X1.9182 Z0.3527
X1.9133 Z0.3525
X1.9083 Z0.3524
X1.9034 Z0.3523
X1.8985 Z0.3521
X1.8936 Z0.352
X1.8886 Z0.3518
X1.8837 Z0.3517
X1.8788 Z0.3516
X1.8739 Z0.3514
X1.8689 Z0.3513
X1.864 Z0.3512
X1.8591 Z0.351
X1.8542 Z0.3509
X1.8492 Z0.3508
X1.8443 Z0.3507
X1.8394 Z0.3506
X1.8345 Z0.3504
X1.8295 Z0.3503
X1.8246 Z0.3502
X1.8197 Z0.3501
X1.8148 Z0.35
X1.8098 Z0.3499
X1.8049 Z0.3498
X1.8 Z0.3497
X1.7951 Z0.3496
X1.7901 Z0.3495
X1.7852 Z0.3494
X1.7803 Z0.3493
X1.7754 Z0.3492
X1.7704 Z0.3491
X1.7655
X1.7606 Z0.349
X1.7557 Z0.3489
X1.7507 Z0.3488
X1.7458 Z0.3487
X1.7409
X1.736 Z0.3486
X1.731 Z0.3485
X1.7261
X1.7212 Z0.3484
X1.7163 Z0.3483
X1.7113
X1.7064 Z0.3482
X1.7015
X1.6966 Z0.3481
X1.6916
X1.6867 Z0.348
X1.6818
X1.6769
X1.6719 Z0.3479
X1.667
X1.6621
X1.6572 Z0.3478
X1.6522
X1.6473
X1.6424
X1.6375
X1.6325 Z0.3477
X1.6276
X1.6227
X1.6165
X1.6151
X0.1716
X0.1715
Y0.2104
X0.1716 Y0.2103
X2.435
X2.4351 Y0.2104
Y1.8153
Y2.4557
X2.435
X1.6151
X1.6127
X1.6102
X1.6053
X1.6004
X1.5954
X1.5905
X1.5856
X1.5807 Z0.3476
X1.5757
X1.5708
X1.5659
X1.561 Z0.3475
X1.556
X1.5511
X1.5462 Z0.3474
X1.5413
X1.5363 Z0.3473
X1.5314
X1.5265 Z0.3472
X1.5216
X1.5166 Z0.3471
X1.5117
X1.5068 Z0.347
X1.5019
X1.4969 Z0.3469
X1.492 Z0.3468
X1.4871 Z0.3467
X1.4822
X1.4772 Z0.3466
X1.4723 Z0.3465
X1.4674 Z0.3464
X1.4625
X1.4575 Z0.3463
X1.4526 Z0.3462
X1.4477 Z0.3461
X1.4428 Z0.346
X1.4378 Z0.3459
X1.4329 Z0.3458
X1.428 Z0.3457
X1.4231 Z0.3456
X1.4181 Z0.3455
X1.4132 Z0.3454
X1.4083 Z0.3453
X1.4034 Z0.3452
X1.3984 Z0.3451
X1.3935 Z0.3449
X1.3886 Z0.3448
X1.3837 Z0.3447
X1.3787 Z0.3446
X1.3738 Z0.3445
X1.3689 Z0.3443
X1.364 Z0.3442
X1.359 Z0.3441
X1.3541 Z0.3439
X1.3492 Z0.3438
X1.3443 Z0.3437
X1.3393 Z0.3435
X1.3344 Z0.3434
X1.3295 Z0.3433
X1.3246 Z0.3431
X1.3196 Z0.343
X1.3147 Z0.3428
X1.3098 Z0.3427
X1.3049 Z0.3425
X1.2999 Z0.3424
X1.295 Z0.3422
X1.2901 Z0.3421
X1.2852 Z0.3419
X1.2802 Z0.3418
X1.2753 Z0.3416
X1.2704 Z0.3414
X1.2655 Z0.3413
X1.2605 Z0.3411
X1.2556 Z0.341
X1.2507 Z0.3408
X1.2458 Z0.3406
X1.2408 Z0.3405
X1.2359 Z0.3403
X1.2064 Z0.3393
X0.5366 Z0.3159
X0.5317 Z0.3157
X0.5267 Z0.3155
X0.5218 Z0.3154
X0.5169 Z0.3152
X0.512 Z0.315
X0.507 Z0.3149
X0.5021 Z0.3147
X0.4972 Z0.3145
X0.4923 Z0.3144
X0.4874 Z0.3142
X0.4824 Z0.3141
X0.4775 Z0.3139
X0.4726 Z0.3138
X0.4677 Z0.3136
X0.4627 Z0.3135
X0.4578 Z0.3133
X0.4529 Z0.3132
X0.448 Z0.313
X0.443 Z0.3129
X0.4381 Z0.3127
X0.4332 Z0.3126
X0.4283 Z0.3125
X0.4233 Z0.3123
X0.4184 Z0.3122
X0.4135 Z0.3121
X0.4086 Z0.3119
X0.4036 Z0.3118
X0.3987 Z0.3117
X0.3938 Z0.3115
X0.3889 Z0.3114
X0.3839 Z0.3113
X0.379 Z0.3112
X0.3741 Z0.3111
X0.3692 Z0.311
X0.3642 Z0.3108
X0.3593 Z0.3107
X0.3544 Z0.3106
X0.3495 Z0.3105
X0.3445 Z0.3104
X0.3396 Z0.3103
X0.3347 Z0.3102
X0.3298 Z0.3101
X0.3248 Z0.31
X0.3199 Z0.3099
X0.315 Z0.3098
X0.3101
X0.3051 Z0.3097
X0.3002 Z0.3096
X0.2953 Z0.3095
X0.2904 Z0.3094
X0.2854
X0.2805 Z0.3093
X0.2756 Z0.3092
X0.2707
X0.2657 Z0.3091
X0.2608 Z0.309
X0.2559
X0.251 Z0.3089
X0.246
X0.2411 Z0.3088
X0.2362
X0.2313 Z0.3087
X0.2263
X0.2214 Z0.3086
X0.2165
X0.2116 Z0.3085
X0.2066
X0.2017
X0.1968
X0.1919 Z0.3084
X0.1869
X0.182
X0.1771
X0.1717
X0.1715
Y2.4548
Y2.4514
Y2.4465
Y2.4403
Y2.4391
Y0.2104
X0.1716 Y0.2103
X2.435
X2.4351 Y0.2104
Y2.4557
X2.435
X0.1716
X0.1715
Y2.4391
Y2.4367
Y2.4342 Z0.3083
Y2.4293
Y2.4244
Y2.4194
Y2.4145
Y2.4096
Y2.4047
Y2.3997
Y2.3948 Z0.3082
Y2.3899
Y2.385
Y2.38 Z0.3081
Y2.3751
Y2.3702
Y2.3653 Z0.308
Y2.3603
Y2.3554 Z0.3079
Y2.3505
Y2.3456 Z0.3078
Y2.3406
Y2.3357 Z0.3077
Y2.3308 Z0.3076
Y2.3259
Y2.3209 Z0.3075
Y2.316 Z0.3074
Y2.3111
Y2.3062 Z0.3073
Y2.3012 Z0.3072
Y2.2963 Z0.3071
Y2.2914
Y2.2865 Z0.307
Y2.2815 Z0.3069
Y2.2766 Z0.3068
Y2.2717 Z0.3067
Y2.2668 Z0.3066
Y2.2618 Z0.3065
Y2.2569 Z0.3064
Y2.252 Z0.3063
Y2.2471 Z0.3062
Y2.2421 Z0.3061
Y2.2372 Z0.306
Y2.2323 Z0.3059
Y2.2274 Z0.3058
Y2.2224 Z0.3057
Y2.2175 Z0.3056
Y2.2126 Z0.3055
Y2.2077 Z0.3053
Y2.2027 Z0.3052
Y2.1978 Z0.3051
Y2.1929 Z0.305
Y2.188 Z0.3048
Y2.183 Z0.3047
Y2.1781 Z0.3046
Y2.1732 Z0.3044
Y2.1683 Z0.3043
Y2.1633 Z0.3042
Y2.1584 Z0.304
Y2.1535 Z0.3039
Y2.1486 Z0.3038
Y2.1436 Z0.3036
Y2.1387 Z0.3035
Y2.1338 Z0.3033
Y2.1289 Z0.3032
Y2.1239 Z0.303
Y2.119 Z0.3029
Y2.1141 Z0.3027
Y2.1092 Z0.3026
Y2.1042 Z0.3024
Y2.0993 Z0.3022
Y2.0944 Z0.3021
Y2.0895 Z0.3019
Y2.0845 Z0.3018
Y2.0796 Z0.3016
Y2.0747 Z0.3014
Y2.0698 Z0.3013
Y2.0648 Z0.3011
Y2.0599 Z0.3009
Y2.0304 Z0.2999
Y1.3606 Z0.2765
Y1.3557 Z0.2763
Y1.3507 Z0.2762
Y1.3458 Z0.276
Y1.3409 Z0.2758
Y1.336 Z0.2757
Y1.331 Z0.2755
Y1.3261 Z0.2753
Y1.3212 Z0.2752
Y1.3163 Z0.275
Y1.3113 Z0.2749
Y1.3064 Z0.2747
Y1.3015 Z0.2745
Y1.2966 Z0.2744
Y1.2916 Z0.2742
Y1.2867 Z0.2741
Y1.2818 Z0.2739
Y1.2769 Z0.2738
Y1.272 Z0.2736
Y1.267 Z0.2735
Y1.2621 Z0.2734
Y1.2572 Z0.2732
Y1.2523 Z0.2731
Y1.2473 Z0.273
Y1.2424 Z0.2728
Y1.2375 Z0.2727
Y1.2326 Z0.2726
Y1.2276 Z0.2724
Y1.2227 Z0.2723
Y1.2178 Z0.2722
Y1.2129 Z0.2721
Y1.2079 Z0.2719
Y1.203 Z0.2718
Y1.1981 Z0.2717
Y1.1932 Z0.2716
Y1.1882 Z0.2715
Y1.1833 Z0.2714
Y1.1784 Z0.2713
Y1.1735 Z0.2712
Y1.1685 Z0.271
Y1.1636 Z0.2709
Y1.1587
Y1.1538 Z0.2708
Y1.1488 Z0.2707
Y1.1439 Z0.2706
Y1.139 Z0.2705
Y1.1341 Z0.2704
Y1.1291 Z0.2703
Y1.1242 Z0.2702
Y1.1193 Z0.2701
Y1.1144
Y1.1094 Z0.27
Y1.1045 Z0.2699
Y1.0996 Z0.2698
Y1.0947
Y1.0897 Z0.2697
Y1.0848
Y1.0799 Z0.2696
Y1.075 Z0.2695
Y1.07
Y1.0651 Z0.2694
Y1.0602
Y1.0553 Z0.2693
Y1.0503
Y1.0454
Y1.0405 Z0.2692
Y1.0356
Y1.0306 Z0.2691
Y1.0257
Y1.0208
Y1.0159
Y1.0109 Z0.269
Y1.006
Y1.0011
Y0.9962
Y0.9912
Y0.9863
Y0.9802
Y0.979
Y0.2104
X0.1716 Y0.2103
X2.435
X2.4351 Y0.2104
Y2.4557
X2.435
X0.1716
X0.1715
Y0.979
Y0.9765
Y0.974
Y0.9691
Y0.9642
Y0.9593
Y0.9543 Z0.2689
Y0.9494
Y0.9445
Y0.9396
Y0.9346
Y0.9297 Z0.2688
Y0.9248
Y0.9199
Y0.9149 Z0.2687
Y0.91
Y0.9051 Z0.2686
Y0.9002
Y0.8952
Y0.8903 Z0.2685
Y0.8854
Y0.8805 Z0.2684
Y0.8755 Z0.2683
Y0.8706
Y0.8657 Z0.2682
Y0.8608 Z0.2681
Y0.8558
Y0.8509 Z0.268
Y0.846 Z0.2679
Y0.8411
Y0.8361 Z0.2678
Y0.8312 Z0.2677
Y0.8263 Z0.2676
Y0.8214 Z0.2675
Y0.8164 Z0.2674
Y0.8115 Z0.2673
Y0.8066
Y0.8017 Z0.2672
Y0.7967 Z0.2671
Y0.7918 Z0.267
Y0.7869 Z0.2669
Y0.782 Z0.2668
Y0.777 Z0.2666
Y0.7721 Z0.2665
Y0.7672 Z0.2664
Y0.7623 Z0.2663
Y0.7573 Z0.2662
Y0.7524 Z0.2661
Y0.7475 Z0.266
Y0.7426 Z0.2658
Y0.7376 Z0.2657
Y0.7327 Z0.2656
Y0.7278 Z0.2655
Y0.7229 Z0.2653
Y0.7179 Z0.2652
Y0.713 Z0.2651
Y0.7081 Z0.2649
Y0.7032 Z0.2648
Y0.6982 Z0.2647
Y0.6933 Z0.2645
Y0.6884 Z0.2644
Y0.6835 Z0.2642
Y0.6786 Z0.2641
Y0.6736 Z0.2639
Y0.6687 Z0.2638
Y0.6638 Z0.2636
Y0.6589 Z0.2635
Y0.6539 Z0.2633
Y0.649 Z0.2632
Y0.6441 Z0.263
Y0.6392 Z0.2629
Y0.6342 Z0.2627
Y0.6293 Z0.2625
Y0.6244 Z0.2624
Y0.6195 Z0.2622
Y0.6145 Z0.2621
Y0.6096 Z0.2619
Y0.6047 Z0.2617
Y0.5998 Z0.2615
Y0.5702 Z0.2605
Y0.2107 Z0.248
Y0.2104
X0.1717 Y0.2103
X0.172 Z0.2479
X0.1727
X0.1738
X0.1811 Z0.2476
X0.4815 Z0.2371
X0.4864 Z0.237
X0.4913 Z0.2368
X0.4963 Z0.2366
X0.5012 Z0.2365
X0.5061 Z0.2363
X0.511 Z0.2361
X0.516 Z0.236
X0.5209 Z0.2358
X0.5258 Z0.2357
X0.5307 Z0.2355
X0.5356 Z0.2353
X0.5406 Z0.2352
X0.5455 Z0.235
X0.5504 Z0.2349
X0.5553 Z0.2347
X0.5603 Z0.2346
X0.5652 Z0.2344
X0.5701 Z0.2343
X0.575 Z0.2341
X0.58 Z0.234
X0.5849 Z0.2339
X0.5898 Z0.2337
X0.5947 Z0.2336
X0.5997 Z0.2335
X0.6046 Z0.2333
X0.6095 Z0.2332
X0.6144 Z0.2331
X0.6194 Z0.2329
X0.6243 Z0.2328
X0.6292 Z0.2327
X0.6341 Z0.2326
X0.6391 Z0.2325
X0.644 Z0.2323
X0.6489 Z0.2322
X0.6538 Z0.2321
X0.6588 Z0.232
X0.6637 Z0.2319
X0.6686 Z0.2318
X0.6735 Z0.2317
X0.6785 Z0.2316
X0.6834 Z0.2315
X0.6883 Z0.2314
X0.6932 Z0.2313
X0.6982 Z0.2312
X0.7031 Z0.2311
X0.708 Z0.231
X0.7129 Z0.2309
X0.7179
X0.7228 Z0.2308
X0.7277 Z0.2307
X0.7326 Z0.2306
X0.7376
X0.7425 Z0.2305
X0.7474 Z0.2304
X0.7523
X0.7573 Z0.2303
X0.7622 Z0.2302
X0.7671
X0.772 Z0.2301
X0.777
X0.7819 Z0.23
X0.7868
X0.7917 Z0.2299
X0.7967
X0.8016 Z0.2298
X0.8065
X0.8114
X0.8164 Z0.2297
X0.8213
X0.8262
X0.8311
X0.8361
X0.841 Z0.2296
X0.8459
X0.8508
X0.8558
X0.8621
X0.8634
X2.435
X2.4351 Y0.2104
Y2.4557
X2.435
X0.1716
X0.1715
Y0.979
Y0.2104
X0.1716 Y0.2103
X0.8634
X0.8659
X0.8684
X0.8733
X0.8782
X0.8831
X0.888
X0.893
X0.8979 Z0.2295
X0.9028
X0.9077
X0.9127
X0.9176 Z0.2294
X0.9225
X0.9274
X0.9324 Z0.2293
X0.9373
X0.9422 Z0.2292
X0.9471
X0.9521 Z0.2291
X0.957
X0.9619 Z0.229
X0.9668
X0.9718 Z0.2289
X0.9767 Z0.2288
X0.9816
X0.9865 Z0.2287
X0.9915 Z0.2286
X0.9964
X1.0013 Z0.2285
X1.0062 Z0.2284
X1.0112 Z0.2283
X1.0161 Z0.2282
X1.021
X1.0259 Z0.2281
X1.0309 Z0.228
X1.0358 Z0.2279
X1.0407 Z0.2278
X1.0456 Z0.2277
X1.0506 Z0.2276
X1.0555 Z0.2275
X1.0604 Z0.2274
X1.0653 Z0.2273
X1.0703 Z0.2272
X1.0752 Z0.2271
X1.0801 Z0.2269
X1.085 Z0.2268
X1.09 Z0.2267
X1.0949 Z0.2266
X1.0998 Z0.2265
X1.1047 Z0.2264
X1.1097 Z0.2262
X1.1146 Z0.2261
X1.1195 Z0.226
X1.1244 Z0.2258
X1.1294 Z0.2257
X1.1343 Z0.2256
X1.1392 Z0.2254
X1.1441 Z0.2253
X1.1491 Z0.2252
X1.154 Z0.225
X1.1589 Z0.2249
X1.1638 Z0.2247
X1.1688 Z0.2246
X1.1737 Z0.2244
X1.1786 Z0.2243
X1.1835 Z0.2241
X1.1885 Z0.224
X1.1934 Z0.2238
X1.1983 Z0.2237
X1.2032 Z0.2235
X1.2082 Z0.2233
X1.2131 Z0.2232
X1.218 Z0.223
X1.2229 Z0.2228
X1.2279 Z0.2227
X1.2328 Z0.2225
X1.2377 Z0.2223
X1.2426 Z0.2222
X1.2722 Z0.2211
X1.942 Z0.1978
X1.9469 Z0.1976
X1.9518 Z0.1974
X1.9567 Z0.1973
X1.9617 Z0.1971
X1.9666 Z0.1969
X1.9715 Z0.1968
X1.9764 Z0.1966
X1.9814 Z0.1964
X1.9863 Z0.1963
X1.9912 Z0.1961
X1.9961 Z0.196
X2.0011 Z0.1958
X2.006 Z0.1956
X2.0109 Z0.1955
X2.0158 Z0.1953
X2.0208 Z0.1952
X2.0257 Z0.1951
X2.0306 Z0.1949
X2.0355 Z0.1948
X2.0405 Z0.1946
X2.0454 Z0.1945
X2.0503 Z0.1943
X2.0552 Z0.1942
X2.0602 Z0.1941
X2.0651 Z0.1939
X2.07 Z0.1938
X2.0749 Z0.1937
X2.0798 Z0.1936
X2.0848 Z0.1934
X2.0897 Z0.1933
X2.0946 Z0.1932
X2.0995 Z0.1931
X2.1045 Z0.193
X2.1094 Z0.1928
X2.1143 Z0.1927
X2.1192 Z0.1926
X2.1242 Z0.1925
X2.1291 Z0.1924
X2.134 Z0.1923
X2.1389 Z0.1922
X2.1439 Z0.1921
X2.1488 Z0.192
X2.1537 Z0.1919
X2.1586 Z0.1918
X2.1636 Z0.1917
X2.1685
X2.1734 Z0.1916
X2.1783 Z0.1915
X2.1833 Z0.1914
X2.1882 Z0.1913
X2.1931
X2.198 Z0.1912
X2.203 Z0.1911
X2.2079 Z0.191
X2.2128
X2.2177 Z0.1909
X2.2227
X2.2276 Z0.1908
X2.2325 Z0.1907
X2.2374
X2.2424 Z0.1906
X2.2473
X2.2522
X2.2571 Z0.1905
X2.2621
X2.267 Z0.1904
X2.2719
X2.2768
X2.2818 Z0.1903
X2.2867
X2.2916
X2.2965
X2.3015
X2.3064
X2.3113 Z0.1902
X2.3162
X2.3224
X2.3236
X2.435
X2.4351 Y0.2104
Y2.4557
X2.435
X0.1716
X0.1715
Y0.2104
X0.1716 Y0.2103
X2.3236
X2.3261
X2.3285
X2.3334
X2.3384
X2.3433
X2.3482
X2.3531
X2.3581
X2.363 Z0.1901
X2.3679
X2.3728
X2.3778
X2.3827 Z0.19
X2.3876
X2.3925 Z0.1899
X2.3975
X2.4024
X2.4073 Z0.1898
X2.4122
X2.4172 Z0.1897
X2.4221
X2.427 Z0.1896
X2.4319 Z0.1895
X2.434
X2.4349
X2.435
X2.4351 Y0.2104
Y0.2105
Y0.2109
Y0.2171 Z0.1894
Y0.222 Z0.1893
Y0.2269
Y0.2318 Z0.1892
Y0.2368 Z0.1891
Y0.2417 Z0.189
Y0.2466
Y0.2515 Z0.1889
Y0.2565 Z0.1888
Y0.2614 Z0.1887
Y0.2663 Z0.1886
Y0.2712 Z0.1885
Y0.2762 Z0.1884
Y0.2811 Z0.1883
Y0.286 Z0.1882
Y0.2909 Z0.1881
Y0.2959 Z0.188
Y0.3008 Z0.1879
Y0.3057 Z0.1878
Y0.3106 Z0.1877
Y0.3156 Z0.1876
Y0.3205 Z0.1875
Y0.3254 Z0.1873
Y0.3303 Z0.1872
Y0.3353 Z0.1871
Y0.3402 Z0.187
Y0.3451 Z0.1869
Y0.35 Z0.1867
Y0.355 Z0.1866
Y0.3599 Z0.1865
Y0.3648 Z0.1863
Y0.3697 Z0.1862
Y0.3747 Z0.1861
Y0.3796 Z0.1859
Y0.3845 Z0.1858
Y0.3894 Z0.1856
Y0.3944 Z0.1855
Y0.3993 Z0.1854
Y0.4042 Z0.1852
Y0.4091 Z0.1851
Y0.4141 Z0.1849
Y0.419 Z0.1848
Y0.4239 Z0.1846
Y0.4288 Z0.1844
Y0.4338 Z0.1843
Y0.4387 Z0.1841
Y0.4436 Z0.184
Y0.4485 Z0.1838
Y0.4535 Z0.1836
Y0.4584 Z0.1835
Y0.4633 Z0.1833
Y0.4682 Z0.1831
Y0.4732 Z0.183
Y0.4781 Z0.1828
Y0.5076 Z0.1818
Y1.1774 Z0.1584
Y1.1823 Z0.1582
Y1.1873 Z0.158
Y1.1922 Z0.1579
Y1.1971 Z0.1577
Y1.202 Z0.1575
Y1.207 Z0.1574
Y1.2119 Z0.1572
Y1.2168 Z0.1571
Y1.2217 Z0.1569
Y1.2267 Z0.1567
Y1.2316 Z0.1566
Y1.2365 Z0.1564
Y1.2414 Z0.1563
Y1.2464 Z0.1561
Y1.2513 Z0.156
Y1.2562 Z0.1558
Y1.2611 Z0.1557
Y1.2661 Z0.1555
Y1.271 Z0.1554
Y1.2759 Z0.1553
Y1.2808 Z0.1551
Y1.2858 Z0.155
Y1.2907 Z0.1548
Y1.2956 Z0.1547
Y1.3005 Z0.1546
Y1.3055 Z0.1544
Y1.3104 Z0.1543
Y1.3153 Z0.1542
Y1.3202 Z0.1541
Y1.3252 Z0.1539
Y1.3301 Z0.1538
Y1.335 Z0.1537
Y1.3399 Z0.1536
Y1.3448 Z0.1535
Y1.3498 Z0.1534
Y1.3547 Z0.1533
Y1.3596 Z0.1531
Y1.3645 Z0.153
Y1.3695 Z0.1529
Y1.3744 Z0.1528
Y1.3793 Z0.1527
Y1.3842 Z0.1526
Y1.3892 Z0.1525
Y1.3941
Y1.399 Z0.1524
Y1.4039 Z0.1523
Y1.4089 Z0.1522
Y1.4138 Z0.1521
Y1.4187 Z0.152
Y1.4236
Y1.4286 Z0.1519
Y1.4335 Z0.1518
Y1.4384 Z0.1517
Y1.4433
Y1.4483 Z0.1516
Y1.4532 Z0.1515
Y1.4581
Y1.463 Z0.1514
Y1.468
Y1.4729 Z0.1513
Y1.4778
Y1.4827 Z0.1512
Y1.4877
Y1.4926 Z0.1511
Y1.4975
Y1.5024
Y1.5074 Z0.151
Y1.5123
Y1.5172
Y1.5221
Y1.5271 Z0.1509
Y1.532
Y1.5369
Y1.5418
Y1.5468
Y1.5517
Y1.5578
Y1.559
Y2.4557
X2.435
X0.1716
X0.1715
Y0.2104
X0.1716 Y0.2103
X2.435
X2.4351 Y0.2104
Y1.559
X2.4348 Y1.5603
X2.4341 Y1.5613
X2.433 Y1.562
X2.4318 Y1.5622
X2.3594 Y1.5592
X2.3582 Y1.5591 Z0.1511
X2.3572 Z0.1518
X2.3565 Z0.1528
X2.3563 Y1.559 Z0.154
G0 Z1.2139
X1.2692 Y0.412
Z0.8616
G1 Z0.7808 F14.
X1.2683 Y0.411
X1.2678 Y0.4097
X1.268 Y0.4083
X1.2687 Y0.4072
X1.2696 Y0.4061
X1.2705 Y0.4048
X1.2709 Y0.4041
X1.2713 Y0.4033
X1.2719 Y0.4019
X1.2723 Y0.4006
X1.2726 Y0.3992
X1.2728 Y0.3978
Y0.3964
X1.2727 Y0.395
X1.2726 Y0.3943
X1.2725 Y0.3936
X1.2723 Y0.3929
X1.2721 Y0.3922
X1.2719 Y0.3915
X1.2717 Y0.3908
X1.2714 Y0.3901
X1.271 Y0.3894
X1.2705 Y0.3885
X1.2699 Y0.3875
X1.2691 Y0.3866
X1.2685 Y0.3858
X1.2677 Y0.3851
X1.2669 Y0.3844
X1.2661 Y0.3838
X1.2649 Y0.3829
X1.2642 Y0.3825
X1.2635 Y0.3821
X1.2628 Y0.3817
X1.2621 Y0.3814
X1.261 Y0.381
X1.2601 Y0.3808
X1.2593 Y0.3806
X1.2586 Y0.3804
X1.2579 Y0.3803
X1.2572
X1.2565 Y0.3802
X1.2537 Y0.3803
X1.2324 Y0.3811
X1.2323
X1.2322
X1.2321
X1.232 Y0.3812
X1.2319
X1.2318
X1.2317
X1.2316
X1.2314
X1.2312
X1.231
X1.2309 Y0.3813
X1.2307
X1.2303 Y0.3814
X1.23
X1.2296 Y0.3815
X1.2293 Y0.3816
X1.2286 Y0.3818
X1.2279 Y0.382
X1.2272 Y0.3823
X1.2258 Y0.3829
X1.2244 Y0.3838
X1.223 Y0.3848
X1.2212 Y0.3866
X1.2202 Y0.3879
X1.2193 Y0.3894
X1.2182 Y0.3922
X1.2176 Y0.395
X1.2175 Y0.3978
X1.218 Y0.4006
X1.219 Y0.4033
X1.2202 Y0.4055
X1.2207 Y0.4061
X1.223 Y0.4086
X1.2234 Y0.4089
X1.2258 Y0.4105
X1.2272 Y0.4112
X1.2286 Y0.4116
X1.2289 Y0.4117
X1.2295 Y0.4119
X1.2301 Y0.412
X1.2308 Y0.4121
X1.2314 Y0.4122
X1.2481 Y0.4142
X1.2507 Y0.4145
X1.2509
X1.2519 Y0.4146
X1.2528 Y0.4145
X1.2537 Y0.4144
X1.2544 Y0.4143
X1.2551 Y0.4142
X1.2558 Y0.414
X1.2565 Y0.4138
X1.2572 Y0.4136
X1.2576 Y0.4134
X1.2579 Y0.4133
X1.2621 Y0.4115
X1.2635 Y0.4109
X1.2642 Y0.4106
X1.2649 Y0.4102
X1.2659 Y0.4096
X1.2668 Y0.4089
X1.2677 Y0.4082
X1.2687 Y0.4072
X1.2697 Y0.4065
X1.2709 Y0.4063
X1.2721 Y0.4065
X1.2731 Y0.4072
X1.2742 Y0.4079
X1.2754 Y0.4081
X1.2766 Y0.4078
X1.2776 Y0.4071
X1.2783 Y0.4061
X1.2908 Y0.3724
G3 X1.3137 Y0.3658 I0.0139 J0.0052
G1 X1.3138 Y0.3659
G3 X1.2956 Y0.3893 Z0.7792 I-0.0091 J0.0117
X1.3138 Y0.3659 Z0.7775 I0.0091 J-0.0117
X1.2956 Y0.3893 Z0.7759 I-0.0091 J0.0117
X1.3138 Y0.3659 Z0.7743 I0.0091 J-0.0117
X1.2956 Y0.3893 Z0.7727 I-0.0091 J0.0117
X1.3138 Y0.3659 Z0.771 I0.0091 J-0.0117
X1.2956 Y0.3893 Z0.7694 I-0.0091 J0.0117
X1.3138 Y0.3659 Z0.7678 I0.0091 J-0.0117
X1.2956 Y0.3893 Z0.7662 I-0.0091 J0.0117
X1.3138 Y0.3659 Z0.7645 I0.0091 J-0.0117
X1.2956 Y0.3893 Z0.7629 I-0.0091 J0.0117
X1.3138 Y0.3659 Z0.7613 I0.0091 J-0.0117
X1.2956 Y0.3893 Z0.7597 I-0.0091 J0.0117
X1.3138 Y0.3659 Z0.758 I0.0091 J-0.0117
X1.2956 Y0.3893 Z0.7564 I-0.0091 J0.0117
X1.3138 Y0.3659 Z0.7548 I0.0091 J-0.0117
X1.2956 Y0.3893 Z0.7532 I-0.0091 J0.0117
X1.3138 Y0.3659 Z0.7515 I0.0091 J-0.0117
X1.2956 Y0.3893 Z0.7499 I-0.0091 J0.0117
X1.3138 Y0.3659 Z0.7483 I0.0091 J-0.0117
X1.2956 Y0.3893 Z0.7467 I-0.0091 J0.0117
X1.3138 Y0.3659 Z0.745 I0.0091 J-0.0117
X1.2956 Y0.3893 Z0.7434 I-0.0091 J0.0117
X1.3138 Y0.3659 Z0.7418 I0.0091 J-0.0117
X1.3192 Y0.3745 Z0.7414 I-0.0091 J0.0117
G1 Y0.3746
X1.3195 Y0.3763
G3 X1.3079 Y0.3941 I-0.0147 J0.0031
G1 X1.3054 Y0.3946
X1.3053
X1.2984 Y0.3941
X1.2956 Y0.3939
X1.2928 Y0.394
X1.2863 Y0.3943
X1.2862
X1.2771 Y0.392
X1.277
X1.2661 Y0.3838
X1.2649 Y0.3829
X1.2642 Y0.3825
X1.2635 Y0.3821
X1.2628 Y0.3817
X1.2621 Y0.3814
X1.261 Y0.381
X1.2601 Y0.3808
X1.2593 Y0.3806
X1.2586 Y0.3804
X1.2579 Y0.3803
X1.2572
X1.2565 Y0.3802
X1.2537 Y0.3803
X1.2202 Y0.3816
X1.2174 Y0.3818
X1.1923 Y0.3836
X1.19 Y0.3838
X1.1392 Y0.3889
X1.1378 Y0.3891
X1.1371 Y0.3892
X1.1364 Y0.3893
X1.1361 Y0.3894
X1.1336 Y0.39
X1.1085 Y0.3964
X1.1078 Y0.3966
X1.1071 Y0.3968
X1.1064 Y0.3971
X1.1057 Y0.3974
X1.1053 Y0.3976
X1.1049 Y0.3978
X1.1044 Y0.398
X1.1039 Y0.3983
X1.1034 Y0.3987
X1.1029 Y0.399
X1.1025 Y0.3994
X1.102 Y0.3997
X1.1016 Y0.4001
X1.1011 Y0.4006
X1.1006 Y0.4011
X1.1001 Y0.4017
X1.0995 Y0.4025
X1.0989 Y0.4033
X1.0982 Y0.4047
X1.0976 Y0.4061
X1.0973 Y0.4068
X1.097 Y0.4079
X1.0968 Y0.4089
X1.0967 Y0.4103
X1.0966 Y0.4117
X1.0967 Y0.4131
X1.0969 Y0.4145
X1.0973 Y0.4163
X1.0977 Y0.4173
X1.0983 Y0.4187
X1.0992 Y0.4201
X1.1001 Y0.4214
X1.1015 Y0.4229
X1.1069 Y0.4285
X1.1085 Y0.4301
X1.122 Y0.4439
Y0.444
X1.1222 Y0.4446
X1.1224 Y0.4453
X1.1225
X1.1231 Y0.4467
X1.1238 Y0.448
X1.1253 Y0.45
X1.126 Y0.4508
X1.1281 Y0.4526
X1.1336 Y0.4568
X1.135 Y0.4578
X1.1364 Y0.4586
X1.1377 Y0.4592
X1.1839 Y0.4801
X1.1867 Y0.4812
X1.1884 Y0.4816
X1.1895 Y0.4817
X1.1909 Y0.4818
X1.1923 Y0.4817
X1.1933 Y0.4816
X1.1951 Y0.4812
X1.1965 Y0.4807
X1.1972 Y0.4804
X1.1979 Y0.4801
X1.2002 Y0.4788
X1.2287 Y0.462
X1.2314 Y0.4605
X1.2593 Y0.4451
X1.2621 Y0.4436
X1.2795 Y0.434
X1.2796
X1.2817 Y0.4348
X1.2872 Y0.4369
X1.29 Y0.438
X1.2928 Y0.4388
X1.2956 Y0.439
X1.2984 Y0.4387
X1.3012 Y0.4378
X1.3032 Y0.4369
X1.304 Y0.4364
X1.3112 Y0.4319
X1.3113 Y0.4318
X1.3626 Y0.4549
X1.3654 Y0.4562
X1.385 Y0.4656
X1.3864 Y0.4663
X1.3871 Y0.4666
X1.3878 Y0.4669
X1.3892 Y0.4673
X1.3906 Y0.4675
X1.3911 Y0.4676
X1.3934 Y0.4677
X1.3945 Y0.4676
X1.3962 Y0.4673
X1.3989 Y0.4664
X1.4017 Y0.4649
X1.437 Y0.442
X1.4371 Y0.4419
X1.4408 Y0.4405
X1.4432 Y0.4397
X1.4436 Y0.4395
X1.4464 Y0.4384
X1.4492 Y0.437
X1.4576 Y0.4322
X1.4592 Y0.4313
X1.4604 Y0.4304
X1.4613 Y0.4295
X1.4623 Y0.4285
X1.4632 Y0.4275
X1.467 Y0.4229
X1.4688 Y0.4208
X1.4694 Y0.4201
X1.4703 Y0.4187
X1.4711 Y0.4173
X1.4716 Y0.4162
X1.4721 Y0.4145
X1.4724 Y0.4131
X1.4726 Y0.4117
Y0.4103
X1.4725 Y0.4089
X1.4723 Y0.4075
X1.472 Y0.4061
X1.4716 Y0.4049
X1.4712 Y0.4041
X1.4708 Y0.4033
X1.4704 Y0.4026
X1.47 Y0.4019
X1.4695 Y0.4013
X1.469 Y0.4006
X1.4688 Y0.4003
X1.4681 Y0.3996
X1.4674 Y0.3989
X1.4667 Y0.3983
X1.466 Y0.3978
X1.4659
X1.4652 Y0.3973
X1.4645 Y0.3969
X1.4639 Y0.3966
X1.4632 Y0.3963
X1.4625 Y0.396
X1.4618 Y0.3957
X1.4604 Y0.3953
X1.4576 Y0.3945
X1.4548 Y0.3937
X1.4541 Y0.3935
X1.4534 Y0.3934
X1.452 Y0.3932
X1.4129 Y0.3881
X1.4101 Y0.3878
X1.3738 Y0.384
X1.3713 Y0.3838
X1.3431 Y0.3818
X1.3403 Y0.3817
X1.3396 Y0.3816
X1.3389 Y0.3817
X1.3382
X1.3375 Y0.3818
X1.3368 Y0.3819
X1.3361 Y0.3821
X1.3354 Y0.3823
X1.3347 Y0.3825
X1.334 Y0.3828
X1.3333 Y0.3831
X1.3327 Y0.3834
X1.332 Y0.3838
X1.3183 Y0.3919
X1.3182
X1.3079 Y0.3941
X1.3067
X1.3055 Y0.3936
X1.3046 Y0.3927
X1.3042 Y0.3915
X1.2931 Y0.324
X1.2929 Y0.3228 Z0.7417
X1.2927 Y0.3218 Z0.7423
X1.2926 Y0.3211 Z0.7433
Y0.3209 Z0.7445
G0 Z1.2139
X1.3162 Y0.8043
Z1.0201
G1 Z0.9414 F14.
X1.3161 Y0.8045 Z0.9402
Y0.8052 Z0.9392
X1.316 Y0.8062 Z0.9385
X1.3159 Y0.8074 Z0.9383
X1.3158 Y0.8081
X1.3154 Y0.8093
X1.3147 Y0.8102
X1.3136 Y0.8108
X1.3124 Y0.8109
X1.3096 Y0.8111
X1.3088 Y0.8113
X1.3068 Y0.8118
X1.2701 Y0.8224
X1.2677 Y0.8232
X1.2663 Y0.8238
X1.2649 Y0.8245
X1.2638 Y0.8252
X1.2621 Y0.8266
X1.2603 Y0.828
X1.2593 Y0.8289
X1.2422 Y0.8448
X1.2398 Y0.8469
X1.2342 Y0.8517
X1.2323 Y0.8532
X1.2118 Y0.8683
X1.2099 Y0.8699
X1.209 Y0.8707
X1.2074 Y0.8727
X1.2062 Y0.8744
X1.2057 Y0.8755
X1.2047 Y0.8783
X1.2042 Y0.8811
X1.2041 Y0.8839
X1.2039 Y0.8923
X1.2035 Y0.8949
X1.2034 Y0.8951
X1.2031 Y0.8979
Y0.8993
X1.2032 Y0.9007
X1.2033 Y0.9014
X1.2035 Y0.9022
X1.2036 Y0.9028
X1.2038 Y0.9035
X1.2039 Y0.9038
X1.2041 Y0.9042
X1.2042 Y0.9045
X1.2044 Y0.9049
X1.2045 Y0.9052
X1.2046 Y0.9054
X1.2047 Y0.9055
X1.2048 Y0.9057
X1.2049 Y0.9059
X1.205 Y0.9061
X1.2051 Y0.9062
X1.2062 Y0.9083
X1.2083 Y0.9118
X1.209 Y0.913
X1.2102 Y0.9146
X1.211 Y0.9157
X1.2114 Y0.9163
X1.2118 Y0.9168
X1.2124 Y0.9174
X1.213 Y0.918
X1.2135 Y0.9185
X1.2141 Y0.9189
X1.2146 Y0.9193
X1.2153 Y0.9198
X1.216 Y0.9202
X1.2167 Y0.9206
X1.2174 Y0.9209
X1.2181 Y0.9212
X1.2188 Y0.9214
X1.2195 Y0.9217
X1.2202 Y0.9218
X1.223 Y0.9223
X1.2453 Y0.926
X1.2481 Y0.9265
X1.2565 Y0.9279
X1.2593 Y0.9283
X1.2621 Y0.9284
X1.304 Y0.9291
X1.3068
X1.3124 Y0.9293
X1.3138
X1.3152 Y0.9292
X1.3319 Y0.9279
X1.3654 Y0.9253
X1.3682 Y0.925
X1.371 Y0.9244
X1.3808 Y0.9223
X1.3815 Y0.9221
X1.3818 Y0.922
X1.3822 Y0.9219
X1.3825 Y0.9218
X1.3829 Y0.9217
X1.3832 Y0.9216
X1.3836 Y0.9214
X1.3839 Y0.9213
X1.3843 Y0.9211
X1.385 Y0.9208
X1.3855 Y0.9205
X1.386 Y0.9202
X1.3869 Y0.9196
X1.3878 Y0.919
X1.3894 Y0.9174
X1.3906 Y0.916
X1.3914 Y0.9146
X1.3927 Y0.9118
X1.3933 Y0.909
X1.3934 Y0.9089
X1.3935 Y0.9062
X1.3934 Y0.905
X1.3932 Y0.9035
X1.3934 Y0.9012
Y0.9007
X1.3935 Y0.8979
X1.3934 Y0.8962
X1.3931 Y0.8951
X1.3922 Y0.8923
X1.3906 Y0.8895
X1.3883 Y0.8867
X1.3835 Y0.8808
Y0.8807
X1.3834 Y0.8783
X1.3833 Y0.8755
X1.3829 Y0.8727
X1.3822 Y0.8705
X1.3819 Y0.8699
X1.3803 Y0.8671
X1.3794 Y0.866
X1.3715 Y0.856
X1.371 Y0.8553
X1.3654 Y0.8476
X1.3633 Y0.8448
X1.3515 Y0.8303
X1.3496 Y0.828
X1.3487 Y0.827
X1.3465 Y0.8252
X1.3459 Y0.8248
X1.3445 Y0.824
X1.3431 Y0.8234
X1.3207 Y0.8132
X1.318 Y0.812
X1.3156 Y0.8113
X1.3152 Y0.8112
X1.3124 Y0.8109
X1.3112 Y0.8105
X1.3103 Y0.8098
X1.3097 Y0.8087
X1.3096 Y0.8075
Y0.8069
X1.3047 Y0.7562
G3 X1.3317 Y0.7465 I0.0148 J-0.0014
G1 X1.3318 Y0.7466
G3 X1.3071 Y0.7629 Z0.9366 I-0.0124 J0.0082
X1.3318 Y0.7466 Z0.935 I0.0124 J-0.0082
X1.3071 Y0.7629 Z0.9334 I-0.0124 J0.0082
X1.3318 Y0.7466 Z0.9318 I0.0124 J-0.0082
X1.3071 Y0.7629 Z0.9301 I-0.0124 J0.0082
X1.3318 Y0.7466 Z0.9285 I0.0124 J-0.0082
X1.3071 Y0.7629 Z0.9269 I-0.0124 J0.0082
X1.3318 Y0.7466 Z0.9253 I0.0124 J-0.0082
X1.3071 Y0.7629 Z0.9236 I-0.0124 J0.0082
X1.3318 Y0.7466 Z0.922 I0.0124 J-0.0082
X1.3071 Y0.7629 Z0.9204 I-0.0124 J0.0082
X1.3318 Y0.7466 Z0.9188 I0.0124 J-0.0082
X1.3071 Y0.7629 Z0.9171 I-0.0124 J0.0082
X1.3318 Y0.7466 Z0.9155 I0.0124 J-0.0082
X1.3071 Y0.7629 Z0.9139 I-0.0124 J0.0082
X1.3318 Y0.7466 Z0.9123 I0.0124 J-0.0082
X1.3071 Y0.7629 Z0.9106 I-0.0124 J0.0082
X1.3318 Y0.7466 Z0.909 I0.0124 J-0.0082
X1.3071 Y0.7629 Z0.9074 I-0.0124 J0.0082
X1.3318 Y0.7466 Z0.9058 I0.0124 J-0.0082
X1.3071 Y0.7629 Z0.9041 I-0.0124 J0.0082
X1.3318 Y0.7466 Z0.9025 I0.0124 J-0.0082
X1.3071 Y0.7629 Z0.9009 I-0.0124 J0.0082
X1.3318 Y0.7466 Z0.8993 I0.0124 J-0.0082
X1.3341 Y0.7564 Z0.8989 I-0.0124 J0.0082
G1 Y0.7566
X1.3339 Y0.7583
G3 X1.3172 Y0.7714 I-0.0149 J-0.0018
G1 X1.3124 Y0.7708
X1.311 Y0.7707
X1.3096 Y0.7706
X1.3068 Y0.7709
X1.2607 Y0.776
X1.26 Y0.7761
X1.2597
X1.2593 Y0.7762
X1.259
X1.2586 Y0.7763
X1.2579 Y0.7765
X1.2537 Y0.7775
X1.2528 Y0.7777
X1.2509 Y0.7783
X1.2506 Y0.7784
X1.2505
X1.223 Y0.783
X1.221 Y0.7833
X1.2202 Y0.7835
X1.2188 Y0.7839
X1.2174 Y0.7844
X1.2167 Y0.7847
X1.216 Y0.785
X1.2146 Y0.7858
X1.2035 Y0.7926
X1.2007 Y0.7942
X1.1895 Y0.8009
X1.1881 Y0.8018
X1.1874 Y0.8022
X1.1867 Y0.8028
X1.1866 Y0.8029
X1.1839 Y0.8052
X1.1673 Y0.8198
X1.1672
X1.1639 Y0.8224
X1.1627 Y0.8234
X1.1616 Y0.8245
X1.1608 Y0.8252
X1.1588 Y0.8276
X1.156 Y0.8309
X1.1537 Y0.8336
X1.1532 Y0.8342
X1.1525 Y0.8353
X1.1519 Y0.8364
X1.1512 Y0.8378
X1.1508 Y0.8392
X1.1504 Y0.8409
X1.1503 Y0.842
X1.1502 Y0.8434
X1.1503 Y0.8448
X1.1504 Y0.8459
X1.1508 Y0.8476
X1.1512 Y0.849
X1.1518 Y0.8504
X1.1524 Y0.8515
X1.1532 Y0.8526
X1.1536 Y0.8532
X1.1541 Y0.8538
X1.1547 Y0.8544
X1.156 Y0.8556
X1.1657 Y0.8643
X1.1664 Y0.8649
X1.1672 Y0.8655
X1.1679 Y0.866
X1.1685 Y0.8664
X1.1692 Y0.8668
X1.1699 Y0.8671
X1.1701
X1.1707 Y0.8674
X1.1714 Y0.8676
X1.1721 Y0.8678
X1.1727 Y0.868
X1.1734 Y0.8682
X1.1741 Y0.8683
X1.1822 Y0.8694
X1.1888 Y0.8778
Y0.8779
X1.1907 Y0.8895
X1.1912 Y0.8923
X1.1915 Y0.8937
X1.1921 Y0.8951
X1.1923 Y0.8956
X1.1929 Y0.8967
X1.1936 Y0.8979
X1.1943 Y0.8988
X1.1951 Y0.8997
X1.1961 Y0.9007
X1.2007 Y0.9054
X1.2015 Y0.9062
X1.2046 Y0.909
Y0.9091
X1.2118 Y0.9185
X1.2132 Y0.9202
X1.2139 Y0.921
X1.2146 Y0.9216
X1.2156 Y0.9224
X1.2166 Y0.923
X1.2174 Y0.9235
X1.2181 Y0.9238
X1.2188 Y0.9241
X1.2195 Y0.9244
X1.2202 Y0.9246
X1.2209 Y0.9248
X1.2216 Y0.925
X1.2223 Y0.9251
X1.223 Y0.9252
X1.2258 Y0.9255
X1.2276 Y0.9257
X1.2277
X1.228 Y0.9258
X1.2286 Y0.9261
X1.2426 Y0.9317
X1.244 Y0.9322
X1.2453 Y0.9327
X1.2467 Y0.9329
X1.2481 Y0.9331
X1.2621 Y0.9349
X1.2649 Y0.9352
X1.2844 Y0.9366
X1.2872 Y0.9368
X1.304 Y0.9379
X1.3068 Y0.9381
X1.3082
X1.3096 Y0.938
X1.3124 Y0.9376
X1.3319 Y0.9346
X1.3347 Y0.9342
X1.3524 Y0.9314
X1.3543 Y0.931
X1.3626 Y0.9293
X1.3654 Y0.9287
X1.3658 Y0.9286
X1.367 Y0.9282
X1.3682 Y0.9277
X1.3696 Y0.9271
X1.3698 Y0.927
X1.3699 Y0.9269
X1.402 Y0.923
X1.4032 Y0.9228
X1.4045 Y0.9226
X1.4052 Y0.9224
X1.4059 Y0.9222
X1.4066 Y0.9219
X1.4073 Y0.9216
X1.4079 Y0.9213
X1.4086 Y0.921
X1.4092 Y0.9206
X1.4098 Y0.9202
X1.4101 Y0.92
X1.4108 Y0.9195
X1.4115 Y0.9189
X1.4122 Y0.9181
X1.4128 Y0.9174
X1.4129 Y0.9173
X1.4149 Y0.9146
X1.4228 Y0.9035
X1.4241 Y0.9015
X1.4246 Y0.9007
X1.4249 Y0.9
X1.4252 Y0.8993
X1.4258 Y0.8979
X1.4297 Y0.8867
X1.4308 Y0.8839
X1.4345 Y0.8754
Y0.8753
X1.4413 Y0.8656
X1.4414 Y0.8655
X1.4415
X1.4422 Y0.8652
X1.4429 Y0.8648
X1.4436 Y0.8644
X1.4437 Y0.8643
X1.4444 Y0.8639
X1.4451 Y0.8634
X1.4457 Y0.8628
X1.4464 Y0.8622
X1.4471 Y0.8615
X1.4492 Y0.8594
X1.4554 Y0.8532
X1.4566 Y0.8519
X1.4571 Y0.8513
X1.4576 Y0.8506
X1.4578 Y0.8504
X1.4582 Y0.8497
X1.4586 Y0.849
X1.459 Y0.8483
X1.4593 Y0.8476
X1.4598 Y0.8462
X1.4602 Y0.8448
X1.4604 Y0.8439
X1.4605 Y0.8429
X1.4606 Y0.842
X1.4605 Y0.8406
X1.4604 Y0.8392
Y0.8391
X1.4601 Y0.8377
X1.4597 Y0.8364
X1.4592 Y0.835
X1.4584 Y0.8336
X1.4576 Y0.8323
X1.4564 Y0.8308
X1.4541 Y0.828
X1.452 Y0.8257
X1.4516 Y0.8252
X1.4492 Y0.8227
X1.449 Y0.8224
X1.4484 Y0.8218
X1.4477 Y0.8213
X1.4328 Y0.8093
X1.4327 Y0.8092
X1.4259 Y0.8029
X1.4241 Y0.8013
X1.4232 Y0.8006
X1.4224 Y0.8001
X1.418 Y0.7973
X1.4157 Y0.7959
X1.4092 Y0.7917
X1.4083 Y0.7911
X1.4073 Y0.7905
X1.4066 Y0.7902
X1.4059 Y0.7899
X1.4045 Y0.7894
X1.4026 Y0.7889
X1.3989 Y0.7879
X1.3962 Y0.7873
X1.3759 Y0.7829
X1.3758 Y0.7828
X1.3682 Y0.7803
X1.3654 Y0.7794
X1.3543 Y0.7762
X1.3536 Y0.776
X1.3529 Y0.7758
X1.3522 Y0.7757
X1.3515 Y0.7756
X1.3459 Y0.7749
X1.3172 Y0.7714
X1.316 Y0.771
X1.315 Y0.7701
X1.3145 Y0.7689
Y0.7677
X1.3208 Y0.7372
X1.321 Y0.736 Z0.8991
X1.3212 Y0.735 Z0.8998
X1.3214 Y0.7343 Z0.9008
Y0.7341 Z0.902
G0 Z1.2139
X1.3132 Y0.9629
Z1.017
G1 Z0.8989 F14.
X1.3127 Y0.964
X1.3119 Y0.9649
X1.3108 Y0.9655
X1.3096
X1.3068 Y0.9656
X1.304 Y0.966
X1.2844 Y0.9693
X1.2733 Y0.9684
X1.2705 Y0.9682
X1.2677
X1.2649 Y0.9688
X1.2621 Y0.9699
X1.2611 Y0.9705
X1.2593 Y0.9718
X1.2578 Y0.9733
X1.2565 Y0.9749
X1.2558 Y0.9761
X1.2545 Y0.9789
X1.2522 Y0.9845
X1.2512 Y0.9873
X1.2509 Y0.9887
X1.2507 Y0.9901
X1.2503 Y0.9929
Y0.9957
X1.2509 Y0.9984
X1.2521 Y1.0012
X1.2537 Y1.004
X1.2558 Y1.0068
X1.2565 Y1.0075
X1.2592 Y1.0096
X1.2621 Y1.0116
X1.2634 Y1.0124
X1.2649 Y1.0132
X1.2677 Y1.0142
X1.2705 Y1.0148
X1.2872 Y1.0184
X1.29 Y1.0189
X1.304 Y1.0219
X1.3068 Y1.0224
X1.3096 Y1.0226
X1.3124 Y1.0222
X1.3152 Y1.0213
X1.3163 Y1.0208
X1.3459 Y1.0075
X1.3472 Y1.0068
X1.3487 Y1.0059
X1.3508 Y1.004
X1.3515 Y1.0033
X1.3529 Y1.0012
X1.3542 Y0.9984
X1.3543 Y0.9983
X1.3549 Y0.9957
X1.3551 Y0.9929
X1.3548 Y0.9901
X1.3543 Y0.9883
X1.3539 Y0.9873
X1.3524 Y0.9845
X1.3515 Y0.9833
X1.3499 Y0.9817
X1.3487 Y0.9807
X1.3459 Y0.979
X1.3455 Y0.9789
X1.3431 Y0.9779
X1.3152 Y0.9669
X1.3124 Y0.966
X1.3096 Y0.9655
X1.3084 Y0.9651
X1.3075 Y0.9643
X1.307 Y0.9631
Y0.9619
G0 Z1.2139
X1.2912 Y1.0418
Z0.9779
G1 Z0.8989 F14.
X1.2914 Y1.0429
X1.2912 Y1.0441
X1.2906 Y1.0452
X1.2896 Y1.0459
X1.2884 Y1.0462
X1.2872 Y1.046
X1.287 Y1.0459
X1.2844 Y1.0455
X1.2817 Y1.0456
X1.2795 Y1.0459
X1.2789 Y1.0461
X1.2761 Y1.0472
X1.2737 Y1.0487
X1.2733 Y1.0491
X1.272 Y1.0503
X1.2709 Y1.0515
X1.2664 Y1.0571
X1.2649 Y1.0592
X1.2645 Y1.0599
X1.2633 Y1.0627
X1.2627 Y1.0655
Y1.0683
X1.2631 Y1.0711
X1.2641 Y1.0739
X1.2649 Y1.0754
X1.2658 Y1.0767
X1.2667 Y1.0777
X1.2677 Y1.0788
X1.2683 Y1.0795
X1.2705 Y1.0815
X1.2715 Y1.0823
X1.2733 Y1.0833
X1.2761 Y1.0847
X1.2769 Y1.0851
X1.2789 Y1.0856
X1.2803 Y1.0858
X1.2817 Y1.0859
X1.283
X1.2844 Y1.0858
X1.2858 Y1.0855
X1.2872 Y1.0851
X1.2873
X1.2886 Y1.0845
X1.29 Y1.0838
X1.2956 Y1.0807
X1.2977 Y1.0795
X1.2984 Y1.079
X1.2991 Y1.0785
X1.2998 Y1.078
X1.3011 Y1.0767
X1.3012 Y1.0766
X1.3032 Y1.0739
X1.304 Y1.0722
X1.3044 Y1.0711
X1.3051 Y1.0683
X1.3052 Y1.0655
X1.3049 Y1.0627
X1.304 Y1.06
Y1.0599
X1.3024 Y1.0571
X1.3012 Y1.0556
X1.2998 Y1.0543
X1.2984 Y1.0532
X1.2956 Y1.051
X1.2928 Y1.0488
Y1.0487
X1.29 Y1.047
X1.2872 Y1.046
X1.2862 Y1.0454
X1.2855 Y1.0444
X1.2852 Y1.0432
X1.2854 Y1.042
X1.286 Y1.0409
X1.287 Y1.0402
G0 Z1.2139
X1.274 Y1.3452
Z0.9611
G1 Z0.8595 F14.
X1.2736 Y1.3463
X1.2728 Y1.3473
X1.2717 Y1.3478
X1.2705 Y1.3479
X1.2691
X1.2677
X1.267 Y1.348
X1.2663 Y1.3481
X1.2649 Y1.3484
X1.2392 Y1.3536
Y1.3537
X1.2391
X1.239
X1.2389
X1.2388
X1.2387 Y1.3538
X1.2385
X1.2384
X1.2382 Y1.3539
X1.238
X1.2377 Y1.354
X1.2373 Y1.3542
X1.237 Y1.3543
X1.2363 Y1.3546
X1.2356 Y1.3549
X1.2342 Y1.3556
X1.2335 Y1.3561
X1.2314 Y1.3578
X1.2304 Y1.3589
X1.2286 Y1.3616
Y1.3617
X1.2274 Y1.3644
X1.2268 Y1.3672
Y1.37
X1.2273 Y1.3728
X1.2283 Y1.3756
X1.2286 Y1.3763
X1.23 Y1.3784
X1.2314 Y1.38
X1.2327 Y1.3812
X1.2342 Y1.3822
X1.237 Y1.3836
X1.2383 Y1.384
X1.2593 Y1.3911
X1.2621 Y1.3918
X1.2649 Y1.3919
X1.2677 Y1.3915
X1.2705 Y1.3906
X1.2724 Y1.3896
X1.2733 Y1.389
X1.276 Y1.3868
X1.2844 Y1.3799
X1.2862 Y1.3784
X1.2872 Y1.3773
X1.2885 Y1.3756
X1.29 Y1.3728
Y1.3727
X1.2908 Y1.37
X1.2911 Y1.3672
X1.2909 Y1.3644
X1.2901 Y1.3617
X1.29 Y1.3614
X1.2895 Y1.3601
X1.2888 Y1.3589
X1.2881 Y1.3578
X1.2872 Y1.3568
X1.2866 Y1.3561
X1.286 Y1.3556
X1.2855 Y1.3551
X1.285 Y1.3547
X1.2844 Y1.3543
X1.284 Y1.354
X1.2836 Y1.3538
X1.2828 Y1.3533
X1.278 Y1.3505
X1.2761 Y1.3494
X1.2747 Y1.3488
X1.2733 Y1.3484
X1.2719 Y1.3481
X1.2705 Y1.3479
X1.2693 Y1.3475
X1.2683 Y1.3466
X1.2678 Y1.3454
Y1.3442
X1.2683 Y1.343
X1.2693 Y1.3421
X1.2705 Y1.3417
X1.2718 Y1.3418
X1.2729 Y1.3424
X1.2963 Y1.3624
X1.2971 Y1.3633
X1.2974 Y1.3644
X1.2973 Y1.3655
X1.2969 Y1.3665
X1.2964 Y1.3672
X1.2956 Y1.3688
X1.2952 Y1.37
X1.2945 Y1.3728
X1.2944 Y1.3756
X1.2938 Y1.398
X1.2937 Y1.4008
X1.294 Y1.4036
X1.295 Y1.4119
X1.2954 Y1.4147
X1.2956 Y1.416
X1.2961 Y1.4175
X1.2975 Y1.4203
X1.3022 Y1.4287
X1.3038 Y1.4315
X1.304 Y1.4317
X1.305 Y1.433
X1.3063 Y1.4343
X1.3068 Y1.4348
X1.3096 Y1.4366
X1.3106 Y1.4371
X1.3124 Y1.4377
X1.3152 Y1.4383
X1.318
X1.3207 Y1.4379
X1.323 Y1.4371
X1.3235 Y1.4368
X1.3263 Y1.4351
X1.3273 Y1.4343
X1.3291 Y1.4323
X1.3297 Y1.4315
X1.3305 Y1.4301
X1.3312 Y1.4287
X1.3349 Y1.4203
X1.3361 Y1.4175
X1.3365 Y1.4161
X1.3368 Y1.4147
X1.3371 Y1.4119
X1.3376 Y1.4064
X1.3378 Y1.4036
X1.3377 Y1.4008
X1.3366 Y1.3756
X1.3364 Y1.3728
X1.3358 Y1.37
X1.3347 Y1.3674
X1.3346 Y1.3672
X1.3338 Y1.3658
X1.3327 Y1.3644
X1.3319 Y1.3637
X1.3307 Y1.3625
X1.3294 Y1.3617
X1.3291 Y1.3615
X1.3263 Y1.3599
X1.3245 Y1.3589
X1.3235 Y1.3583
X1.3221 Y1.3576
X1.3207 Y1.3571
X1.3194 Y1.3568
X1.318 Y1.3565
X1.3166 Y1.3564
X1.3152 Y1.3565
X1.3138 Y1.3566
X1.3124 Y1.3569
X1.311 Y1.3573
X1.3096 Y1.3579
X1.304 Y1.3604
X1.3028 Y1.361
X1.3016 Y1.3617
X1.3012 Y1.3619
X1.2998 Y1.363
X1.2984 Y1.3644
X1.2983
X1.2969 Y1.3665
X1.2962 Y1.3671
X1.2954 Y1.3672
X1.2946 Y1.3669
G0 Z1.2139
X1.312 Y1.2065
Z1.0595
G1 Z0.9808 F14.
Y1.2063 Z0.9796
X1.3122 Y1.2056 Z0.9786
X1.3123 Y1.2046 Z0.9779
X1.3125 Y1.2035 Z0.9776
X1.313 Y1.2007
X1.3134 Y1.1996
X1.3142 Y1.1987
X1.3153 Y1.1982
X1.3166
X1.318 Y1.1983
X1.3194 Y1.1982
X1.3207 Y1.1981
X1.3221 Y1.1978
X1.3235 Y1.1974
X1.325 Y1.1968
X1.3263 Y1.1961
X1.3277 Y1.1952
X1.3284 Y1.1946
X1.3291 Y1.194
X1.3298 Y1.1933
X1.3304 Y1.1926
X1.3316 Y1.1912
X1.3361 Y1.1856
X1.3375 Y1.1838
X1.3381 Y1.1828
X1.3388 Y1.1814
X1.3393 Y1.1801
X1.3402 Y1.1773
X1.3403 Y1.1767
X1.3408 Y1.1745
X1.3414 Y1.1717
X1.3416 Y1.1703
X1.3417 Y1.1689
Y1.1675
X1.3415 Y1.1661
X1.3412 Y1.1647
X1.3407 Y1.1633
X1.3403 Y1.1622
X1.3399 Y1.1614
X1.3394 Y1.1605
X1.3385 Y1.1593
X1.338 Y1.1587
X1.3375 Y1.1581
X1.3372 Y1.1577
X1.3366 Y1.1571
X1.3359 Y1.1566
X1.3353 Y1.1561
X1.3347 Y1.1557
X1.334 Y1.1553
X1.3334 Y1.1549
X1.3326 Y1.1545
X1.3319 Y1.1542
X1.3312 Y1.154
X1.3305 Y1.1537
X1.3298 Y1.1536
X1.3291 Y1.1534
X1.3282 Y1.1532
X1.3281
X1.3263 Y1.1521
X1.3256 Y1.1517
X1.3249 Y1.1514
X1.3242 Y1.1511
X1.3235 Y1.1508
X1.3221 Y1.1504
X1.3207 Y1.1501
X1.3194 Y1.1499
X1.318
X1.3166
X1.3152 Y1.1502
X1.3138 Y1.1505
X1.3124 Y1.151
X1.3113 Y1.1515
X1.3101 Y1.1521
X1.3082 Y1.1533
X1.3081
X1.3068 Y1.1536
X1.3061 Y1.1537
X1.3054 Y1.1539
X1.3047 Y1.1541
X1.304 Y1.1543
X1.3033 Y1.1546
X1.3027 Y1.1549
X1.3019 Y1.1553
X1.3012 Y1.1557
X1.3006 Y1.1561
X1.2999 Y1.1566
X1.2993 Y1.1571
X1.2986 Y1.1577
X1.2984 Y1.1579
X1.2978 Y1.1586
X1.2973 Y1.1592
X1.2963 Y1.1605
X1.2956 Y1.1617
X1.2949 Y1.1633
X1.2944 Y1.1647
X1.2941 Y1.1661
X1.2939 Y1.1675
X1.2938 Y1.1689
X1.2939 Y1.1703
X1.2941 Y1.1717
X1.2948 Y1.1745
X1.2956 Y1.1774
X1.2965 Y1.1801
X1.2971 Y1.1814
X1.2978 Y1.1828
X1.2984 Y1.1839
X1.299 Y1.1848
X1.2998 Y1.1856
X1.3012 Y1.1872
X1.3068 Y1.1931
X1.3077 Y1.194
X1.3086 Y1.1948
X1.3096 Y1.1955
X1.3107 Y1.1962
X1.3118 Y1.1968
X1.3124 Y1.197
X1.3138 Y1.1976
X1.3152 Y1.1979
X1.3166 Y1.1982
X1.3177 Y1.1986
X1.3186 Y1.1994
X1.3191 Y1.2005
Y1.2017
X1.3192 Y1.2029
X1.3196 Y1.204
X1.3205 Y1.2049
X1.3216 Y1.2053
X1.3719 Y1.2159
G3 X1.3713 Y1.245 I-0.003 J0.0145
G1 X1.3712
G3 X1.3666 Y1.2158 Z0.976 I-0.0023 J-0.0146
X1.3712 Y1.245 Z0.9744 I0.0023 J0.0146
X1.3666 Y1.2158 Z0.9728 I-0.0023 J-0.0146
X1.3712 Y1.245 Z0.9711 I0.0023 J0.0146
X1.3666 Y1.2158 Z0.9695 I-0.0023 J-0.0146
X1.3712 Y1.245 Z0.9679 I0.0023 J0.0146
X1.3666 Y1.2158 Z0.9663 I-0.0023 J-0.0146
X1.3712 Y1.245 Z0.9646 I0.0023 J0.0146
X1.3666 Y1.2158 Z0.963 I-0.0023 J-0.0146
X1.3712 Y1.245 Z0.9614 I0.0023 J0.0146
X1.3666 Y1.2158 Z0.9598 I-0.0023 J-0.0146
X1.3712 Y1.245 Z0.9581 I0.0023 J0.0146
X1.3666 Y1.2158 Z0.9565 I-0.0023 J-0.0146
X1.3712 Y1.245 Z0.9549 I0.0023 J0.0146
X1.3666 Y1.2158 Z0.9533 I-0.0023 J-0.0146
X1.3712 Y1.245 Z0.9516 I0.0023 J0.0146
X1.3666 Y1.2158 Z0.95 I-0.0023 J-0.0146
X1.3712 Y1.245 Z0.9484 I0.0023 J0.0146
X1.3666 Y1.2158 Z0.9468 I-0.0023 J-0.0146
X1.3712 Y1.245 Z0.9451 I0.0023 J0.0146
X1.3666 Y1.2158 Z0.9435 I-0.0023 J-0.0146
X1.3712 Y1.245 Z0.9419 I0.0023 J0.0146
X1.3666 Y1.2158 Z0.9403 I-0.0023 J-0.0146
X1.3712 Y1.245 Z0.9386 I0.0023 J0.0146
X1.3612 Y1.2431 Z0.9383 I-0.0023 J-0.0146
G1 X1.3611 Y1.243
X1.3596 Y1.2421
G3 X1.3547 Y1.2215 I0.0078 J-0.0128
G1 X1.3663 Y1.2024
X1.368 Y1.1996
X1.3682 Y1.1992
X1.3693 Y1.1968
X1.3744 Y1.1856
X1.3756 Y1.1828
X1.3762 Y1.1814
X1.3766 Y1.1801
Y1.18
X1.3768 Y1.1786
X1.377 Y1.1773
Y1.1759
X1.3769 Y1.1745
X1.3768 Y1.1743
Y1.1742
X1.3769 Y1.1738
X1.377 Y1.1731
Y1.1717
Y1.1703
X1.3768 Y1.1689
X1.3766 Y1.1681
X1.3763 Y1.1671
X1.376 Y1.1661
X1.3757 Y1.1654
X1.3753 Y1.1647
X1.375 Y1.164
X1.3745 Y1.1633
X1.3738 Y1.1623
X1.3731 Y1.1614
X1.3722 Y1.1605
X1.3716 Y1.1599
X1.371 Y1.1595
X1.3686 Y1.1577
X1.3654 Y1.1554
X1.3647 Y1.1549
X1.3637 Y1.1543
X1.3626 Y1.1538
X1.3619 Y1.1535
X1.3612 Y1.1533
X1.3605 Y1.153
X1.3598 Y1.1529
X1.3543 Y1.1515
X1.3529 Y1.1511
X1.3522 Y1.151
X1.3515 Y1.1509
X1.3508
X1.3501
X1.3376 Y1.1506
X1.3375
X1.3235 Y1.1479
X1.3207 Y1.1473
X1.3201 Y1.1472
X1.3194
X1.3187 Y1.1471
X1.318
X1.3173
X1.3166 Y1.1472
X1.3159
X1.3152 Y1.1474
X1.3124 Y1.1479
X1.297 Y1.1512
X1.2969
X1.2817 Y1.1518
X1.2803 Y1.1519
X1.2796
X1.2789 Y1.152
X1.2784 Y1.1521
X1.2778 Y1.1522
X1.2772 Y1.1524
X1.2733 Y1.1534
X1.2705 Y1.1541
X1.2694 Y1.1545
X1.2684 Y1.1549
X1.2677 Y1.1553
X1.267 Y1.1557
X1.2663 Y1.1561
X1.2649 Y1.1571
X1.2602 Y1.1605
X1.2593 Y1.1611
X1.2588 Y1.1616
X1.2582 Y1.1621
X1.2576 Y1.1627
X1.2571 Y1.1633
X1.2565 Y1.164
X1.2558 Y1.165
X1.2552 Y1.1661
X1.2545 Y1.1675
X1.254 Y1.1689
X1.2537 Y1.17
X1.2534 Y1.1717
X1.2533 Y1.1731
X1.2534 Y1.1745
X1.2535 Y1.1759
X1.2536 Y1.1762
Y1.1763
Y1.1764
Y1.1766
Y1.1773
Y1.1787
X1.2537 Y1.1801
Y1.1804
X1.254 Y1.1816
X1.2543 Y1.1828
X1.2548 Y1.1842
X1.2555 Y1.1856
X1.2643 Y1.2024
X1.2649 Y1.2036
X1.266 Y1.2052
X1.2826 Y1.229
X1.2831 Y1.2297
X1.2836 Y1.2303
X1.2844 Y1.2312
X1.29 Y1.2371
X1.2916 Y1.2387
X1.3055 Y1.2527
X1.3068 Y1.254
X1.3077 Y1.2548
X1.3086 Y1.2555
X1.3096 Y1.2562
X1.311 Y1.2569
X1.3124 Y1.2575
X1.3138 Y1.2579
X1.3152 Y1.2582
X1.3157 Y1.2583
X1.318 Y1.2584
X1.3196 Y1.2583
X1.3207 Y1.2581
X1.3221 Y1.2577
X1.3235 Y1.2572
X1.3249 Y1.2566
X1.3263 Y1.2558
X1.3267 Y1.2555
X1.3279 Y1.2545
X1.3285 Y1.254
X1.3291 Y1.2534
X1.3297 Y1.2527
X1.3431 Y1.2368
X1.3438 Y1.2359
X1.3515 Y1.2265
X1.3521 Y1.2256
X1.3527 Y1.2248
X1.3547 Y1.2215
X1.3555 Y1.2206
X1.3566 Y1.2201
X1.3578 Y1.22
X1.359 Y1.2204
X1.3597 Y1.2208
X1.3989 Y1.2325
G3 X1.397 Y1.2614 I-0.0043 J0.0142
G1 X1.3969
G3 X1.3925 Y1.2321 Z0.9366 I-0.0022 J-0.0147
X1.3969 Y1.2614 Z0.935 I0.0022 J0.0147
X1.3925 Y1.2321 Z0.9334 I-0.0022 J-0.0147
X1.3969 Y1.2614 Z0.9318 I0.0022 J0.0147
X1.3925 Y1.2321 Z0.9301 I-0.0022 J-0.0147
X1.3969 Y1.2614 Z0.9285 I0.0022 J0.0147
X1.3925 Y1.2321 Z0.9269 I-0.0022 J-0.0147
X1.3969 Y1.2614 Z0.9253 I0.0022 J0.0147
X1.3925 Y1.2321 Z0.9236 I-0.0022 J-0.0147
X1.3969 Y1.2614 Z0.922 I0.0022 J0.0147
X1.3925 Y1.2321 Z0.9204 I-0.0022 J-0.0147
X1.3969 Y1.2614 Z0.9188 I0.0022 J0.0147
X1.3925 Y1.2321 Z0.9171 I-0.0022 J-0.0147
X1.3969 Y1.2614 Z0.9155 I0.0022 J0.0147
X1.3925 Y1.2321 Z0.9139 I-0.0022 J-0.0147
X1.3969 Y1.2614 Z0.9123 I0.0022 J0.0147
X1.3925 Y1.2321 Z0.9106 I-0.0022 J-0.0147
X1.3969 Y1.2614 Z0.909 I0.0022 J0.0147
X1.3925 Y1.2321 Z0.9074 I-0.0022 J-0.0147
X1.3969 Y1.2614 Z0.9058 I0.0022 J0.0147
X1.3925 Y1.2321 Z0.9041 I-0.0022 J-0.0147
X1.3969 Y1.2614 Z0.9025 I0.0022 J0.0147
X1.3925 Y1.2321 Z0.9009 I-0.0022 J-0.0147
X1.3969 Y1.2614 Z0.8993 I0.0022 J0.0147
X1.3869 Y1.2594 Z0.8989 I-0.0022 J-0.0147
G1 X1.3868 Y1.2593
X1.3853 Y1.2584
G3 X1.3806 Y1.2377 I0.008 J-0.0127
G1 X1.3822 Y1.2351
X1.3834 Y1.2331
X1.3851 Y1.2303
X1.3868 Y1.2275
X1.3878 Y1.2254
X1.3881 Y1.2248
X1.4055 Y1.1884
X1.4068 Y1.1856
X1.4073 Y1.1841
X1.4076 Y1.1828
X1.4078 Y1.1814
X1.4079 Y1.1801
Y1.1787
X1.4077 Y1.1773
X1.4073 Y1.1747
Y1.1745
X1.4069 Y1.1731
X1.4064 Y1.1717
X1.4054 Y1.1689
X1.405 Y1.168
X1.4045 Y1.167
X1.404 Y1.1661
X1.4035 Y1.1654
X1.403 Y1.1647
X1.4024 Y1.164
X1.4017 Y1.1634
Y1.1633
X1.401 Y1.1627
X1.4003 Y1.1621
X1.3989 Y1.1612
X1.3934 Y1.1573
X1.3927 Y1.1569
X1.392 Y1.1565
X1.3913 Y1.1561
X1.3906 Y1.1558
X1.3864 Y1.1539
X1.3857 Y1.1536
X1.385 Y1.1533
X1.3843 Y1.1531
X1.3836 Y1.1529
X1.3829 Y1.1527
X1.3822 Y1.1526
X1.3794 Y1.1522
X1.3738 Y1.1515
X1.3724 Y1.1513
X1.371 Y1.1512
X1.3607 Y1.151
Y1.1509
X1.3598 Y1.1493
X1.3589 Y1.1479
X1.3584 Y1.1472
X1.3579 Y1.1465
X1.3571 Y1.1456
X1.3565 Y1.1451
X1.3559 Y1.1446
X1.3554 Y1.1441
X1.3548 Y1.1437
X1.3543 Y1.1434
X1.3515 Y1.1418
X1.3498 Y1.1409
X1.3487 Y1.1403
X1.34 Y1.1353
X1.3387 Y1.1347
X1.3381 Y1.1344
X1.3375 Y1.1341
X1.3372 Y1.134
X1.3368 Y1.1338
X1.3365 Y1.1337
X1.3361 Y1.1336
X1.3326 Y1.1325
X1.3325
X1.3323 Y1.1323
X1.3319 Y1.1318
X1.3313 Y1.1312
X1.3307 Y1.1307
X1.33 Y1.1302
X1.3294 Y1.1298
X1.3291 Y1.1296
X1.3284 Y1.1292
X1.3277 Y1.1288
X1.327 Y1.1285
X1.3263 Y1.1282
X1.3256 Y1.128
X1.3249 Y1.1277
X1.3235 Y1.1274
X1.3227 Y1.1273
X1.3225
X1.318 Y1.1252
X1.3167 Y1.1246
X1.3154 Y1.1242
X1.3152 Y1.1241
X1.3138 Y1.1238
X1.3124 Y1.1236
X1.311
X1.3096
X1.3082 Y1.1238
X1.3068 Y1.1242
X1.3054 Y1.1246
X1.304 Y1.1253
X1.2994 Y1.1274
X1.2992
X1.2991
X1.2989 Y1.1275
X1.2984 Y1.1276
X1.297 Y1.1279
X1.2963 Y1.1282
X1.2956 Y1.1284
X1.2943 Y1.129
X1.2937 Y1.1294
X1.293 Y1.1298
X1.2928 Y1.1299
X1.2921 Y1.1304
X1.2914 Y1.131
X1.2907 Y1.1316
X1.29 Y1.1323
X1.2898 Y1.1326
X1.2892 Y1.1333
X1.2891 Y1.1334
X1.2844 Y1.1349
X1.2832 Y1.1353
X1.2828 Y1.1355
X1.2824 Y1.1356
X1.282 Y1.1358
X1.2817 Y1.136
X1.2813 Y1.1362
X1.281 Y1.1364
X1.2803 Y1.1368
X1.2761 Y1.1392
X1.2733 Y1.1408
X1.2677 Y1.1438
X1.2663 Y1.1446
X1.2656 Y1.1451
X1.2649 Y1.1457
X1.2639 Y1.1465
X1.2634 Y1.147
X1.2629 Y1.1476
X1.2621 Y1.1486
X1.2616 Y1.1493
X1.2601 Y1.1521
X1.2598 Y1.1526
X1.2597 Y1.1527
X1.2593
X1.2586 Y1.1528
X1.2579 Y1.1529
X1.2443 Y1.1549
X1.2434 Y1.155
X1.2426 Y1.1552
X1.2419 Y1.1554
X1.2412 Y1.1556
X1.2405 Y1.1559
X1.2398 Y1.1562
X1.2365 Y1.1577
X1.2342 Y1.1588
X1.2314 Y1.1601
X1.2307 Y1.1605
X1.2301 Y1.1608
X1.2296 Y1.1612
X1.2258 Y1.1638
X1.2251 Y1.1643
X1.2244 Y1.1648
X1.2237 Y1.1654
X1.223 Y1.1661
X1.2224 Y1.1668
X1.2218 Y1.1675
X1.2213 Y1.1682
X1.2209 Y1.1689
X1.2202 Y1.1701
X1.2198 Y1.1709
X1.2195 Y1.1717
X1.2185 Y1.1745
X1.2176 Y1.1773
X1.2174 Y1.1778
X1.2172 Y1.1789
X1.217 Y1.1801
X1.2169 Y1.1828
Y1.1842
X1.2171 Y1.1856
X1.2174 Y1.1869
X1.2179 Y1.1884
X1.2185 Y1.1898
X1.2193 Y1.1912
X1.2348 Y1.2192
X1.2363 Y1.222
X1.2398 Y1.2284
X1.2408 Y1.2303
X1.2426 Y1.2328
X1.247 Y1.2387
X1.2481 Y1.2403
X1.2748 Y1.2778
X1.2761 Y1.2796
X1.2844 Y1.2895
X1.2864 Y1.2918
X1.2872 Y1.2926
X1.2879 Y1.2932
X1.2885 Y1.2937
X1.29 Y1.2948
X1.2936 Y1.2974
X1.2956 Y1.299
X1.3068 Y1.3078
X1.3078 Y1.3086
X1.3087 Y1.3091
X1.3096 Y1.3096
X1.311 Y1.3102
X1.3124 Y1.3107
X1.3138 Y1.3111
X1.3152 Y1.3113
X1.3166
X1.318
X1.3194 Y1.3111
X1.3207 Y1.3108
X1.3221 Y1.3103
X1.3235 Y1.3097
X1.3245 Y1.3092
X1.3256 Y1.3086
X1.3263 Y1.308
X1.3288 Y1.3058
X1.3408 Y1.2946
X1.3431 Y1.2926
X1.344 Y1.2918
X1.3459 Y1.2902
X1.3465 Y1.2896
X1.347 Y1.289
X1.3475 Y1.2885
X1.3479 Y1.288
X1.3543 Y1.2794
X1.3554 Y1.2778
X1.3571 Y1.2753
X1.3806 Y1.2377
X1.3814 Y1.2368
X1.3825 Y1.2363
X1.3837
X1.3849 Y1.2367
X1.3855 Y1.237
X1.421 Y1.2496
G3 X1.4173 Y1.2784 I-0.005 J0.014
G1 X1.4172
G3 X1.4148 Y1.2488 Z0.8973 I-0.0012 J-0.0148
X1.4172 Y1.2784 Z0.8956 I0.0012 J0.0148
X1.4148 Y1.2488 Z0.894 I-0.0012 J-0.0148
X1.4172 Y1.2784 Z0.8924 I0.0012 J0.0148
X1.4148 Y1.2488 Z0.8908 I-0.0012 J-0.0148
X1.4172 Y1.2784 Z0.8891 I0.0012 J0.0148
X1.4148 Y1.2488 Z0.8875 I-0.0012 J-0.0148
X1.4172 Y1.2784 Z0.8859 I0.0012 J0.0148
X1.4148 Y1.2488 Z0.8843 I-0.0012 J-0.0148
X1.4172 Y1.2784 Z0.8826 I0.0012 J0.0148
X1.4148 Y1.2488 Z0.881 I-0.0012 J-0.0148
X1.4172 Y1.2784 Z0.8794 I0.0012 J0.0148
X1.4148 Y1.2488 Z0.8778 I-0.0012 J-0.0148
X1.4172 Y1.2784 Z0.8761 I0.0012 J0.0148
X1.4148 Y1.2488 Z0.8745 I-0.0012 J-0.0148
X1.4172 Y1.2784 Z0.8729 I0.0012 J0.0148
X1.4148 Y1.2488 Z0.8713 I-0.0012 J-0.0148
X1.4172 Y1.2784 Z0.8696 I0.0012 J0.0148
X1.4148 Y1.2488 Z0.868 I-0.0012 J-0.0148
X1.4172 Y1.2784 Z0.8664 I0.0012 J0.0148
X1.4148 Y1.2488 Z0.8648 I-0.0012 J-0.0148
X1.4172 Y1.2784 Z0.8631 I0.0012 J0.0148
X1.4148 Y1.2488 Z0.8615 I-0.0012 J-0.0148
X1.4172 Y1.2784 Z0.8599 I0.0012 J0.0148
X1.4074 Y1.2757 Z0.8595 I-0.0012 J-0.0148
G1 X1.4073 Y1.2756
X1.4059 Y1.2746
G3 X1.4026 Y1.2536 I0.0088 J-0.0122
G1 X1.4052 Y1.2499
X1.4062 Y1.2485
X1.4072 Y1.2471
X1.4196 Y1.2303
X1.4205 Y1.2291
X1.4213 Y1.2278
X1.4214 Y1.2275
X1.4227 Y1.2248
X1.4265 Y1.216
X1.4266
X1.4389 Y1.194
X1.4405 Y1.1912
X1.4408 Y1.1905
X1.4413 Y1.1895
X1.4416 Y1.1884
X1.4419 Y1.187
X1.4421 Y1.1856
X1.4422 Y1.1842
Y1.1828
X1.442 Y1.1814
X1.4417 Y1.1801
X1.4413 Y1.1788
X1.4408 Y1.1776
X1.4407 Y1.1773
X1.4393 Y1.1745
X1.4373 Y1.1703
X1.4369 Y1.1696
X1.4365 Y1.1689
X1.4359 Y1.168
X1.4352 Y1.1672
X1.4347 Y1.1666
X1.4342 Y1.1661
X1.4333 Y1.1653
X1.4325 Y1.1646
X1.4319 Y1.1642
X1.4314 Y1.1639
X1.4308 Y1.1636
X1.4303 Y1.1633
X1.4297 Y1.163
X1.4213 Y1.1591
X1.4185 Y1.1579
X1.4157 Y1.1567
X1.415 Y1.1565
X1.4143 Y1.1562
X1.4136 Y1.156
X1.4129 Y1.1559
X1.4122 Y1.1558
X1.4115 Y1.1557
X1.4101 Y1.1555
X1.3989 Y1.1549
X1.3962 Y1.1545
X1.3896 Y1.1536
X1.3895 Y1.1535
X1.3892 Y1.1521
X1.3889 Y1.1507
X1.3883 Y1.1493
X1.3878 Y1.1481
X1.3869 Y1.1465
X1.3822 Y1.1387
X1.3819 Y1.1381
X1.3815 Y1.1374
X1.381 Y1.1367
X1.3805 Y1.136
X1.3799 Y1.1353
X1.3794 Y1.1348
X1.3787 Y1.1341
X1.378 Y1.1335
X1.3774 Y1.133
X1.3767 Y1.1326
X1.3766 Y1.1325
X1.3759 Y1.1321
X1.3752 Y1.1317
X1.3745 Y1.1314
X1.3738 Y1.1311
X1.3731 Y1.1308
X1.3724 Y1.1306
X1.371 Y1.1303
X1.3654 Y1.1293
Y1.1292
X1.3682 Y1.1268
X1.371 Y1.1243
X1.3733 Y1.1222
X1.3734 Y1.1221
X1.3784 Y1.1186
X1.3794 Y1.1179
X1.3799 Y1.1174
X1.3805 Y1.1169
X1.3816 Y1.1158
X1.3989 Y1.0979
X1.4006 Y1.0962
X1.4012 Y1.0955
X1.4017 Y1.0949
X1.4027 Y1.0934
X1.4037 Y1.092
X1.4044 Y1.0906
X1.4045 Y1.0905
X1.4058 Y1.0879
X1.4129 Y1.0724
X1.4135 Y1.0711
X1.4139 Y1.0697
X1.4142 Y1.0683
X1.4166 Y1.0571
X1.417 Y1.0543
X1.4173 Y1.0515
X1.4176 Y1.0487
X1.4177 Y1.0459
X1.4179 Y1.0348
Y1.032
Y1.0306
X1.4177 Y1.0292
X1.4174 Y1.0278
X1.417 Y1.0264
X1.4138 Y1.0167
Y1.0166
X1.4141 Y1.0163
X1.4143 Y1.0159
X1.4152 Y1.0143
X1.4153 Y1.0142
X1.4154 Y1.0141
X1.4157 Y1.0137
X1.4162 Y1.0131
X1.4167 Y1.0124
X1.4176 Y1.011
X1.4181 Y1.0103
X1.4184 Y1.0096
X1.4185 Y1.0095
X1.4188 Y1.0088
X1.4191 Y1.0082
X1.4193 Y1.0075
X1.4195 Y1.0068
X1.4197 Y1.0061
X1.4198 Y1.0054
X1.42 Y1.004
X1.4214 Y0.9948
X1.4246 Y0.9845
X1.4255 Y0.9817
X1.4263 Y0.9789
X1.4266 Y0.9779
X1.4268 Y0.9775
X1.4269 Y0.977
X1.427 Y0.9761
X1.4294 Y0.964
Y0.9639
X1.4341 Y0.951
X1.4345 Y0.9496
X1.4348 Y0.9482
X1.4363 Y0.9398
X1.4369 Y0.937
X1.4393 Y0.9286
X1.4401 Y0.9258
X1.4441 Y0.9146
X1.4446 Y0.9132
X1.4449 Y0.9118
X1.4453 Y0.909
X1.4468 Y0.8976
Y0.8975
X1.4476 Y0.8965
X1.4487 Y0.8951
X1.4492 Y0.8944
X1.4499 Y0.8933
X1.4504 Y0.8923
X1.451 Y0.8909
X1.4514 Y0.8895
X1.4521 Y0.8867
X1.4524 Y0.8854
Y0.8853
X1.4587 Y0.8699
X1.4599 Y0.8671
X1.4604 Y0.8657
X1.4605 Y0.8656
X1.4606
X1.4607 Y0.8657
X1.4611
X1.4618 Y0.8658
X1.4625
X1.4632
X1.4639 Y0.8657
X1.4646
X1.4653 Y0.8656
X1.466 Y0.8654
X1.4667 Y0.8653
X1.4674 Y0.8651
X1.4681 Y0.8648
X1.4688 Y0.8646
X1.4692 Y0.8643
X1.4704 Y0.8637
X1.471 Y0.8634
X1.4716 Y0.863
X1.4725 Y0.8623
X1.4734 Y0.8615
X1.4743 Y0.8605
X1.4771 Y0.8574
X1.4784 Y0.856
X1.481 Y0.8532
X1.4819 Y0.8521
X1.4827 Y0.851
X1.4832 Y0.8504
X1.4836 Y0.8497
X1.4839 Y0.849
X1.4845 Y0.8476
X1.485 Y0.8462
X1.4853 Y0.8448
X1.4855 Y0.8435
Y0.8423
Y0.842
X1.4854 Y0.8406
X1.4852 Y0.8392
X1.4849 Y0.8378
X1.4847 Y0.8371
X1.4844 Y0.8364
X1.4841 Y0.8357
X1.4838 Y0.835
X1.4834 Y0.8343
X1.483 Y0.8336
X1.4827 Y0.8332
X1.4809 Y0.8306
Y0.8305
X1.4798 Y0.828
X1.4792 Y0.8266
X1.4788 Y0.8259
X1.4784 Y0.8252
X1.4778 Y0.8244
X1.4771 Y0.8236
X1.4688 Y0.8133
X1.4671 Y0.8113
X1.4611 Y0.8029
X1.4604 Y0.8019
X1.4596 Y0.801
X1.4587 Y0.8001
X1.4576 Y0.7991
X1.436 Y0.7805
X1.4352 Y0.7799
X1.4325 Y0.7774
X1.4311 Y0.7762
X1.4304 Y0.7757
X1.4297 Y0.7753
X1.4291 Y0.7749
X1.428 Y0.7744
X1.4269 Y0.774
X1.4241 Y0.7729
X1.4171 Y0.7704
X1.4164 Y0.7701
X1.4157 Y0.7699
X1.415 Y0.7697
X1.4143 Y0.7696
X1.4129 Y0.7694
X1.4054 Y0.7683
X1.4053
X1.4038 Y0.7679
X1.4035 Y0.7678
X1.4031 Y0.7677
X1.4028 Y0.7676
X1.4024 Y0.7675
X1.3962 Y0.7662
X1.3934 Y0.7656
X1.3878 Y0.7646
X1.385 Y0.7641
X1.3832 Y0.7638
X1.3766 Y0.7626
X1.3738 Y0.7622
X1.3682 Y0.7613
X1.3658 Y0.761
X1.3654 Y0.7609
X1.3626 Y0.7605
X1.3119 Y0.7526
X1.3096 Y0.7523
X1.3082 Y0.7522
X1.3068 Y0.7523
X1.3045 Y0.7526
X1.2593 Y0.7592
X1.2565 Y0.7596
X1.2509 Y0.7605
X1.2482 Y0.761
X1.2481
X1.2453 Y0.7616
X1.2324 Y0.7645
X1.2323
X1.2132 Y0.767
X1.2125 Y0.7671
X1.2118 Y0.7672
X1.2111 Y0.7673
X1.2104 Y0.7675
X1.2097 Y0.7678
X1.209 Y0.768
X1.1907 Y0.7749
X1.1895 Y0.7754
X1.1839 Y0.7775
X1.1833 Y0.7777
X1.1828 Y0.778
X1.1822 Y0.7783
X1.1817 Y0.7786
X1.1811 Y0.7789
X1.1806 Y0.7793
X1.1801 Y0.7797
X1.179 Y0.7805
X1.1697 Y0.7889
X1.1672 Y0.7912
X1.1532 Y0.8033
X1.1506 Y0.8057
X1.1504 Y0.8059
X1.1498 Y0.8065
X1.1493 Y0.8072
X1.1484 Y0.8085
X1.1384 Y0.8224
X1.1364 Y0.8251
X1.1327 Y0.8297
X1.1323 Y0.8303
X1.1319 Y0.8308
X1.1313 Y0.8318
X1.1308 Y0.8327
X1.1305 Y0.8336
X1.1282 Y0.839
X1.1281 Y0.8391
Y0.8392
X1.128
X1.1276 Y0.8399
X1.1272 Y0.8406
X1.1269 Y0.8413
X1.1266 Y0.842
X1.1261 Y0.8434
X1.1257 Y0.8448
X1.1255 Y0.8462
X1.1254 Y0.8476
Y0.849
X1.1256 Y0.8504
X1.1259 Y0.8518
X1.1263 Y0.8532
X1.1269 Y0.8546
X1.1273 Y0.8553
X1.1277 Y0.856
X1.1281 Y0.8566
X1.1289 Y0.8577
X1.1298 Y0.8588
X1.1308 Y0.8598
X1.1326 Y0.8615
X1.1364 Y0.8654
X1.1382 Y0.8671
X1.1392 Y0.868
X1.1402 Y0.8687
X1.1406 Y0.869
X1.1408 Y0.8691
X1.141 Y0.8692
Y0.8693
X1.1411
X1.1412 Y0.8699
X1.1416 Y0.8711
X1.142 Y0.8723
X1.1422 Y0.8727
X1.1444 Y0.8772
X1.1516 Y0.8953
Y0.8954
X1.1527 Y0.9035
X1.1532 Y0.9062
X1.1556 Y0.9202
X1.156 Y0.9222
X1.1562 Y0.923
X1.1573 Y0.9258
X1.1657 Y0.9454
X1.1663 Y0.9468
X1.1666 Y0.9482
X1.1672 Y0.95
X1.1675 Y0.951
X1.1687 Y0.9537
X1.1699 Y0.9565
Y0.9566
X1.1713 Y0.9593
X1.1784 Y0.9733
X1.1799 Y0.9761
X1.1807 Y0.9776
Y0.9777
X1.1842 Y0.9873
X1.1852 Y0.9901
X1.1863 Y0.9929
X1.1867 Y0.994
X1.1887 Y0.9994
Y0.9995
X1.1896 Y1.004
X1.1899 Y1.0054
X1.1901 Y1.0061
X1.1903 Y1.0068
X1.1905 Y1.0075
X1.1908 Y1.0082
X1.1912 Y1.0089
X1.1915 Y1.0096
X1.1919 Y1.0102
X1.1923 Y1.0108
X1.1935 Y1.0124
X1.1947 Y1.0141
Y1.0142
X1.1945 Y1.0145
X1.1942 Y1.0152
X1.1931 Y1.018
X1.1922 Y1.0208
X1.1917 Y1.0222
X1.1914 Y1.0236
X1.1904 Y1.0292
X1.1899 Y1.032
X1.1895 Y1.0343
X1.1894 Y1.0348
X1.1895 Y1.0376
X1.1899 Y1.0452
Y1.0453
X1.1897 Y1.0487
X1.1895 Y1.0515
Y1.0529
X1.1897 Y1.0543
X1.1899 Y1.0557
X1.1903 Y1.0571
X1.1914 Y1.0599
X1.1942 Y1.0668
X1.1961 Y1.0739
X1.1969 Y1.0767
X1.1979 Y1.0787
X1.2013 Y1.0851
X1.2021 Y1.0865
X1.203 Y1.0879
X1.2083 Y1.0962
X1.209 Y1.0974
X1.2096 Y1.0982
X1.2103 Y1.099
X1.2118 Y1.1007
X1.2155 Y1.1046
X1.2165 Y1.1056
X1.2174 Y1.1064
X1.2307 Y1.1169
X1.2309 Y1.117
X1.2389 Y1.1242
X1.2398 Y1.1249
X1.2405 Y1.1255
X1.2412 Y1.126
X1.2426 Y1.1268
X1.2441 Y1.1277
Y1.1278
X1.2453 Y1.1287
X1.2468 Y1.1298
X1.2485 Y1.1309
X1.2484 Y1.131
X1.2481
X1.2464 Y1.1315
X1.2453 Y1.1318
X1.2445 Y1.1322
X1.2437 Y1.1326
X1.2426 Y1.1332
X1.2419 Y1.1337
X1.2412 Y1.1342
X1.2406 Y1.1347
X1.2399 Y1.1353
X1.2398 Y1.1355
X1.2391 Y1.1361
X1.2386 Y1.1368
X1.2381 Y1.1375
X1.2377 Y1.1381
X1.2337 Y1.1443
X1.2336 Y1.1444
X1.2329 Y1.1451
X1.2323 Y1.1458
X1.2317 Y1.1465
X1.2314 Y1.147
X1.2306 Y1.1482
X1.23 Y1.1493
X1.2295 Y1.1507
X1.229 Y1.1521
X1.2286 Y1.1543
X1.2285 Y1.1549
X1.2282 Y1.1561
X1.228 Y1.1571
X1.2279 Y1.1572
X1.209 Y1.1587
X1.2083 Y1.1588
X1.2076 Y1.1589
X1.2069 Y1.159
X1.2062 Y1.1591
X1.2056 Y1.1593
X1.2049 Y1.1595
X1.2035 Y1.1601
X1.2025 Y1.1605
X1.2007 Y1.1614
X1.1979 Y1.1625
X1.1923 Y1.1648
X1.1895 Y1.1659
X1.1892 Y1.1661
X1.1886 Y1.1664
X1.188 Y1.1668
X1.1867 Y1.1676
X1.1848 Y1.1689
X1.1844 Y1.1692
X1.1839 Y1.1696
X1.1834 Y1.17
X1.1828 Y1.1705
X1.1823 Y1.1711
X1.1818 Y1.1717
X1.1811 Y1.1725
X1.1805 Y1.1735
X1.1799 Y1.1745
X1.1783 Y1.1774
X1.1764 Y1.1801
X1.1759 Y1.1809
X1.1755 Y1.1817
X1.1751 Y1.1828
X1.1747 Y1.1842
X1.1744 Y1.1856
X1.1742 Y1.187
Y1.1884
X1.1743 Y1.1898
X1.1745 Y1.1912
X1.1749 Y1.1926
X1.1753 Y1.194
X1.1755 Y1.1944
X1.1761 Y1.1956
X1.1768 Y1.1968
X1.1783 Y1.199
X1.1979 Y1.2272
X1.1981 Y1.2275
X1.1998 Y1.2303
X1.2007 Y1.2319
X1.2016 Y1.2331
X1.2035 Y1.2354
X1.2039 Y1.2359
X1.2062 Y1.2386
X1.2213 Y1.2555
X1.223 Y1.2575
X1.2261 Y1.2611
X1.2284 Y1.2639
X1.2465 Y1.2862
X1.2481 Y1.2884
X1.2677 Y1.3145
X1.2696 Y1.317
X1.2712 Y1.319
X1.2713 Y1.3191
X1.2733 Y1.3225
X1.2738 Y1.3232
X1.2742 Y1.3239
X1.2754 Y1.3253
X1.2803 Y1.3309
X1.2817 Y1.3324
X1.2902 Y1.3421
X1.2908 Y1.3428
X1.2915 Y1.3434
X1.2922 Y1.344
X1.2928 Y1.3445
X1.2934 Y1.3449
X1.2956 Y1.3462
X1.305 Y1.3511
X1.3051 Y1.3512
X1.3068 Y1.3523
X1.3084 Y1.3533
X1.3096 Y1.3538
X1.311 Y1.3544
X1.3124 Y1.3547
X1.3138 Y1.355
X1.3152 Y1.3551
X1.3166
X1.318 Y1.3549
X1.3194 Y1.3547
X1.3207 Y1.3543
X1.3219 Y1.3538
X1.3231 Y1.3533
X1.3235 Y1.353
X1.3242 Y1.3526
X1.3249 Y1.3521
X1.3263 Y1.351
X1.3277 Y1.3499
X1.3375 Y1.3434
X1.3384 Y1.3428
X1.3393 Y1.3421
X1.3403 Y1.3412
X1.3412 Y1.3402
X1.3419 Y1.3393
X1.3528 Y1.3253
X1.3543 Y1.3234
X1.356 Y1.3211
X1.3565 Y1.3204
X1.357 Y1.3197
X1.3571 Y1.3196
X1.3578 Y1.3183
X1.3582 Y1.3175
X1.3583 Y1.3174
X1.3586 Y1.317
X1.3598 Y1.3151
X1.381 Y1.2834
X1.3822 Y1.2817
X1.4026 Y1.2536
X1.4034 Y1.2528
X1.4046 Y1.2523
X1.4058 Y1.2524
X1.4069 Y1.2529
X1.4073 Y1.2532
X1.4401 Y1.2698
G3 X1.4328 Y1.2978 I-0.0067 J0.0132
G1 X1.4327
G3 X1.4342 Y1.2682 Z0.8579 I0.0007 J-0.0148
X1.4327 Y1.2978 Z0.8563 I-0.0007 J0.0148
X1.4342 Y1.2682 Z0.8547 I0.0007 J-0.0148
X1.4327 Y1.2978 Z0.853 I-0.0007 J0.0148
X1.4342 Y1.2682 Z0.8514 I0.0007 J-0.0148
X1.4327 Y1.2978 Z0.8498 I-0.0007 J0.0148
X1.4342 Y1.2682 Z0.8482 I0.0007 J-0.0148
X1.4327 Y1.2978 Z0.8465 I-0.0007 J0.0148
X1.4342 Y1.2682 Z0.8449 I0.0007 J-0.0148
X1.4327 Y1.2978 Z0.8433 I-0.0007 J0.0148
X1.4342 Y1.2682 Z0.8417 I0.0007 J-0.0148
X1.4327 Y1.2978 Z0.84 I-0.0007 J0.0148
X1.4342 Y1.2682 Z0.8384 I0.0007 J-0.0148
X1.4327 Y1.2978 Z0.8368 I-0.0007 J0.0148
X1.4342 Y1.2682 Z0.8352 I0.0007 J-0.0148
X1.4327 Y1.2978 Z0.8335 I-0.0007 J0.0148
X1.4342 Y1.2682 Z0.8319 I0.0007 J-0.0148
X1.4327 Y1.2978 Z0.8303 I-0.0007 J0.0148
X1.4342 Y1.2682 Z0.8287 I0.0007 J-0.0148
X1.4327 Y1.2978 Z0.827 I-0.0007 J0.0148
X1.4342 Y1.2682 Z0.8254 I0.0007 J-0.0148
X1.4327 Y1.2978 Z0.8238 I-0.0007 J0.0148
X1.4342 Y1.2682 Z0.8222 I0.0007 J-0.0148
X1.4327 Y1.2978 Z0.8205 I-0.0007 J0.0148
X1.4233 Y1.2938 Z0.8202 I0.0007 J-0.0148
G1 X1.4232
X1.422 Y1.2926
G3 X1.4213 Y1.2713 I0.0103 J-0.0109
G1 X1.4337 Y1.2583
X1.4352 Y1.2567
X1.4408 Y1.2517
X1.4429 Y1.2499
X1.4436 Y1.2492
X1.4445 Y1.2481
X1.4453 Y1.2471
X1.4632 Y1.2236
X1.4645 Y1.222
X1.466 Y1.2197
X1.4816 Y1.1968
X1.4827 Y1.1951
X1.4833 Y1.194
X1.4839 Y1.1926
X1.4844 Y1.1912
X1.4847 Y1.1898
X1.4849 Y1.1884
Y1.187
X1.4848 Y1.1856
X1.4846 Y1.1842
X1.4843 Y1.1828
X1.4838 Y1.1814
X1.4832 Y1.1801
X1.4827 Y1.1792
X1.4817 Y1.1773
X1.4809 Y1.176
X1.4799 Y1.1748
X1.4796 Y1.1745
X1.4771 Y1.1717
X1.4764 Y1.171
X1.4757 Y1.1703
X1.475 Y1.1698
X1.4743 Y1.1693
X1.4737 Y1.1689
X1.4716 Y1.1676
X1.4618 Y1.1619
X1.4611 Y1.1615
X1.4607 Y1.1613
X1.4604 Y1.1611
X1.46 Y1.1609
X1.4597 Y1.1608
X1.4594 Y1.1606
X1.459 Y1.1605
X1.4576 Y1.1599
X1.4569 Y1.1597
X1.4562 Y1.1595
X1.4555 Y1.1593
X1.4548 Y1.1592
X1.452 Y1.1588
X1.4298 Y1.157
X1.4297 Y1.1569
Y1.1568
X1.429 Y1.1549
X1.4275 Y1.1521
X1.4269 Y1.1513
X1.425 Y1.1493
X1.4241 Y1.1485
X1.4213 Y1.1468
X1.4206 Y1.1465
X1.4185 Y1.1458
X1.4157 Y1.1454
X1.4129
X1.4101 Y1.1457
X1.4073 Y1.1461
X1.4071 Y1.1462
X1.407
X1.4068
Y1.1461
X1.4147 Y1.1353
X1.4157 Y1.1343
X1.4248 Y1.1242
X1.4269 Y1.1219
X1.4328 Y1.1158
X1.4335 Y1.1151
X1.4341 Y1.1144
X1.4352 Y1.113
X1.4478 Y1.0962
X1.4492 Y1.0943
X1.4498 Y1.0934
X1.4514 Y1.0906
X1.452 Y1.0895
X1.4529 Y1.0879
X1.4663 Y1.0599
X1.4674 Y1.0571
X1.4752 Y1.0348
X1.4761 Y1.032
X1.477 Y1.0292
X1.4775 Y1.0275
X1.4776 Y1.027
X1.4777 Y1.0264
X1.4831 Y1.0012
X1.4837 Y0.9984
X1.484 Y0.9957
X1.4869 Y0.9649
X1.4872 Y0.9621
Y0.9614
Y0.9607
Y0.9593
X1.4868 Y0.9526
Y0.9525
X1.4871 Y0.9482
X1.4873 Y0.9454
X1.492 Y0.9118
X1.4924 Y0.909
Y0.9083
Y0.9076
X1.4923 Y0.9062
X1.4909 Y0.8839
X1.4907 Y0.8811
X1.4892 Y0.8679
Y0.8678
X1.4903 Y0.8671
X1.4911 Y0.8666
X1.4924 Y0.8655
X1.4931 Y0.865
X1.4938 Y0.8643
X1.4939 Y0.8642
X1.4962 Y0.8615
X1.4995 Y0.8578
X1.501 Y0.856
X1.5017 Y0.8549
X1.5023 Y0.8538
X1.5026 Y0.8532
X1.5029 Y0.8525
X1.5031 Y0.8518
X1.5036 Y0.8504
X1.5038 Y0.849
X1.504 Y0.8476
Y0.8462
X1.5039 Y0.8448
X1.5036 Y0.8434
X1.5032 Y0.842
X1.5023 Y0.8392
X1.5002 Y0.8336
X1.4995 Y0.8316
X1.4982 Y0.828
X1.4977 Y0.8266
X1.4973 Y0.8259
X1.497 Y0.8252
X1.4967 Y0.8248
X1.4952 Y0.8224
X1.4855 Y0.8078
X1.4848 Y0.8067
X1.484 Y0.8057
X1.4834 Y0.8049
X1.4827 Y0.8042
X1.4771 Y0.7987
X1.4756 Y0.7973
X1.4548 Y0.7787
X1.4537 Y0.7777
X1.4529 Y0.7771
X1.452 Y0.7765
X1.4513 Y0.7761
X1.4506 Y0.7758
X1.4499 Y0.7754
X1.4492 Y0.7752
X1.4325 Y0.769
X1.4297 Y0.768
X1.379 Y0.7496
X1.3789
X1.3738 Y0.7466
X1.3724 Y0.7458
X1.3717 Y0.7455
X1.371 Y0.7452
X1.3703 Y0.745
X1.3696 Y0.7448
X1.3682 Y0.7445
X1.3664 Y0.7442
X1.3643 Y0.7439
X1.3642
X1.3096 Y0.733
X1.3082 Y0.7328
X1.3068 Y0.7327
X1.3054
X1.304 Y0.7328
X1.3028 Y0.733
X1.2535 Y0.7422
X1.2534
X1.2481 Y0.7427
X1.2453 Y0.7431
X1.244 Y0.7434
X1.2426 Y0.7438
X1.2417 Y0.7442
X1.2407 Y0.7447
X1.2398 Y0.7452
X1.2255 Y0.7536
X1.2254
X1.1811 Y0.7703
X1.1783 Y0.7714
X1.1574 Y0.7793
X1.1567 Y0.7796
X1.156 Y0.7799
X1.1549 Y0.7805
X1.1541 Y0.7811
X1.1532 Y0.7817
X1.1514 Y0.7833
X1.1483 Y0.7861
X1.1476 Y0.7867
X1.1454 Y0.7889
X1.1253 Y0.809
X1.1241 Y0.8101
X1.1236 Y0.8107
X1.1232 Y0.8113
X1.1225 Y0.8122
X1.1213 Y0.814
X1.1141 Y0.8253
X1.1132 Y0.8266
X1.1128 Y0.8273
X1.1124 Y0.828
X1.1121 Y0.8287
X1.1118 Y0.8294
X1.1113 Y0.8308
X1.1085 Y0.8394
X1.1076 Y0.842
X1.1065 Y0.8448
X1.1057 Y0.8474
Y0.8476
X1.1049 Y0.8504
X1.1047 Y0.8518
X1.1046 Y0.8532
Y0.8546
X1.1047 Y0.856
X1.105 Y0.8574
X1.1054 Y0.8588
X1.1057 Y0.8597
X1.1061 Y0.8606
X1.1066 Y0.8615
X1.107 Y0.8622
X1.1075 Y0.8628
X1.108 Y0.8635
X1.1085 Y0.8642
X1.1087 Y0.8643
X1.1113 Y0.8671
X1.1123 Y0.8682
Y0.8683
X1.1117 Y0.8755
X1.1116 Y0.8783
X1.1098 Y0.9328
X1.1097 Y0.9335
Y0.9342
X1.1098 Y0.9349
X1.1099 Y0.9356
X1.1101 Y0.937
X1.1116 Y0.9454
X1.112 Y0.9482
X1.1145 Y0.9741
Y0.9742
X1.1139 Y0.9984
X1.1138 Y1.0012
X1.1141 Y1.0035
X1.1142 Y1.004
X1.1146 Y1.0068
X1.1148 Y1.0075
X1.115 Y1.0082
X1.1155 Y1.0096
X1.1174 Y1.0152
X1.1183 Y1.018
X1.126 Y1.0404
X1.127 Y1.0431
X1.1351 Y1.0627
X1.1364 Y1.0658
X1.1386 Y1.0711
X1.1392 Y1.0725
X1.14 Y1.0739
X1.1448 Y1.0824
X1.1465 Y1.0851
X1.1615 Y1.1074
X1.1616 Y1.1076
X1.1626 Y1.1089
X1.1637 Y1.1102
X1.1687 Y1.1158
X1.1699 Y1.1172
X1.1715 Y1.1186
X1.1776 Y1.1239
X1.1775 Y1.124
X1.1774
X1.1772
X1.1771
X1.1769
X1.1766
X1.1761
X1.1755
X1.1743 Y1.1242
X1.1727 Y1.1245
X1.1699 Y1.1256
X1.1676 Y1.127
X1.1672 Y1.1273
X1.1647 Y1.1298
X1.1644 Y1.1301
X1.1629 Y1.1326
X1.1618 Y1.1353
X1.1616 Y1.1362
X1.1613 Y1.1381
X1.1612 Y1.1409
X1.1616 Y1.143
X1.1618 Y1.1437
X1.1626 Y1.1465
X1.1668 Y1.1605
X1.1672 Y1.1616
X1.1675 Y1.1632
X1.1674
X1.156 Y1.1653
X1.1532 Y1.1658
X1.1528 Y1.166
X1.1523 Y1.1661
X1.1518 Y1.1662
X1.1514 Y1.1664
X1.1504 Y1.1668
X1.1371 Y1.1719
X1.1368 Y1.1721
