;FLAVOR:Marlin
;TIME:272
;Filament used: 0.152034m
;Layer height: 0.1
;Generated with Cura_SteamEngine 1.2.2
M190 S35
M104 S220
M109 S220
G28
G1 Z50.00 F400
G92 E0
G1 F200 E3
G92 E0
M132 X Y Z A
M907 X100 Y100 Z50 A100
;LAYER_COUNT:17
;LAYER:0
M107
G0 F3600 X-1.76 Y11.463 Z0.3
;TYPE:SKIRT
G1 F1500 X-13.798 Y11.54 E0.60059
G1 X-14.416 Y11.504 E0.63147
G1 X-15.025 Y11.389 E0.6624
G1 X-15.614 Y11.196 E0.69332
G1 X-16.172 Y10.929 E0.72418
G1 X-16.692 Y10.592 E0.75509
G1 X-17.165 Y10.192 E0.786
G1 X-17.581 Y9.733 E0.8169
G1 X-17.935 Y9.225 E0.84779
G1 X-18.221 Y8.676 E0.87868
G1 X-18.434 Y8.094 E0.9096
G1 X-18.57 Y7.49 E0.94049
G1 X-18.629 Y6.74 E0.97802
G1 X-18.628 Y-6.749 E1.65099
G1 X-18.588 Y-7.367 E1.68188
G1 X-18.469 Y-7.975 E1.71279
G1 X-18.272 Y-8.563 E1.74373
G1 X-18.002 Y-9.12 E1.77461
G1 X-17.662 Y-9.637 E1.80548
G1 X-17.258 Y-10.107 E1.8364
G1 X-16.797 Y-10.521 E1.86732
G1 X-16.287 Y-10.872 E1.89821
G1 X-15.735 Y-11.154 E1.92913
G1 X-15.152 Y-11.363 E1.96003
G1 X-14.547 Y-11.495 E1.99092
G1 X-13.828 Y-11.549 E2.02689
G1 X2.875 Y-11.548 E2.86021
G1 X3.018 Y-11.546 E2.86735
G1 X6.093 Y-11.454 E3.02083
G1 X13.77 Y-11.548 E3.40386
G1 X14.389 Y-11.515 E3.43479
G1 X14.998 Y-11.403 E3.46568
G1 X15.588 Y-11.214 E3.49659
G1 X16.148 Y-10.951 E3.52746
G1 X16.67 Y-10.617 E3.55837
G1 X17.145 Y-10.219 E3.58929
G1 X17.564 Y-9.763 E3.62019
G1 X17.921 Y-9.257 E3.65108
G1 X18.21 Y-8.709 E3.68199
G1 X18.426 Y-8.129 E3.71287
G1 X18.566 Y-7.525 E3.7438
G1 X18.629 Y-6.748 E3.78269
G1 X18.628 Y6.749 E4.45606
G1 X18.588 Y7.367 E4.48696
G1 X18.469 Y7.975 E4.51787
G1 X18.272 Y8.563 E4.5488
G1 X18.002 Y9.12 E4.57968
G1 X17.662 Y9.637 E4.61056
G1 X17.258 Y10.107 E4.64148
G1 X16.797 Y10.521 E4.67239
G1 X16.287 Y10.872 E4.70328
G1 X15.735 Y11.154 E4.7342
G1 X15.152 Y11.363 E4.7651
G1 X14.547 Y11.495 E4.79599
G1 X13.772 Y11.549 E4.83475
G1 X6.155 Y11.46 E5.21479
G1 X1.377 Y11.547 E5.45321
G1 X1.151 Y11.546 E5.46448
G1 X-1.76 Y11.463 E5.60977
G0 F3600 X-1.751 Y11.062
G1 F1500 X-13.801 Y11.14 E6.21096
G1 X-14.393 Y11.104 E6.24055
G1 X-14.974 Y10.988 E6.27011
G1 X-15.535 Y10.796 E6.29969
G1 X-16.065 Y10.53 E6.32928
G1 X-16.554 Y10.195 E6.35885
G1 X-16.994 Y9.797 E6.38845
G1 X-17.376 Y9.344 E6.41801
G1 X-17.694 Y8.843 E6.44762
G1 X-17.942 Y8.304 E6.47722
G1 X-18.115 Y7.737 E6.50679
G1 X-18.21 Y7.152 E6.53636
G1 X-18.229 Y6.74 E6.55694
G1 X-18.228 Y-6.749 E7.22991
G1 X-18.188 Y-7.341 E7.25951
G1 X-18.069 Y-7.922 E7.2891
G1 X-17.873 Y-8.481 E7.31865
G1 X-17.603 Y-9.009 E7.34824
G1 X-17.265 Y-9.496 E7.37781
G1 X-16.864 Y-9.934 E7.40744
G1 X-16.408 Y-10.313 E7.43702
G1 X-15.906 Y-10.628 E7.46659
G1 X-15.365 Y-10.872 E7.4962
G1 X-14.797 Y-11.041 E7.52576
G1 X-14.211 Y-11.132 E7.55535
G1 X-13.828 Y-11.149 E7.57447
G1 X2.875 Y-11.148 E8.40779
G1 X3.006 Y-11.146 E8.41433
G1 X6.086 Y-11.054 E8.56806
G1 X13.775 Y-11.148 E8.95169
G1 X14.367 Y-11.115 E8.98127
G1 X14.95 Y-11.003 E9.01089
G1 X15.511 Y-10.814 E9.04042
G1 X16.043 Y-10.55 E9.07005
G1 X16.534 Y-10.218 E9.09962
G1 X16.976 Y-9.823 E9.1292
G1 X17.361 Y-9.372 E9.15878
G1 X17.682 Y-8.873 E9.18838
G1 X17.932 Y-8.336 E9.21794
G1 X18.109 Y-7.77 E9.24752
G1 X18.207 Y-7.185 E9.27711
G1 X18.229 Y-6.748 E9.29894
G1 X18.228 Y6.749 E9.97231
G1 X18.188 Y7.341 E10.00191
G1 X18.069 Y7.922 E10.0315
G1 X17.873 Y8.481 E10.06106
G1 X17.603 Y9.009 E10.09064
G1 X17.265 Y9.496 E10.12022
G1 X16.864 Y9.934 E10.14984
G1 X16.408 Y10.313 E10.17943
G1 X15.906 Y10.628 E10.20899
G1 X15.365 Y10.872 E10.2386
G1 X14.797 Y11.041 E10.26817
G1 X14.211 Y11.132 E10.29775
G1 X13.776 Y11.149 E10.31947
G1 X6.152 Y11.06 E10.69986
G1 X1.369 Y11.147 E10.93852
G1 X1.163 Y11.146 E10.9488
G1 X-1.751 Y11.062 E11.09424
G0 F3600 X-1.742 Y10.662
G1 F1500 X-13.803 Y10.74 E11.69598
G1 X-14.367 Y10.704 E11.72418
G1 X-14.921 Y10.588 E11.75241
G1 X-15.452 Y10.396 E11.78059
G1 X-15.952 Y10.13 E11.80884
G1 X-16.408 Y9.797 E11.83701
G1 X-16.814 Y9.403 E11.86524
G1 X-17.159 Y8.956 E11.89341
G1 X-17.438 Y8.464 E11.92162
G1 X-17.645 Y7.938 E11.94983
G1 X-17.776 Y7.388 E11.97803
G1 X-17.829 Y6.74 E12.01047
G1 X-17.828 Y-6.749 E12.68344
G1 X-17.788 Y-7.313 E12.71165
G1 X-17.669 Y-7.866 E12.73987
G1 X-17.473 Y-8.396 E12.76806
G1 X-17.204 Y-8.894 E12.7963
G1 X-16.868 Y-9.348 E12.82448
G1 X-16.472 Y-9.751 E12.85267
G1 X-16.022 Y-10.094 E12.88089
G1 X-15.529 Y-10.37 E12.90908
G1 X-15.001 Y-10.573 E12.9373
G1 X-14.45 Y-10.7 E12.96551
G1 X-13.828 Y-10.749 E12.99664
G1 X2.875 Y-10.748 E13.82996
G1 X2.994 Y-10.746 E13.8359
G1 X6.079 Y-10.654 E13.98988
G1 X13.78 Y-10.748 E14.37411
G1 X14.344 Y-10.715 E14.40229
G1 X14.899 Y-10.602 E14.43055
G1 X15.431 Y-10.413 E14.45872
G1 X15.932 Y-10.151 E14.48693
G1 X16.391 Y-9.82 E14.51516
G1 X16.798 Y-9.428 E14.54335
G1 X17.146 Y-8.983 E14.57153
G1 X17.428 Y-8.493 E14.59974
G1 X17.638 Y-7.968 E14.62795
G1 X17.772 Y-7.419 E14.65614
G1 X17.829 Y-6.748 E14.68974
G1 X17.828 Y6.749 E15.36311
G1 X17.788 Y7.313 E15.39132
G1 X17.669 Y7.866 E15.41954
G1 X17.473 Y8.396 E15.44773
G1 X17.204 Y8.894 E15.47597
G1 X16.868 Y9.348 E15.50415
G1 X16.472 Y9.751 E15.53233
G1 X16.022 Y10.094 E15.56056
G1 X15.529 Y10.37 E15.58875
G1 X15.001 Y10.573 E15.61697
G1 X14.45 Y10.7 E15.64518
G1 X13.781 Y10.749 E15.67865
G1 X6.15 Y10.659 E16.05939
G1 X1.362 Y10.747 E16.2983
G1 X1.174 Y10.746 E16.30768
G1 X-1.742 Y10.662 E16.45322
G0 F3600 X-1.761 Y10.262
G1 F1500 X-13.806 Y10.34 E17.05416
G1 X-14.341 Y10.303 E17.08092
G1 X-14.865 Y10.188 E17.10768
G1 X-15.365 Y9.996 E17.1344
G1 X-15.832 Y9.731 E17.16119
G1 X-16.254 Y9.401 E17.18792
G1 X-16.622 Y9.011 E17.21467
G1 X-16.929 Y8.571 E17.24144
G1 X-17.166 Y8.09 E17.26819
G1 X-17.33 Y7.579 E17.29496
G1 X-17.416 Y7.05 E17.3217
G1 X-17.429 Y6.74 E17.33718
G1 X-17.428 Y-6.749 E18.01015
G1 X-17.388 Y-7.284 E18.03692
G1 X-17.269 Y-7.807 E18.06368
G1 X-17.074 Y-8.306 E18.0904
G1 X-16.806 Y-8.771 E18.11718
G1 X-16.473 Y-9.191 E18.14392
G1 X-16.081 Y-9.557 E18.17068
G1 X-15.639 Y-9.861 E18.19744
G1 X-15.156 Y-10.095 E18.22422
G1 X-14.644 Y-10.255 E18.25098
G1 X-14.114 Y-10.338 E18.27774
G1 X-13.828 Y-10.349 E18.29202
G1 X2.875 Y-10.348 E19.12534
G1 X2.982 Y-10.346 E19.13068
G1 X6.072 Y-10.254 E19.28491
G1 X13.785 Y-10.348 E19.66974
G1 X14.32 Y-10.314 E19.69648
G1 X14.845 Y-10.202 E19.72326
G1 X15.346 Y-10.013 E19.74998
G1 X15.815 Y-9.751 E19.77678
G1 X16.239 Y-9.423 E19.80353
G1 X16.609 Y-9.035 E19.83027
G1 X16.918 Y-8.597 E19.85702
G1 X17.158 Y-8.117 E19.88379
G1 X17.325 Y-7.607 E19.91056
G1 X17.414 Y-7.079 E19.93728
G1 X17.429 Y-6.748 E19.95381
G1 X17.428 Y6.749 E20.62718
G1 X17.388 Y7.284 E20.65394
G1 X17.269 Y7.807 E20.6807
G1 X17.074 Y8.306 E20.70743
G1 X16.806 Y8.771 E20.73421
G1 X16.473 Y9.191 E20.76095
G1 X16.081 Y9.557 E20.7877
G1 X15.639 Y9.861 E20.81447
G1 X15.156 Y10.095 E20.84124
G1 X14.644 Y10.255 E20.868
G1 X14.114 Y10.338 E20.89477
G1 X13.786 Y10.349 E20.91114
G1 X6.147 Y10.259 E21.29228
G1 X1.355 Y10.347 E21.53139
G1 X1.186 Y10.347 E21.53982
G1 X-1.761 Y10.262 E21.68691
G0 F3600 X-1.753 Y9.862
G1 F1500 X-13.808 Y9.94 E22.28835
G1 X-14.313 Y9.903 E22.31361
G1 X-14.805 Y9.788 E22.33882
G1 X-15.273 Y9.596 E22.36406
G1 X-15.704 Y9.333 E22.38925
G1 X-16.089 Y9.005 E22.41448
G1 X-16.418 Y8.621 E22.43971
G1 X-16.682 Y8.19 E22.46492
G1 X-16.875 Y7.722 E22.49018
G1 X-16.991 Y7.23 E22.5154
G1 X-17.029 Y6.74 E22.53992
G1 X-17.028 Y-6.749 E23.21289
G1 X-16.988 Y-7.253 E23.23811
G1 X-16.869 Y-7.745 E23.26337
G1 X-16.674 Y-8.211 E23.28857
G1 X-16.409 Y-8.641 E23.31377
G1 X-16.078 Y-9.024 E23.33902
G1 X-15.692 Y-9.35 E23.36423
G1 X-15.259 Y-9.611 E23.38945
G1 X-14.79 Y-9.801 E23.4147
G1 X-14.298 Y-9.914 E23.43988
G1 X-13.828 Y-9.949 E23.4634
G1 X2.875 Y-9.948 E24.29671
G1 X2.971 Y-9.947 E24.3015
G1 X6.089 Y-9.854 E24.45713
G1 X13.79 Y-9.948 E24.84136
G1 X14.294 Y-9.914 E24.86656
G1 X14.787 Y-9.801 E24.8918
G1 X15.256 Y-9.612 E24.91703
G1 X15.689 Y-9.352 E24.94222
G1 X16.076 Y-9.026 E24.96747
G1 X16.407 Y-8.644 E24.99269
G1 X16.673 Y-8.214 E25.01791
G1 X16.869 Y-7.748 E25.04313
G1 X16.988 Y-7.257 E25.06834
G1 X17.029 Y-6.748 E25.09381
G1 X17.028 Y6.749 E25.76718
G1 X16.988 Y7.253 E25.79241
G1 X16.869 Y7.745 E25.81766
G1 X16.674 Y8.211 E25.84286
G1 X16.409 Y8.641 E25.86806
G1 X16.078 Y9.024 E25.89332
G1 X15.692 Y9.35 E25.91852
G1 X15.259 Y9.611 E25.94375
G1 X14.79 Y9.801 E25.96899
G1 X14.298 Y9.914 E25.99418
G1 X13.79 Y9.949 E26.01958
G1 X6.144 Y9.859 E26.40107
G1 X1.347 Y9.947 E26.64043
G1 X1.197 Y9.947 E26.64792
G1 X-1.753 Y9.862 E26.79515
G1 F1500 E24.79515
G0 F3600 X1.889 Y7.423
G0 X1.889 Y6.144
G0 X2.275 Y5.732
;TYPE:WALL-INNER
G1 F1500 E26.8783
G1 X2.275 Y5.702 E26.8798
G1 X2.437 Y5.732 E26.88458
G1 X2.425 Y5.758
G1 X2.275 Y5.758
G1 X2.275 Y5.732
G1 F1500 E24.88458
G0 F3600 X2.998 Y5.442
G0 X4.157 Y5.974
G0 X10.907 Y5.957
G0 X12.072 Y5.438
G0 X12.826 Y5.693
G1 F1500 E26.96773
G1 X12.838 Y5.69 E26.96835
G1 X12.838 Y5.729 E26.969
G1 X12.838 Y5.758 E26.96971
G1 X12.639 Y5.758
G1 X12.626 Y5.729 E26.97056
G1 X12.826 Y5.693
G0 F3600 X12.818 Y5.287
G1 F1500 X12.818 Y1.287 E27.17012
G1 X12.775 Y-1.968 E27.33253
G1 X12.775 Y-6.158 E27.54157
G1 X13.238 Y-6.158 E27.56467
G1 X13.238 Y6.158 E28.17912
G1 X12.38 Y6.158 E28.22192
G1 X12.158 Y5.66 E28.24913
G1 X12.055 Y5.429 E28.26174
G1 X12.303 Y5.383 E28.26938
G1 X12.818 Y5.287 E28.29552
G1 F1500 E26.29552
G0 F3600 X12.894 Y5.35
G0 X12.838 Y1.287
G0 X11.553 Y1.29
G0 X11.083 Y0.067
G0 X9.889 Y0.559
G1 F1500 E28.37867
G1 X9.725 Y0.19 E28.39882
G1 X9.371 Y-.646 E28.44411
G1 X9.225 Y-.99 E28.46275
G1 X9.171 Y-1.133 E28.47038
G1 X9.233 Y-.995
G1 X9.389 Y-.654
G1 X9.752 Y0.178 E28.47305
G1 X9.913 Y0.547 E28.47438
G1 X10.244 Y1.356 E28.51799
G1 X9.889 Y0.559 E28.51936
G1 F1500 E26.51936
G0 F3600 X8.621 Y0.815
G0 X7.114 Y-.521
G0 X5.935 Y-1.03
G0 X5.861 Y-1.06
G0 X5.953 Y-1.023
G1 F1500 E28.60251
G1 X5.771 Y-.6 E28.62548
G1 X5.437 Y0.175 E28.66759
G1 X5.243 Y0.597 E28.69076
G1 X4.699 Y1.778 E28.75563
G1 X4.302 Y2.639 E28.80293
G1 X4.643 Y1.753 E28.80659
G1 X5.136 Y0.549 E28.82107
G1 X5.321 Y0.125 E28.82803
G1 X5.658 Y-.648 E28.84105
G1 X5.85 Y-1.069 E28.84782
G1 X6.382 Y-2.233 E28.91167
G1 X6.585 Y-2.677 E28.93603
G1 X6.419 Y-2.216 E28.93728
G1 X5.953 Y-1.023 E28.94944
G1 F1500 E26.94944
G0 F3600 X5.861 Y-1.06
G0 X5.676 Y-.64
G0 X4.498 Y-1.153
G0 X3.522 Y-.667
G0 X2.237 Y-.681
G0 X2.174 Y-2.136
G0 X2.274 Y-2.136
G1 F1500 E29.03259
G1 X2.236 Y1.067 E29.1924
G1 X2.232 Y5.287 E29.40293
G1 X2.256 Y5.291 E29.40415
G1 X2.764 Y5.386 E29.42993
G1 X3.015 Y5.433 E29.44267
G1 X2.908 Y5.665 E29.45039
G1 X2.681 Y6.158 E29.47747
G1 X1.875 Y6.158 E29.51768
G1 X1.875 Y5.312 E29.55989
G1 X1.875 Y5.287 E29.56109
G1 X1.875 Y1.067 E29.75004
G1 X1.875 Y-2.136 E29.90185
G1 X1.875 Y-6.158 E30.10251
G1 X2.274 Y-6.158 E30.12242
G1 X2.274 Y-2.136 E30.32257
G1 F1500 E28.32257
G0 F3600 X2.174 Y-2.136
G0 X2.254 Y-4.426
G0 X3.539 Y-4.426
G0 X6.195 Y-4.869
G0 X7.356 Y-4.341
G0 X7.493 Y-4.426
G0 X7.402 Y-4.468
G1 F1500 E30.40572
G1 X7.525 Y-4.737 E30.42048
G1 X7.646 Y-4.472 E30.42331
G1 X7.712 Y-4.328 E30.42901
G1 X7.34 Y-4.331 E30.43734
G1 X7.402 Y-4.468
G0 F3600 X7.46 Y-3.93
;TYPE:WALL-OUTER
G1 F1500 X7.405 Y-3.775 E30.44554
G1 X6.791 Y-2.071 E30.53591
G1 X6.326 Y-.878 E30.59979
G1 X5.8 Y0.342 E30.66607
G1 X2.937 Y6.558 E31.0075
G1 X1.475 Y6.558 E31.08044
G1 X1.475 Y-6.558 E31.7348
G1 X2.674 Y-6.558 E31.79462
G1 X2.674 Y-2.131 E32.01548
G1 X2.636 Y1.07 E32.17519
G1 X2.632 Y4.772 E32.35988
G1 X2.632 Y4.955 E32.36901
G1 X2.959 Y5.016 E32.38561
G1 X3.024 Y4.846 E32.39393
G1 X4.273 Y1.601 E32.5674
G1 X4.769 Y0.389 E32.63274
G1 X5.294 Y-.814 E32.69822
G1 X7.344 Y-5.302 E32.94438
G1 X7.525 Y-5.7 E32.96619
G1 X7.706 Y-5.302 E32.97807
G1 X9.756 Y-.814 E33.22423
G1 X10.279 Y0.387 E33.28959
G1 X10.774 Y1.597 E33.35481
G1 X12.026 Y4.847 E33.52857
G1 X12.091 Y5.016 E33.5376
G1 X12.418 Y4.955 E33.5542
G1 X12.418 Y4.773 E33.56252
G1 X12.418 Y1.29 E33.73629
G1 X12.375 Y-1.968 E33.89885
G1 X12.375 Y-6.558 E34.12784
G1 X13.638 Y-6.558 E34.19085
G1 X13.638 Y6.558 E34.84521
G1 X12.12 Y6.558 E34.92095
G1 X9.36 Y0.353 E35.25976
G1 X8.851 Y-.848 E35.32484
G1 X8.389 Y-2.062 E35.38964
G1 X7.796 Y-3.773 E35.47998
G1 X7.743 Y-3.928 E35.48702
G1 X7.46 Y-3.93 E35.50114
G0 F3600 X7.405 Y-3.775
G0 X7.393 Y-3.742
G0 X7.098 Y-3.932
G1 F1500 X7.221 Y-4.09 E35.50851
G0 F3600 X7.016 Y-3.73
G1 F1500 X6.934 Y-3.53 E35.51835
G1 X6.852 Y-3.328 E35.52876
G1 X6.771 Y-3.127 E35.5396
G1 X6.689 Y-2.926 E35.55095
G1 F1500 E33.55095
G0 F3600 X6.546 Y-2.586
G0 X6.578 Y-2.659
G0 X7.356 Y-4.341
G0 X7.629 Y-4.382
G0 X8.301 Y-3.294
G1 F1500 E35.6341
G1 X8.495 Y-2.817 E35.65246
G0 F3600 X8.883 Y-1.864
G1 F1500 X8.921 Y-1.543 E35.67399
G0 F3600 X9.015 Y-2.015
;TYPE:SKIN
G1 F1500 X8.363 Y-2.667 E35.69699
G1 F1500 E33.69699
G0 F3600 X7.696 Y-4.338
G0 X7.629 Y-4.382
G0 X8.107 Y-3.771
G1 F1500 E35.78014
G1 X8.03 Y-4.131 E35.78809
G0 F3600 X7.629 Y-4.382
G0 X7.525 Y-4.637
G0 X7.479 Y-4.964
G1 F1500 X7.546 Y-5.18 E35.79192
G1 F1500 E33.79192
G0 F3600 X7.525 Y-4.637
G0 X7.696 Y-4.338
G0 X8.855 Y-4.869
G0 X10.362 Y-1.569
G0 X8.854 Y-1.327
G1 F1500 E35.87507
G1 X8.962 Y-1.219 E35.87888
G1 F1500 E33.87888
G0 F3600 X8.044 Y-.537
G0 X9.049 Y1.779
G0 X10.205 Y1.264
G0 X10.281 Y1.513
G1 F1500 E35.96204
G1 X10.723 Y1.955 E35.97763
G0 F3600 X10.347 Y2.144
G1 F1500 X11.079 Y2.877 E36.00347
G0 F3600 X10.8 Y3.163
G1 F1500 X11.434 Y3.797 E36.02583
G0 F3600 X11.52 Y4.449
G1 F1500 X11.723 Y4.934 E36.04387
G1 X11.76 Y5.255 E36.05443
G0 F3600 X12.143 Y5.475
G0 X11.612 Y4.258
G1 F1500 X11.026 Y3.672 E36.0751
G0 F3600 X11.257 Y3.337
G1 F1500 X10.573 Y2.653 E36.09923
G0 F3600 X10.901 Y2.416
G1 F1500 X10.12 Y1.634 E36.1268
G0 F3600 X10.48 Y1.429
G1 F1500 X10.54 Y1.489 E36.12892
G1 F1500 E34.12892
G0 F3600 X10.205 Y1.264
G0 X11.376 Y0.785
G0 X11.553 Y1.247
G0 X12.818 Y1.23
G0 X12.982 Y0.537
G0 X12.998 Y0.553
G1 F1500 E36.21207
G1 X13.02 Y0.292 E36.21409
G1 X13.018 Y0.007 E36.21711
G1 X13.016 Y-.276 E36.22022
G1 X13.014 Y-.561 E36.22349
G1 X13.012 Y-.845 E36.22689
G1 X13.01 Y-1.13 E36.23045
G1 X13.008 Y-1.415 E36.23414
G1 X13.006 Y-1.7 E36.23798
G1 X13.005 Y-1.985 E36.24193
G1 X13.005 Y-2.267 E36.24594
G1 X13.005 Y-2.55 E36.24996
G1 X13.005 Y-2.833 E36.25399
G1 X13.005 Y-3.116 E36.25801
G1 X13.005 Y-3.399 E36.26203
G1 X13.005 Y-3.682 E36.26606
G1 X13.004 Y-3.965 E36.27005
G1 X13.004 Y-4.248 E36.2741
G1 X13.004 Y-4.53 E36.27815
G1 X13.004 Y-4.813 E36.28221
G1 X13.004 Y-5.096 E36.28627
G1 X13.004 Y-5.379 E36.29033
G1 X13.004 Y-5.662 E36.29439
G1 X13.014 Y-5.935 E36.29807
G1 F1500 E34.29807
G0 F3600 X12.967 Y-5.982
G0 X13.218 Y2.547
G0 X14.503 Y2.547
G0 X14.499 Y6.915
G0 X13.995 Y7.419
G0 X11.865 Y7.421
G0 X11.435 Y7.141
G0 X6.603 Y0.663
G0 X5.419 Y0.167
G0 X4.341 Y2.547
G0 X4.282 Y2.868
G1 F1500 E36.38122
G1 X4.142 Y3.01 E36.39079
G1 X4.058 Y3.209 E36.40203
G1 X3.973 Y3.408 E36.41293
G1 X3.89 Y3.607 E36.42339
G1 X3.806 Y3.806 E36.43352
G1 X3.722 Y4.004 E36.44323
G1 X3.638 Y4.204 E36.45265
G1 X3.554 Y4.402 E36.46161
G1 X3.47 Y4.602 E36.47032
G1 X3.386 Y4.8 E36.47853
G1 X3.302 Y4.999 E36.48637
G1 X3.218 Y5.198 E36.49383
G0 F3600 X2.632 Y5.768
G1 F1500 E34.49383
G0 F3600 X2.202 Y5.312
G0 X1.895 Y3.711
G0 X0.61 Y3.711
G0 X-2.496 Y3.237
G0 X-3.772 Y3.097
G0 X-3.95 Y3.711
G0 X-3.854 Y3.735
;TYPE:WALL-INNER
G1 F1500 E36.57698
G1 X-3.952 Y4.056 E36.59373
G1 X-4.071 Y4.339 E36.60904
G1 X-4.216 Y4.605 E36.62416
G1 X-4.394 Y4.862 E36.63975
G1 X-4.595 Y5.09 E36.65492
G1 X-4.821 Y5.298 E36.67024
G1 X-5.068 Y5.481 E36.68558
G1 X-5.338 Y5.643 E36.70129
G1 X-5.627 Y5.783 E36.71731
G1 X-5.922 Y5.897 E36.73309
G1 X-6.255 Y5.996 E36.75042
G1 X-6.552 Y6.061 E36.76559
G1 X-6.577 Y6.067 E36.76687
G1 X-6.9 Y6.116 E36.78317
G1 X-6.917 Y6.119 E36.78403
G1 X-7.23 Y6.147 E36.79971
G1 X-7.288 Y6.148 E36.8026
G1 X-7.606 Y6.158 E36.81847
G1 X-7.644 Y6.158 E36.82037
G1 X-12.775 Y6.158 E37.07636
G1 X-13.238 Y6.158 E37.09946
G1 X-13.238 Y-6.158 E37.7139
G1 X-12.775 Y-6.158 E37.737
G1 X-12.775 Y-.824 E38.00312
G1 X-7.765 Y-.824 E38.25307
G1 X-7.738 Y-.88 E38.25617
G1 X-5.12 Y-6.158 E38.5501
G1 X-4.817 Y-6.158 E38.56522
G1 X-4.815 Y-6.158 E38.56532
G1 X-4.496 Y-6.158 E38.58123
G1 X-4.637 Y-5.871 E38.59041
