(1001)
(T2  D=0.0312 CR=0. - ZMIN=0.0289 - FLAT END MILL)
G0 G90 G94 G17
G20
G53 G0 Z0.

(ADAPTIVE4)
M5
M9
T2
S16500 M3
G4 P4.
G55
M8
G0 X0.0203 Y-0.0377
Z0.7267
Z0.333
Z0.1268
G1 Z0.1237 F14.
X0.0204 Y-0.0375 Z0.1225
X0.0206 Y-0.0368 Z0.1215
X0.0208 Y-0.0358 Z0.1208
X0.0211 Y-0.0347 Z0.1206
G3 X0.0299 Y0.0265 I-0.2781 J0.0712
G1 Y0.0324
X0.0261 Y0.0509
X0.0269 Y0.0698
X0.0268 Y0.0887
Y0.1076
Y1.9955
Y2.6091
X0.0273 Y2.6114
X0.0296 Y2.6155
X0.0332 Y2.6186
X0.0415 Y2.6231
X0.06 Y2.627
X0.0788 Y2.6262
X0.0977 Y2.6264
X0.1166 Y2.6263
X1.3815
X3.3638
X3.7178
X3.7202
X3.7224 Y2.6255
X3.7262 Y2.6228
X3.7291 Y2.619
X3.7333 Y2.6105
X3.7368 Y2.592
X3.736 Y2.5731
X3.7362 Y2.5542
X3.7361 Y2.5354
X3.7362 Y1.0061
Y0.0598
X3.7355 Y0.0576
X3.733 Y0.0535
X3.7294 Y0.0505
X3.7211 Y0.0461
X3.7025 Y0.0423
X3.6837 Y0.0431
X3.6648 Y0.0429
X3.6459 Y0.043
X2.702
X0.7196
X0.0565
X0.0542 Y0.0435
X0.0521 Y0.0446
X0.0484 Y0.0475
X0.0457 Y0.0513
X0.0419 Y0.06
X0.0388 Y0.0786
X0.0393 Y0.0975
Y0.1164
Y0.4777
X0.0392 Y0.4789
X0.0389 Y0.4801
X0.0384 Y0.4812
X0.0373 Y0.4832
X0.0355 Y0.4875
X0.0349 Y0.4896
X0.0344 Y0.4918
X0.0339 Y0.4961
X0.0337 Y0.5089
Y1.1481
X0.0338 Y1.1609
X0.034 Y1.1652
X0.0344 Y1.1675
X0.0348 Y1.1695
X0.0355 Y1.1716
X0.0372 Y1.1773
X0.0384 Y1.1859
X0.0395 Y1.2048
X0.0392 Y1.2236
X0.0393 Y1.2425
Y1.4876
X0.0392 Y1.4889
X0.0389 Y1.4901
X0.0383 Y1.4912
X0.0363 Y1.4955
X0.0355 Y1.4976
X0.0348 Y1.4998
X0.0344 Y1.5017
X0.034 Y1.5041
X0.0338 Y1.5084
X0.0337 Y1.5212
Y2.1604
X0.0339 Y2.1732
X0.0344 Y2.1776
X0.0349 Y2.1797
X0.0355 Y2.1818
X0.0372 Y2.1875
X0.0384 Y2.196
X0.0395 Y2.2148
X0.0392 Y2.2337
X0.0393 Y2.2526
Y2.5924
X0.0396 Y2.5948
X0.041 Y2.5993
X0.0439 Y2.603
X0.0475 Y2.6061
X0.0556 Y2.6109
X0.0741 Y2.6146
X0.0929 Y2.6136
X0.1118 Y2.6139
X0.1307 Y2.6138
X0.1722
X0.1735 Y2.614
X0.1748 Y2.6143
X0.176 Y2.6149
X0.1803 Y2.6171
X0.1846 Y2.6186
X0.1877 Y2.6193
X0.1889 Y2.6195
X0.1932 Y2.6198
X0.1974 Y2.6199
X0.8882
X0.8925
X0.8968 Y2.6198
X0.9002 Y2.6193
X0.9011 Y2.6192
X0.9032 Y2.6187
X0.9054 Y2.618
X0.9067 Y2.6175
X0.9122 Y2.6154
X0.924 Y2.6142
X0.9429 Y2.6138
X0.9618 Y2.6139
X1.0751 Y2.6138
X1.5721
X1.5734 Y2.6139
X1.5746 Y2.6143
X1.5757 Y2.6148
X1.579 Y2.6166
X1.5833 Y2.6182
X1.5877 Y2.6193
X1.5919 Y2.6197
X1.5962 Y2.6199
X2.2869
X2.2955
X2.2977 Y2.6197
X2.2998 Y2.6194
X2.3041 Y2.6184
X2.3054 Y2.6179
X2.311 Y2.6162
X2.3186 Y2.615
X2.3346 Y2.6138
X2.3535 Y2.6139
X2.9722 Y2.6138
X2.9735 Y2.614
X2.9749 Y2.6143
X2.9761 Y2.615
X2.9777 Y2.6159
X2.982 Y2.6178
X2.9841 Y2.6185
X2.9863 Y2.6191
X2.9877 Y2.6193
X2.9906 Y2.6197
X2.9949 Y2.6199
X2.9992
X3.6856
X3.6942
X3.6985 Y2.6196
X3.7002 Y2.6193
X3.7028 Y2.6188
X3.7071 Y2.6174
X3.7117 Y2.615
X3.7157 Y2.6123
X3.7177 Y2.6108
X3.72 Y2.6085
X3.7217 Y2.6065
X3.7245 Y2.6022
X3.7267 Y2.5979
X3.7274 Y2.5957
X3.7281 Y2.5936
X3.7285 Y2.5916
X3.7289 Y2.5893
X3.7291 Y2.585
X3.7293 Y2.5721
Y1.963
X3.7291 Y1.9588
X3.7285 Y1.9451
X3.7279 Y1.933
X3.7262 Y1.9202
X3.7255 Y1.9159
X3.7241 Y1.9023
X3.7236 Y1.8835
X3.7237 Y1.8646
Y1.8268
Y0.7649
X3.7238 Y0.764
X3.7242 Y0.7615
X3.7262 Y0.7491
X3.7279 Y0.7363
X3.7286 Y0.7234
X3.7291 Y0.7105
X3.7293 Y0.7062
Y0.0971
X3.7291 Y0.0843
X3.7289 Y0.08
X3.7285 Y0.0777
X3.7281 Y0.0757
X3.7274 Y0.0736
X3.7267 Y0.0714
X3.7245 Y0.0671
X3.7217 Y0.0628
X3.72 Y0.0608
X3.7177 Y0.0585
X3.7157 Y0.057
X3.7117 Y0.0542
X3.7071 Y0.0519
X3.7028 Y0.0505
X3.7002 Y0.05
X3.6985 Y0.0497
X3.6942 Y0.0494
X3.6771
X2.9992
X2.9949
X2.9906 Y0.0496
X2.9877 Y0.05
X2.9863 Y0.0502
X2.9841 Y0.0508
X2.982 Y0.0515
X2.9764 Y0.0533
X2.968 Y0.0545
X2.9491 Y0.0557
X2.9303 Y0.0554
X2.9114 Y0.0555
X2.3158
X2.3145 Y0.0554
X2.3134 Y0.055
X2.3122 Y0.0545
X2.3084 Y0.0525
X2.3041 Y0.0509
X2.2998 Y0.0499
X2.2977 Y0.0496
X2.2955 Y0.0494
X2.2698
X1.5962
X1.5919 Y0.0496
X1.5876 Y0.05
X1.5833 Y0.0511
X1.582 Y0.0516
X1.5764 Y0.0534
X1.5675 Y0.0546
X1.5487 Y0.0557
X1.5298 Y0.0554
X1.5109 Y0.0555
X0.9157
X0.9144 Y0.0553
X0.9131 Y0.055
X0.9119 Y0.0544
X0.9097 Y0.0531
X0.9054 Y0.0513
X0.9032 Y0.0506
X0.9011 Y0.0501
X0.9002 Y0.05
X0.8968 Y0.0495
X0.8925 Y0.0494
X0.841
X0.1974
X0.1932 Y0.0495
X0.1889 Y0.0498
X0.1877 Y0.05
X0.1846 Y0.0507
X0.1822 Y0.0515
X0.1766 Y0.0532
X0.1687 Y0.0544
X0.1513 Y0.0556
X0.1324 Y0.0554
X0.1135 Y0.0555
X0.071
X0.0666 Y0.0569
X0.0628 Y0.0598
X0.0568 Y0.0671
X0.0536 Y0.0759
X0.0512 Y0.0947
X0.0519 Y0.1136
X0.0517 Y0.1324
X0.0518 Y0.1513
Y0.4639
X0.0514 Y0.4662
X0.0503 Y0.4683
X0.0486 Y0.4699
X0.048 Y0.4703
X0.0473 Y0.4709
X0.043 Y0.4748
X0.0398 Y0.4789
X0.0387 Y0.4806
X0.0384 Y0.4812
X0.0376 Y0.4821
X0.0364 Y0.4827
X0.0352
X0.034 Y0.4822
X0.0331 Y0.4814
X0.0326 Y0.4802
Y0.479
X0.0332 Y0.4778
X0.0341 Y0.477
X0.0351 Y0.4763 Z0.1208
X0.0359 Y0.4758 Z0.1215
X0.0365 Y0.4754 Z0.1225
X0.0367 Y0.4753 Z0.1237
G0 Z0.333
X0.2093 Y0.031
Z0.1268
G1 Z0.1237 F14.
X0.2091 Y0.0312 Z0.1225
X0.2087 Y0.0317 Z0.1215
X0.208 Y0.0325 Z0.1208
X0.2073 Y0.0334 Z0.1206
G3 X0.1822 Y0.0515 I-0.0479 J-0.0398
G1 X0.1803 Y0.0522
X0.176 Y0.0544
X0.1738 Y0.0557
X0.1717 Y0.0573
X0.1703 Y0.0585
X0.1659 Y0.0625
X0.1604 Y0.0647
X0.1547 Y0.066
X0.1461 Y0.0672
X0.1272 Y0.0681
X0.1083 Y0.0679
X0.0847
X0.0802 Y0.0691
X0.0762 Y0.0716
X0.073 Y0.0751
X0.068 Y0.0831
X0.0655 Y0.0922
X0.0639 Y0.111
X0.0643 Y0.1299
X0.0642 Y0.1488
Y0.1677
Y0.4509
Y0.4568
X0.064 Y0.4587
X0.0632 Y0.4613
X0.0615 Y0.4635
X0.059 Y0.4649
X0.0556 Y0.466
X0.0516 Y0.468
X0.0498 Y0.4691
X0.0486 Y0.4699
X0.0474 Y0.4703
X0.0462
X0.045 Y0.4698
X0.0442 Y0.4688
X0.0438 Y0.4676
X0.0439 Y0.4664
X0.0445 Y0.4653
X0.0455 Y0.4645
X0.0467 Y0.4642
X0.0479 Y0.4641 Z0.1208
X0.0489 Y0.464 Z0.1215
X0.0495 Y0.4639 Z0.1225
X0.0498 Z0.1237
G0 Z0.333
X0.1851 Y0.028
Z0.1268
G1 Z0.1237 F14.
X0.185 Y0.0282 Z0.1225
X0.1849 Y0.0289 Z0.1215
X0.1847 Y0.0298 Z0.1208
X0.1844 Y0.031 Z0.1206
G3 X0.1703 Y0.0585 I-0.0608 J-0.0137
G1 X0.1674 Y0.0616
X0.1664 Y0.0628
X0.1634 Y0.0671
X0.1601 Y0.072
X0.155 Y0.075
X0.1494 Y0.077
X0.1425 Y0.0785
X0.1343 Y0.0796
X0.1154 Y0.0807
X0.106 Y0.0805
X0.0966
X0.0921 Y0.082
X0.0882 Y0.0847
X0.0852 Y0.0883
X0.0804 Y0.0965
X0.0756 Y0.1147
X0.0763 Y0.1241
X0.0768 Y0.143
X0.0767 Y0.1619
Y0.1807
Y0.4451
X0.0766 Y0.451
X0.0759 Y0.4568
X0.0754 Y0.4585
X0.0739 Y0.461
X0.0716 Y0.4628
X0.0687 Y0.4634
X0.0644 Y0.4637
X0.0623 Y0.464
X0.0601 Y0.4645
X0.059 Y0.4649
X0.0578 Y0.465
X0.0566 Y0.4646
X0.0557 Y0.4638
X0.0551 Y0.4626
Y0.4614
X0.0555 Y0.4602
X0.0564 Y0.4593
X0.0575 Y0.4588
X0.0588
X0.0599 Y0.4591 Z0.1208
X0.0609 Y0.4593 Z0.1215
X0.0616 Y0.4594 Z0.1225
X0.0618 Z0.1237
G0 Z0.333
X0.1717 Y0.0342
Z0.1268
G1 Z0.1237 F14.
Y0.0344 Z0.1225
Y0.0351 Z0.1215
Y0.0361 Z0.1208
Y0.0373 Z0.1206
G3 X0.1634 Y0.0671 I-0.0623 J-0.0012
G1 X0.1631 Y0.0676
X0.1613 Y0.0714
X0.1605 Y0.0736
X0.1602 Y0.0747
X0.1582 Y0.0803
X0.1539 Y0.0843
X0.1487 Y0.0871
X0.1431 Y0.0891
X0.1362 Y0.0907
X0.1263 Y0.0921
X0.1169 Y0.0927
X0.1122 Y0.0928
X0.1075 Y0.0935
X0.1032 Y0.0955
X0.0996 Y0.0985
X0.0966 Y0.1022
X0.0942 Y0.1062
X0.0909 Y0.115
X0.0886 Y0.1338
X0.0894 Y0.1526
X0.0891 Y0.1715
X0.0892 Y0.1904
Y0.2093
Y0.4358
X0.0891 Y0.4457
X0.0886 Y0.4516
X0.0873 Y0.4574
X0.0867 Y0.4589
X0.0851 Y0.4612
X0.0828 Y0.4628
X0.08 Y0.4634
X0.0687
X0.0675 Y0.4631
X0.0665 Y0.4624
X0.0659 Y0.4613
X0.0657 Y0.4601
X0.066 Y0.4589
X0.0668 Y0.4579
X0.0679 Y0.4573
X0.0692 Y0.4572
X0.0704 Y0.4576
X0.0714 Y0.4582 Z0.1208
X0.0723 Y0.4587 Z0.1215
X0.0729 Y0.459 Z0.1225
X0.0731 Y0.4591 Z0.1237
G0 Z0.333
X0.1596 Y0.0408
Z0.1268
G1 Z0.1237 F14.
X0.1597 Y0.041 Z0.1225
X0.1598 Y0.0417 Z0.1215
X0.1601 Y0.0427 Z0.1208
X0.1604 Y0.0438 Z0.1206
G3 X0.1602 Y0.0747 I-0.0605 J0.0151
G1 X0.1599 Y0.0757
X0.159 Y0.08
X0.1588 Y0.0836
X0.1586 Y0.0866
X0.156 Y0.0918
X0.1516 Y0.0957
X0.1464 Y0.0986
X0.1409 Y0.1007
X0.1352 Y0.1022
X0.1259 Y0.104
X0.1212 Y0.1046
X0.1168 Y0.1064
X0.1131 Y0.1092
X0.107 Y0.1165
X0.1037 Y0.1253
X0.1009 Y0.144
X0.1015 Y0.1534
X0.1017 Y0.1723
Y0.4366
X0.1014 Y0.4447
X0.1007 Y0.4506
X0.0994 Y0.4564
X0.0985 Y0.4588
X0.0969 Y0.4612
X0.0945 Y0.4628
X0.0917 Y0.4634
X0.08
X0.0788 Y0.4631
X0.0778 Y0.4623
X0.0771 Y0.4613
X0.077 Y0.46
X0.0773 Y0.4588
X0.0781 Y0.4578
X0.0792 Y0.4573
X0.0805 Y0.4571
X0.0816 Y0.4575
X0.0827 Y0.4581 Z0.1208
X0.0836 Y0.4586 Z0.1215
X0.0841 Y0.459 Z0.1225
X0.0844 Y0.4591 Z0.1237
G0 Z0.333
X0.1489 Y0.0511
Z0.1268
G1 Z0.1237 F14.
X0.149 Y0.0513 Z0.1225
X0.1494 Y0.0519 Z0.1215
X0.1499 Y0.0528 Z0.1208
X0.1505 Y0.0538 Z0.1206
G3 X0.1588 Y0.0836 I-0.0539 J0.0312
G1 X0.1587 Y0.0929
X0.1585 Y0.0958
X0.1564 Y0.1013
X0.1524 Y0.1056
X0.1475 Y0.1089
X0.1421 Y0.1114
X0.1332 Y0.1145
X0.129 Y0.1166
X0.1253 Y0.1196
X0.1194 Y0.127
X0.1161 Y0.1358
X0.1134 Y0.1545
X0.1143 Y0.1733
X0.1141 Y0.1922
X0.1142 Y0.4376
X0.1135 Y0.4459
X0.1126 Y0.4517
X0.111 Y0.4574
X0.1102 Y0.4591
X0.1086 Y0.4613
X0.1063 Y0.4628
X0.1036 Y0.4634
X0.0917
X0.0905 Y0.4631
X0.0895 Y0.4623
X0.0888 Y0.4612
X0.0887 Y0.46
X0.089 Y0.4588
X0.0898 Y0.4578
X0.0909 Y0.4572
X0.0922 Y0.4571
X0.0934 Y0.4575
X0.0944 Y0.4581 Z0.1208
X0.0953 Y0.4586 Z0.1215
X0.0959 Y0.459 Z0.1225
X0.0961 Y0.4591 Z0.1237
G0 Z0.333
X0.1486 Y0.0604
Z0.1268
G1 Z0.1237 F14.
X0.1487 Y0.0606 Z0.1225
X0.1491 Y0.0612 Z0.1215
X0.1496 Y0.0621 Z0.1208
X0.1502 Y0.0631 Z0.1206
G3 X0.1587 Y0.0929 I-0.0538 J0.0315
G1 Y0.1044
X0.1585 Y0.1073
X0.1561 Y0.1127
X0.152 Y0.117
X0.1442 Y0.1223
X0.1404 Y0.1251
X0.1371 Y0.1285
X0.1317 Y0.1362
X0.1285 Y0.1451
X0.1257 Y0.1637
X0.1268 Y0.1792
X0.1266 Y0.1981
Y0.217
Y0.4246
X0.1265 Y0.4368
X0.1258 Y0.4451
X0.1248 Y0.4509
X0.1233 Y0.4566
X0.1223 Y0.459
X0.1207 Y0.4613
X0.1184 Y0.4628
X0.1156 Y0.4634
X0.1144 Y0.4631
X0.1134 Y0.4623
X0.1128 Y0.4612
X0.1126 Y0.46
X0.113 Y0.4588
X0.1137 Y0.4578
X0.1148 Y0.4572
X0.1161 Y0.4571
X0.1173 Y0.4575
X0.1183 Y0.4581 Z0.1208
X0.1192 Y0.4586 Z0.1215
X0.1198 Y0.459 Z0.1225
X0.12 Y0.4591 Z0.1237
G0 Z0.333
X0.1484 Y0.072
Z0.1268
G1 Z0.1237 F14.
X0.1485 Y0.0722 Z0.1225
X0.1488 Y0.0728 Z0.1215
X0.1494 Y0.0737 Z0.1208
X0.15 Y0.0747 Z0.1206
G3 X0.1587 Y0.1044 I-0.0536 J0.0318
G1 Y0.1143
X0.1584 Y0.1202
X0.1554 Y0.1253
X0.1497 Y0.1328
X0.1447 Y0.1408
X0.1416 Y0.1497
X0.1376 Y0.1682
X0.1387 Y0.1786
X0.1392 Y0.1975
X0.1391 Y0.2163
Y0.2352
Y0.424
X0.1389 Y0.4361
X0.138 Y0.4451
X0.1369 Y0.4509
X0.1354 Y0.4566
X0.1344 Y0.459
X0.1328 Y0.4613
X0.1304 Y0.4628
X0.1277 Y0.4634
X0.1265 Y0.4631
X0.1255 Y0.4623
X0.1249 Y0.4612
X0.1247 Y0.46
X0.125 Y0.4588
X0.1258 Y0.4578
X0.1269 Y0.4572
X0.1282 Y0.4571
X0.1294 Y0.4575
X0.1304 Y0.4581 Z0.1208
X0.1313 Y0.4586 Z0.1215
X0.1319 Y0.459 Z0.1225
X0.1321 Y0.4591 Z0.1237
G0 Z0.333
X0.1484 Y0.082
Z0.1268
G1 Z0.1237 F14.
X0.1485 Y0.0822 Z0.1225
X0.1488 Y0.0827 Z0.1215
X0.1494 Y0.0836 Z0.1208
X0.15 Y0.0846 Z0.1206
G3 X0.1587 Y0.1143 I-0.0536 J0.0318
G1 Y0.1285
X0.1584 Y0.1344
X0.1542 Y0.1528
X0.1519 Y0.1619
X0.151 Y0.1808
X0.1518 Y0.1996
X0.1515 Y0.2185
X0.1516 Y0.2374
Y0.2563
Y0.4262
X0.151 Y0.4386
X0.15 Y0.4467
X0.1488 Y0.4524
X0.147 Y0.4581
X0.1464 Y0.4594
X0.1448 Y0.4615
X0.1425 Y0.4629
X0.1399 Y0.4634
X0.1387 Y0.4631
X0.1377 Y0.4623
X0.137 Y0.4612
X0.1369 Y0.46
X0.1372 Y0.4588
X0.138 Y0.4578
X0.1391 Y0.4572
X0.1403 Y0.4571
X0.1415 Y0.4575
X0.1426 Y0.4581 Z0.1208
X0.1434 Y0.4586 Z0.1215
X0.144 Y0.459 Z0.1225
X0.1442 Y0.4591 Z0.1237
G0 Z0.333
X0.1484 Y0.0961
Z0.1268
G1 Z0.1237 F14.
X0.1485 Y0.0963 Z0.1225
X0.1488 Y0.0969 Z0.1215
X0.1494 Y0.0978 Z0.1208
X0.15 Y0.0988 Z0.1206
G3 X0.1587 Y0.1285 I-0.0536 J0.0318
G1 Y0.4489
Y0.4502
Y0.4518
X0.1584 Y0.4577
X0.1579 Y0.4589
X0.1563 Y0.4613
X0.1539 Y0.4628
X0.1512 Y0.4634
X0.15 Y0.4631
X0.149 Y0.4623
X0.1483 Y0.4613
X0.1482 Y0.46
X0.1485 Y0.4588
X0.1528 Y0.4505
X0.1537 Y0.4495
X0.1549 Y0.4489
X0.1562
X0.1575 Y0.4495
X0.1583 Y0.4505
X0.1587 Y0.4518
Y0.4596
Y0.4601
X0.1585 Y0.4607
X0.1583 Y0.4612
X0.1579 Y0.4617
X0.1575 Y0.4621
X0.1562 Y0.463
X0.1558 Y0.4632
X0.1554 Y0.4633
X0.155 Y0.4634
X0.1036
X0.1024 Y0.4631
X0.1014 Y0.4623
X0.1008 Y0.4612
X0.1006 Y0.46
X0.1009 Y0.4588
X0.1017 Y0.4578
X0.1028 Y0.4572
X0.1041 Y0.4571
X0.1053 Y0.4575
X0.1063 Y0.4581 Z0.1208
X0.1072 Y0.4586 Z0.1215
X0.1078 Y0.459 Z0.1225
X0.108 Y0.4591 Z0.1237
G0 Z0.333
X0.0149 Y1.1446
Z0.1268
G1 Z0.1237 F14.
X0.0151 Y1.1448 Z0.1225
X0.0156 Y1.1452 Z0.1215
X0.0164 Y1.1459 Z0.1208
X0.0173 Y1.1466 Z0.1206
G3 X0.0355 Y1.1716 I-0.0398 J0.048
G1 X0.0363 Y1.1738
X0.0383 Y1.1781
X0.0387 Y1.1787
X0.0399 Y1.1805
X0.0413 Y1.1824
X0.0422 Y1.1834
X0.0459 Y1.188
X0.0483 Y1.1934
X0.0497 Y1.1992
X0.0508 Y1.2068
X0.0519 Y1.2257
X0.0517 Y1.2445
X0.0518 Y1.2634
Y1.4741
X0.0514 Y1.4764
X0.0503 Y1.4785
X0.0485 Y1.4801
X0.0474 Y1.4805
X0.0461
X0.045 Y1.4799
X0.0442 Y1.479
X0.0438 Y1.4778
X0.0439 Y1.4766
X0.0445 Y1.4755
X0.0455 Y1.4747
X0.0467 Y1.4743
X0.0479 Z0.1208
X0.0489 Y1.4742 Z0.1215
X0.0495 Y1.4741 Z0.1225
X0.0498 Z0.1237
G0 Z0.333
X0.013 Y1.1662
Z0.1268
G1 Z0.1237 F14.
X0.0132 Y1.1663 Z0.1225
X0.0138 Y1.1665 Z0.1215
X0.0148 Y1.1668 Z0.1208
X0.0159 Y1.1671 Z0.1206
G3 X0.0422 Y1.1834 I-0.0187 J0.0594
G1 X0.043 Y1.1843
X0.0452 Y1.1867
X0.0473 Y1.1883
X0.0512 Y1.191
X0.0561 Y1.1942
X0.059 Y1.1994
X0.0609 Y1.205
X0.0624 Y1.2119
X0.0635 Y1.2199
X0.0645 Y1.2388
X0.0641 Y1.2576
X0.0643 Y1.2765
X0.0642 Y1.3143
Y1.4653
X0.064 Y1.4684
X0.0633 Y1.4712
X0.0615 Y1.4734
X0.0591 Y1.4749
X0.0578 Y1.475
X0.0566 Y1.4746
X0.0557 Y1.4738
X0.0552 Y1.4726
X0.0551 Y1.4714
X0.0555 Y1.4702
X0.0564 Y1.4693
X0.0575 Y1.4688
X0.0588
X0.06 Y1.469 Z0.1208
X0.061 Y1.4692 Z0.1215
X0.0616 Y1.4694 Z0.1225
X0.0619 Z0.1237
G0 Z0.333
X0.018 Y1.1837
Z0.1268
G1 Z0.1237 F14.
X0.0182 Z0.1225
X0.0189 Z0.1215
X0.0199 Y1.1836 Z0.1208
X0.0211 Z0.1206
G3 X0.0512 Y1.191 I0.0007 J0.0623
G1 X0.0516 Y1.1912
X0.0559 Y1.1934
X0.0593 Y1.1945
X0.0648 Y1.1967
X0.0686 Y1.2011
X0.0713 Y1.2064
X0.0732 Y1.212
X0.0748 Y1.2194
X0.0761 Y1.2293
X0.0771 Y1.2482
X0.0766 Y1.267
X0.0768 Y1.2859
X0.0767 Y1.3048
Y1.4181
Y1.4558
X0.0765 Y1.4617
X0.0758 Y1.4672
X0.0746 Y1.4703
X0.072 Y1.4726
X0.0687 Y1.4734
X0.0675 Y1.4732
X0.0664 Y1.4725
X0.0658 Y1.4715
X0.0655 Y1.4703
X0.0658 Y1.469
X0.0665 Y1.468
X0.0676 Y1.4674
X0.0688 Y1.4672
X0.07 Y1.4675
X0.0711 Y1.468 Z0.1208
X0.072 Y1.4685 Z0.1215
X0.0726 Y1.4688 Z0.1225
X0.0728 Y1.4689 Z0.1237
G0 Z0.333
X0.0253 Y1.194
Z0.1268
G1 Z0.1237 F14.
X0.0256 Y1.1939 Z0.1225
X0.0262 Y1.1938 Z0.1215
X0.0272 Y1.1936 Z0.1208
X0.0284 Y1.1933 Z0.1206
G3 X0.0593 Y1.1945 I0.0132 J0.0609
G1 X0.0601 Y1.1948
X0.0622 Y1.1952
X0.0644 Y1.1956
X0.0687 Y1.1959
X0.0717 Y1.1961
X0.0766 Y1.1993
X0.0803 Y1.2039
X0.083 Y1.2092
X0.0849 Y1.2147
X0.0864 Y1.2206
X0.0881 Y1.2309
X0.0892 Y1.2429
X0.0893 Y1.2618
X0.0891 Y1.2806
X0.0892 Y1.2995
Y1.3184
Y1.4505
X0.0889 Y1.4577
X0.0882 Y1.4636
X0.0868 Y1.4693
X0.0867 Y1.4695
X0.085 Y1.4715
X0.0828 Y1.4729
X0.0802 Y1.4734
X0.079 Y1.4731
X0.078 Y1.4723
X0.0774 Y1.4713
X0.0772 Y1.47
X0.0776 Y1.4688
X0.0783 Y1.4678
X0.0794 Y1.4673
X0.0807 Y1.4671
X0.0819 Y1.4675
X0.0829 Y1.4681 Z0.1208
X0.0838 Y1.4686 Z0.1215
X0.0844 Y1.469 Z0.1225
X0.0846 Y1.4691 Z0.1237
G0 Z0.333
X0.0363 Y1.2061
Z0.1268
G1 Z0.1237 F14.
X0.0365 Y1.2059 Z0.1225
X0.0371 Y1.2056 Z0.1215
X0.038 Y1.2051 Z0.1208
X0.039 Y1.2045 Z0.1206
G3 X0.0687 Y1.1959 I0.0316 J0.0537
G1 X0.0773
X0.0803 Y1.1961
X0.0857 Y1.1985
X0.0899 Y1.2026
X0.0931 Y1.2076
X0.0955 Y1.213
X0.0973 Y1.2186
X0.0992 Y1.2263
X0.1005 Y1.2348
X0.1018 Y1.2511
X0.1017 Y1.2699
X0.1016 Y1.2888
X0.1017 Y1.3077
X0.1016 Y1.3266
X0.1017 Y1.3454
Y1.4398
X0.1015 Y1.4522
X0.1009 Y1.4592
X0.0999 Y1.465
X0.0987 Y1.4684
X0.0972 Y1.471
X0.0947 Y1.4727
X0.0918 Y1.4734
X0.073
X0.0687
X0.0644 Y1.4737
X0.0622 Y1.4741
X0.0601 Y1.4745
X0.0559 Y1.4759
X0.0516 Y1.4781
X0.0512 Y1.4783
X0.0473 Y1.4809
X0.0452 Y1.4826
X0.043 Y1.485
X0.0413 Y1.4869
X0.0399 Y1.4887
X0.0387 Y1.4906
X0.0383 Y1.4912
X0.0375 Y1.4921
X0.0364 Y1.4926
X0.0351
X0.0339 Y1.4922
X0.0331 Y1.4913
X0.0326 Y1.4901
Y1.4889
X0.0332 Y1.4877
X0.0341 Y1.4869
X0.0351 Y1.4863 Z0.1208
X0.036 Y1.4858 Z0.1215
X0.0365 Y1.4854 Z0.1225
X0.0367 Y1.4853 Z0.1237
G0 Z0.333
X0.0449 Y1.2061
Z0.1268
G1 Z0.1237 F14.
X0.0451 Y1.206 Z0.1225
X0.0457 Y1.2056 Z0.1215
X0.0466 Y1.2051 Z0.1208
X0.0476 Y1.2045 Z0.1206
G3 X0.0773 Y1.1959 I0.0316 J0.0537
G1 X0.0872
X0.0901 Y1.1961
X0.0957 Y1.198
X0.1002 Y1.2019
X0.1037 Y1.2067
X0.1064 Y1.2119
X0.1085 Y1.2174
X0.1103 Y1.2236
X0.1122 Y1.2329
X0.1136 Y1.2441
X0.1144 Y1.263
X0.1141 Y1.2818
X0.1142 Y1.3196
X0.1141 Y1.3385
X0.1142 Y1.3951
Y1.4329
X0.1141 Y1.4488
X0.1134 Y1.4566
X0.1124 Y1.4624
X0.1108 Y1.4681
X0.1102 Y1.4692
X0.1086 Y1.4714
X0.1063 Y1.4729
X0.1037 Y1.4734
X0.0918
X0.0906 Y1.4731
X0.0896 Y1.4723
X0.089 Y1.4712
X0.0888 Y1.47
X0.0892 Y1.4688
X0.0899 Y1.4678
X0.091 Y1.4672
X0.0923 Y1.4671
X0.0935 Y1.4675
X0.0945 Y1.4681 Z0.1208
X0.0954 Y1.4686 Z0.1215
X0.096 Y1.469 Z0.1225
X0.0962 Y1.4691 Z0.1237
G0 Z0.333
X0.0548 Y1.2062
Z0.1268
G1 Z0.1237 F14.
X0.055 Y1.2061 Z0.1225
X0.0556 Y1.2058 Z0.1215
X0.0565 Y1.2053 Z0.1208
X0.0575 Y1.2046 Z0.1206
G3 X0.0872 Y1.1959 I0.0318 J0.0536
G1 X0.0988
X0.1017 Y1.1961
X0.1072 Y1.1982
X0.1117 Y1.2021
X0.1152 Y1.2068
X0.118 Y1.2121
X0.1203 Y1.2178
X0.1223 Y1.2243
X0.1242 Y1.2328
X0.1259 Y1.2455
X0.127 Y1.2636
X0.1265 Y1.2825
X0.1266 Y1.3014
X0.1267 Y1.3202
X0.1266 Y1.3391
Y1.358
Y1.4335
Y1.4462
X0.1258 Y1.4548
X0.1248 Y1.4608
X0.1233 Y1.4665
X0.1223 Y1.4689
X0.1207 Y1.4713
X0.1184 Y1.4728
X0.1156 Y1.4734
X0.1037
X0.1024 Y1.4731
X0.1014 Y1.4723
X0.1008 Y1.4712
X0.1007 Y1.47
X0.101 Y1.4688
X0.1018 Y1.4678
X0.1029 Y1.4672
X0.1041 Y1.4671
X0.1053 Y1.4675
X0.1063 Y1.4681 Z0.1208
X0.1072 Y1.4686 Z0.1215
X0.1078 Y1.469 Z0.1225
X0.108 Y1.4691 Z0.1237
G0 Z0.333
X0.0664 Y1.2062
Z0.1268
G1 Z0.1237 F14.
X0.0666 Y1.2061 Z0.1225
X0.0672 Y1.2058 Z0.1215
X0.0681 Y1.2053 Z0.1208
X0.0691 Y1.2046 Z0.1206
G3 X0.0988 Y1.1959 I0.0318 J0.0536
G1 X0.1103
X0.1132 Y1.1961
X0.1187 Y1.1983
X0.1232 Y1.2021
X0.1268 Y1.2068
X0.1296 Y1.212
X0.132 Y1.2177
X0.1341 Y1.224
X0.1362 Y1.2331
X0.1382 Y1.2454
X0.1393 Y1.2602
X0.1391 Y1.298
Y1.3168
Y1.3357
Y1.4301
X0.139 Y1.4439
X0.1382 Y1.4535
X0.1371 Y1.46
X0.1357 Y1.4657
X0.1345 Y1.4688
X0.1329 Y1.4712
X0.1305 Y1.4728
X0.1277 Y1.4734
X0.1156
X0.1144 Y1.4731
X0.1134 Y1.4723
X0.1128 Y1.4712
X0.1126 Y1.47
X0.113 Y1.4688
X0.1138 Y1.4678
X0.1149 Y1.4672
X0.1161 Y1.4671
X0.1173 Y1.4675
X0.1183 Y1.4681 Z0.1208
X0.1192 Y1.4686 Z0.1215
X0.1198 Y1.469 Z0.1225
X0.12 Y1.4691 Z0.1237
G0 Z0.333
X0.0779 Y1.2062
Z0.1268
G1 Z0.1237 F14.
X0.0781 Y1.2061 Z0.1225
X0.0787 Y1.2058 Z0.1215
X0.0796 Y1.2053 Z0.1208
X0.0806 Y1.2046 Z0.1206
G3 X0.1103 Y1.1959 I0.0318 J0.0536
G1 X0.1215
X0.1245 Y1.1961
X0.13 Y1.1981
X0.1346 Y1.2019
X0.1382 Y1.2065
X0.1412 Y1.2116
X0.1437 Y1.2174
X0.1459 Y1.2237
X0.1482 Y1.2327
X0.1503 Y1.2447
X0.1515 Y1.2571
X0.1517 Y1.276
X0.1515 Y1.2949
X0.1516 Y1.3138
Y1.427
X0.1515 Y1.4421
X0.1507 Y1.4523
X0.1495 Y1.4593
X0.1481 Y1.465
X0.1467 Y1.4687
X0.1451 Y1.4711
X0.1427 Y1.4728
X0.1399 Y1.4734
X0.1277
X0.1265 Y1.4731
X0.1255 Y1.4723
X0.1249 Y1.4712
X0.1247 Y1.47
X0.125 Y1.4688
X0.1258 Y1.4678
X0.1269 Y1.4672
X0.1282 Y1.4671
X0.1294 Y1.4675
X0.1304 Y1.4681 Z0.1208
X0.1313 Y1.4686 Z0.1215
X0.1319 Y1.469 Z0.1225
X0.1321 Y1.4691 Z0.1237
G0 Z0.333
X0.0892 Y1.2062
Z0.1268
G1 Z0.1237 F14.
X0.0894 Y1.2061 Z0.1225
X0.0899 Y1.2058 Z0.1215
X0.0908 Y1.2053 Z0.1208
X0.0918 Y1.2046 Z0.1206
G3 X0.1215 Y1.1959 I0.0318 J0.0536
G1 X0.1331
X0.139 Y1.1962
X0.144 Y1.1994
X0.148 Y1.2037
X0.1514 Y1.2086
X0.1541 Y1.2138
X0.1566 Y1.2198
X0.1583 Y1.2253
X0.1585 Y1.2261
X0.1586 Y1.2268
X0.1587 Y1.2276
X0.1584 Y1.2288
X0.1576 Y1.2298
X0.1565 Y1.2304
X0.1553 Y1.2306
X0.1541 Y1.2302
X0.1531 Y1.2294
X0.1456 Y1.2199
X0.1307 Y1.201
X0.1302 Y1.1998
X0.1301 Y1.1984
X0.1307 Y1.1972
X0.1318 Y1.1963
X0.1331 Y1.1959
X0.144
X0.146
X0.1473
X0.1502 Y1.1961
X0.1553 Y1.199
X0.1565 Y1.2002
X0.1577 Y1.2017
X0.1584 Y1.2035
X0.1587 Y1.2054
X0.1583 Y1.2067
X0.1575 Y1.2077
X0.1563 Y1.2083
X0.1549
X0.1537 Y1.2078
X0.1455 Y1.2015
X0.1446 Y1.2006
X0.1443 Y1.1994
X0.1444 Y1.1981
X0.145 Y1.197
X0.146 Y1.1962
X0.1473 Y1.1959
X0.1551
X0.1556 Y1.196
X0.1561 Y1.1962
X0.1566 Y1.1965
X0.1575 Y1.197
X0.158 Y1.1975
X0.1583 Y1.198
X0.1586 Y1.1988
X0.1587 Y1.1995
Y1.4593
Y1.4612
Y1.4625
X0.1584 Y1.4684
X0.158 Y1.4692
X0.1564 Y1.4714
X0.1541 Y1.4729
X0.1514 Y1.4734
X0.1502 Y1.4731
X0.1492 Y1.4723
X0.1486 Y1.4712
X0.1484 Y1.47
X0.1488 Y1.4688
X0.1528 Y1.4611
X0.1537 Y1.4601
X0.1549 Y1.4595
X0.1563 Y1.4596
X0.1575 Y1.4601
X0.1583 Y1.4612
X0.1587 Y1.4625
Y1.4698
X0.1586 Y1.4705
X0.1583 Y1.4713
X0.158 Y1.4718
X0.1575 Y1.4723
X0.1566 Y1.4728
X0.1561 Y1.4731
X0.1556 Y1.4733
X0.1551 Y1.4734
X0.1399
X0.1386 Y1.4731
X0.1376 Y1.4723
X0.137 Y1.4712
X0.1369 Y1.47
X0.1372 Y1.4688
X0.138 Y1.4678
X0.1391 Y1.4672
X0.1403 Y1.4671
X0.1415 Y1.4675
X0.1426 Y1.4681 Z0.1208
X0.1434 Y1.4686 Z0.1215
X0.144 Y1.469 Z0.1225
X0.1442 Y1.4691 Z0.1237
G0 Z0.333
X0.0136 Y2.1559
Z0.1268
G1 Z0.1237 F14.
X0.0138 Y2.156 Z0.1225
X0.0143 Y2.1564 Z0.1215
X0.0151 Y2.157 Z0.1208
X0.0161 Y2.1578 Z0.1206
G3 X0.0355 Y2.1818 I-0.0372 J0.0499
G1 X0.0373 Y2.1861
X0.0387 Y2.1887
X0.0398 Y2.1904
X0.043 Y2.1945
X0.0466 Y2.1992
X0.0487 Y2.2047
X0.05 Y2.2105
X0.051 Y2.2192
X0.0519 Y2.2381
X0.0517 Y2.2569
X0.0518 Y2.5779
X0.0521 Y2.5826
X0.0538 Y2.587
X0.0568 Y2.5907
X0.0604 Y2.5937
X0.0644 Y2.5961
X0.0733 Y2.5995
X0.092 Y2.6017
X0.1109 Y2.6013
X0.1298 Y2.6014
X0.159
X0.1613 Y2.6017
X0.1634 Y2.6028
X0.165 Y2.6045
X0.1664 Y2.6065
X0.1674 Y2.6077
X0.1703 Y2.6108
X0.1717 Y2.612
X0.1738 Y2.6136
X0.176 Y2.6149
X0.1769 Y2.6158
X0.1773 Y2.617
Y2.6182
X0.1767 Y2.6194
X0.1758 Y2.6202
X0.1746 Y2.6206
X0.1734 Y2.6205
X0.1723 Y2.6199
X0.1715 Y2.619
X0.1709 Y2.6179 Z0.1208
X0.1704 Y2.617 Z0.1215
X0.1701 Y2.6164 Z0.1225
X0.17 Y2.6162 Z0.1237
G0 Z0.333
X0.013 Y2.1786
Z0.1268
G1 Z0.1237 F14.
X0.0132 Y2.1787 Z0.1225
X0.0139 Y2.1788 Z0.1215
X0.0148 Y2.1791 Z0.1208
X0.016 Y2.1794 Z0.1206
G3 X0.043 Y2.1945 I-0.016 J0.0602
G1 X0.0473 Y2.1984
X0.048 Y2.199
X0.0498 Y2.2002
X0.0508 Y2.2008
X0.0556 Y2.2041
X0.0587 Y2.2092
X0.0607 Y2.2147
X0.0622 Y2.2213
X0.0634 Y2.2301
X0.0645 Y2.2489
X0.0642 Y2.2678
Y2.2867
Y2.5652
X0.0646 Y2.5699
X0.0664 Y2.5742
X0.0693 Y2.578
X0.0767 Y2.5838
X0.0856 Y2.587
X0.1043 Y2.5894
X0.1232 Y2.5887
X0.142 Y2.5889
X0.1509
X0.1537 Y2.5891
X0.1565 Y2.5899
X0.1587 Y2.5917
X0.1601 Y2.5943
X0.1605 Y2.5957
X0.1613 Y2.5979
X0.1631 Y2.6017
X0.1643 Y2.6035
X0.165 Y2.6045
X0.1655 Y2.6057
X0.1654 Y2.6069
X0.1649 Y2.6081
X0.164 Y2.6089
X0.1628 Y2.6093
X0.1615 Y2.6092
X0.1604 Y2.6086
X0.1596 Y2.6076
X0.1593 Y2.6064
X0.1592 Y2.6052 Z0.1208
X0.1591 Y2.6042 Z0.1215
Y2.6036 Z0.1225
Y2.6033 Z0.1237
G0 Z0.333
X0.0178 Y2.1927
Z0.1268
G1 Z0.1237 F14.
X0.018 Z0.1225
X0.0187 Y2.1928 Z0.1215
X0.0197 Z0.1208
X0.0209 Z0.1206
G3 X0.0508 Y2.2008 I-0.0007 J0.0623
G1 X0.0516 Y2.2013
X0.0559 Y2.2034
X0.0593 Y2.2045
X0.0648 Y2.2067
X0.0686 Y2.2112
X0.0712 Y2.2164
X0.0731 Y2.222
X0.0747 Y2.2296
X0.0761 Y2.2395
X0.0771 Y2.2584
X0.0766 Y2.2773
X0.0768 Y2.2961
X0.0767 Y2.315
Y2.551
X0.0768 Y2.5557
X0.078 Y2.5603
X0.0805 Y2.5643
X0.084 Y2.5675
X0.092 Y2.5725
X0.1011 Y2.5751
X0.1199 Y2.5768
X0.1387 Y2.5763
X0.1452 Y2.5764
X0.151 Y2.577
X0.1535 Y2.5777
X0.1562 Y2.5791
X0.1581 Y2.5816
X0.1588 Y2.5846
Y2.5857
X0.159 Y2.5893
X0.1599 Y2.5936
X0.1601 Y2.5943
G0 Z0.333
X0.0253 Y2.204
Z0.1268
G1 Z0.1237 F14.
X0.0256 Y2.2039 Z0.1225
X0.0262 Y2.2038 Z0.1215
X0.0272 Y2.2036 Z0.1208
X0.0284 Y2.2033 Z0.1206
G3 X0.0593 Y2.2045 I0.0132 J0.0609
G1 X0.0601 Y2.2048
X0.0623 Y2.2053
X0.0644 Y2.2056
X0.0687 Y2.2059
X0.0717 Y2.2061
X0.0766 Y2.2093
X0.0803 Y2.214
X0.0829 Y2.2192
X0.0849 Y2.2248
X0.0864 Y2.2306
X0.0881 Y2.2409
X0.0892 Y2.2529
X0.0893 Y2.2718
X0.0891 Y2.2907
X0.0892 Y2.3096
Y2.3284
Y2.5408
X0.0898 Y2.5455
X0.0917 Y2.5498
X0.0947 Y2.5535
X0.1023 Y2.5591
X0.1113 Y2.5621
X0.13 Y2.5645
X0.1385 Y2.5642
X0.1444 Y2.5644
X0.1503 Y2.5653
X0.1536 Y2.5663
X0.1562 Y2.5678
X0.158 Y2.5702
X0.1587 Y2.5732
X0.1588 Y2.5846
X0.1585 Y2.5858
X0.1578 Y2.5868
X0.1567 Y2.5875
X0.1555 Y2.5877
X0.1543 Y2.5873
X0.1533 Y2.5866
X0.1527 Y2.5855
X0.1526 Y2.5842
X0.153 Y2.583
X0.1536 Y2.582 Z0.1208
X0.154 Y2.5811 Z0.1215
X0.1544 Y2.5805 Z0.1225
X0.1545 Y2.5803 Z0.1237
G0 Z0.333
X0.0363 Y2.2161
Z0.1268
G1 Z0.1237 F14.
X0.0365 Y2.2159 Z0.1225
X0.0371 Y2.2156 Z0.1215
X0.038 Y2.2151 Z0.1208
X0.039 Y2.2145 Z0.1206
G3 X0.0687 Y2.2059 I0.0316 J0.0537
G1 X0.0773
X0.0803 Y2.2061
X0.0856 Y2.2085
X0.0898 Y2.2127
X0.093 Y2.2176
X0.0954 Y2.223
X0.0973 Y2.2286
X0.0992 Y2.2364
X0.1005 Y2.2449
X0.1018 Y2.2612
X0.1017 Y2.2801
X0.1016 Y2.2989
X0.1017 Y2.3178
X0.1016 Y2.3367
X0.1017 Y2.3556
Y2.5255
Y2.5302
X0.1029 Y2.5348
X0.1053 Y2.5389
X0.1087 Y2.5421
X0.1166 Y2.5473
X0.1346 Y2.5529
X0.1405 Y2.5528
X0.1464 Y2.5532
X0.1522 Y2.5543
X0.1541 Y2.5551
X0.1565 Y2.5567
X0.1581 Y2.559
X0.1587 Y2.5619
Y2.5732
X0.1584 Y2.5744
X0.1577 Y2.5754
X0.1566 Y2.5761
X0.1554 Y2.5762
X0.1542 Y2.5759
X0.1532 Y2.5751
X0.1526 Y2.574
X0.1525 Y2.5728
X0.1529 Y2.5716
X0.1534 Y2.5705 Z0.1208
X0.1539 Y2.5697 Z0.1215
X0.1543 Y2.5691 Z0.1225
X0.1544 Y2.5689 Z0.1237
G0 Z0.333
X0.0449 Y2.2161
Z0.1268
G1 Z0.1237 F14.
X0.0451 Y2.216 Z0.1225
X0.0457 Y2.2156 Z0.1215
X0.0466 Y2.2151 Z0.1208
X0.0476 Y2.2145 Z0.1206
G3 X0.0773 Y2.2059 I0.0316 J0.0537
G1 X0.0872
X0.0901 Y2.2061
X0.0957 Y2.2081
X0.1002 Y2.2119
X0.1036 Y2.2167
X0.1063 Y2.222
X0.1085 Y2.2275
X0.1103 Y2.2336
X0.1122 Y2.243
X0.1136 Y2.2542
X0.1144 Y2.2731
X0.1141 Y2.292
X0.1142 Y2.3297
X0.1141 Y2.3486
X0.1142 Y2.3675
Y2.5185
X0.1156 Y2.523
X0.1182 Y2.527
X0.1215 Y2.5303
X0.1291 Y2.5359
X0.1472 Y2.5414
X0.1529 Y2.5429
X0.1544 Y2.5435
X0.1566 Y2.5451
X0.1582 Y2.5475
X0.1587 Y2.5502
X0.1584 Y2.5514
X0.1576 Y2.5524
X0.1566 Y2.553
X0.1553 Y2.5532
X0.1541 Y2.5528
X0.1532 Y2.5521
X0.1526 Y2.551
X0.1525 Y2.5497
X0.1529 Y2.5485
X0.1535 Y2.5475 Z0.1208
X0.154 Y2.5466 Z0.1215
X0.1543 Y2.546 Z0.1225
X0.1544 Y2.5458 Z0.1237
G0 Z0.333
X0.0548 Y2.2162
Z0.1268
G1 Z0.1237 F14.
X0.055 Y2.2161 Z0.1225
X0.0556 Y2.2158 Z0.1215
X0.0565 Y2.2153 Z0.1208
X0.0575 Y2.2146 Z0.1206
G3 X0.0872 Y2.2059 I0.0318 J0.0536
G1 X0.0988
X0.1017 Y2.2061
X0.1072 Y2.2082
X0.1116 Y2.2121
X0.1152 Y2.2169
X0.118 Y2.2221
X0.1203 Y2.2279
X0.1223 Y2.2344
X0.1242 Y2.2429
X0.1259 Y2.2556
X0.127 Y2.2737
X0.1265 Y2.2925
X0.1266 Y2.3114
X0.1267 Y2.3303
X0.1266 Y2.3492
Y2.3681
Y2.5049
X0.1276 Y2.5096
X0.1296 Y2.5138
X0.1357 Y2.521
X0.152 Y2.5307
X0.1542 Y2.5316
X0.1566 Y2.5332
X0.1581 Y2.5355
X0.1587 Y2.5383
X0.1584 Y2.5395
X0.1576 Y2.5405
X0.1566 Y2.5412
X0.1553 Y2.5413
X0.1541 Y2.541
X0.1532 Y2.5402
X0.1526 Y2.5391
X0.1525 Y2.5378
X0.1529 Y2.5367
X0.1535 Y2.5356 Z0.1208
X0.154 Y2.5347 Z0.1215
X0.1543 Y2.5342 Z0.1225
X0.1544 Y2.534 Z0.1237
G0 Z0.333
X0.0664 Y2.2162
Z0.1268
G1 Z0.1237 F14.
X0.0666 Y2.2161 Z0.1225
X0.0672 Y2.2158 Z0.1215
X0.0681 Y2.2153 Z0.1208
X0.0691 Y2.2146 Z0.1206
G3 X0.0988 Y2.2059 I0.0318 J0.0536
G1 X0.1103
X0.1132 Y2.2061
X0.1187 Y2.2083
X0.1232 Y2.2122
X0.1267 Y2.2169
X0.1296 Y2.222
X0.132 Y2.2277
X0.134 Y2.2341
X0.1362 Y2.2432
X0.1382 Y2.2555
X0.1393 Y2.2703
X0.1391 Y2.308
Y2.3269
Y2.3458
Y2.4921
X0.1397 Y2.4968
X0.1413 Y2.5012
X0.1463 Y2.5093
X0.1562 Y2.518
X0.1576 Y2.5196
X0.1584 Y2.5215
X0.1587 Y2.5235
X0.1584 Y2.5247
X0.1576 Y2.5257
X0.1566 Y2.5263
X0.1553 Y2.5265
X0.1541 Y2.5261
X0.1532 Y2.5254
X0.1526 Y2.5242
X0.1525 Y2.523
X0.1529 Y2.5218
X0.1535 Y2.5208 Z0.1208
X0.154 Y2.5199 Z0.1215
X0.1543 Y2.5193 Z0.1225
X0.1544 Y2.5191 Z0.1237
G0 Z0.333
X0.0779 Y2.2162
Z0.1268
G1 Z0.1237 F14.
X0.0781 Y2.2161 Z0.1225
X0.0787 Y2.2158 Z0.1215
X0.0796 Y2.2153 Z0.1208
X0.0806 Y2.2146 Z0.1206
G3 X0.1103 Y2.2059 I0.0318 J0.0536
G1 X0.1215
X0.1245 Y2.2061
X0.13 Y2.2081
X0.1345 Y2.2119
X0.1382 Y2.2165
X0.1412 Y2.2216
X0.1437 Y2.2274
X0.1459 Y2.2337
X0.1482 Y2.2428
X0.1503 Y2.2548
X0.1515 Y2.2672
X0.1517 Y2.2861
X0.1515 Y2.3049
X0.1516 Y2.3238
Y2.4843
X0.1526 Y2.4889
X0.1557 Y2.4961
X0.1573 Y2.4985
X0.1581 Y2.4998
X0.1585 Y2.5012
X0.1587 Y2.5027
X0.1584 Y2.5039
X0.1576 Y2.5049
X0.1566 Y2.5056
X0.1553 Y2.5057
X0.1541 Y2.5054
X0.1532 Y2.5046
X0.1526 Y2.5035
X0.1525 Y2.5022
X0.1529 Y2.501
X0.1535 Y2.5 Z0.1208
X0.154 Y2.4991 Z0.1215
X0.1543 Y2.4985 Z0.1225
X0.1544 Y2.4983 Z0.1237
G0 Z0.333
X0.0892 Y2.2162
Z0.1268
G1 Z0.1237 F14.
X0.0894 Y2.2161 Z0.1225
X0.0899 Y2.2158 Z0.1215
X0.0908 Y2.2153 Z0.1208
X0.0918 Y2.2146 Z0.1206
G3 X0.1215 Y2.2059 I0.0318 J0.0536
G1 X0.1331
X0.139 Y2.2062
X0.1439 Y2.2094
X0.148 Y2.2137
X0.1513 Y2.2186
X0.1541 Y2.2238
X0.1565 Y2.2298
X0.1583 Y2.2354
X0.1585 Y2.2361
X0.1586 Y2.2369
X0.1587 Y2.2376
X0.1584 Y2.2388
X0.1576 Y2.2398
X0.1565 Y2.2405
X0.1553 Y2.2406
X0.1541 Y2.2402
X0.1531 Y2.2394
X0.1456 Y2.2299
X0.1307 Y2.211
X0.1302 Y2.2097
X0.1301 Y2.2084
X0.1307 Y2.2071
X0.1318 Y2.2063
X0.1331 Y2.2059
X0.144
X0.146
X0.1473
X0.1502 Y2.2061
X0.1553 Y2.209
X0.1565 Y2.2102
X0.1577 Y2.2117
X0.1584 Y2.2135
X0.1587 Y2.2154
X0.1583 Y2.2167
X0.1575 Y2.2178
X0.1563 Y2.2183
X0.1549
X0.1537 Y2.2178
X0.1455 Y2.2115
X0.1446 Y2.2106
X0.1443 Y2.2094
X0.1444 Y2.2081
X0.145 Y2.207
X0.146 Y2.2062
X0.1473 Y2.2059
X0.155
X0.1554 Y2.206
X0.1558 Y2.2061
X0.1562 Y2.2063
X0.1575 Y2.2071
X0.1579 Y2.2075
X0.1583 Y2.2081
X0.1585 Y2.2086
X0.1587 Y2.2092
Y2.2097
Y2.5619
X0.1584 Y2.5631
X0.1576 Y2.5641
X0.1566 Y2.5647
X0.1553 Y2.5649
X0.1541 Y2.5645
X0.1532 Y2.5637
X0.1526 Y2.5626
X0.1525 Y2.5614
X0.1529 Y2.5602
X0.1535 Y2.5592 Z0.1208
X0.154 Y2.5583 Z0.1215
X0.1543 Y2.5577 Z0.1225
X0.1544 Y2.5575 Z0.1237
G0 Z0.333
X0.8812 Y2.6399
Z0.1268
G1 Z0.1237 F14.
X0.8813 Y2.6397 Z0.1225
X0.8817 Y2.6391 Z0.1215
X0.8823 Y2.6383 Z0.1208
X0.883 Y2.6373 Z0.1206
G3 X0.9067 Y2.6175 I0.0506 J0.0363
G1 X0.9097 Y2.6162
X0.9117 Y2.615
X0.914 Y2.6137
X0.9177 Y2.6108
X0.9182 Y2.6101
X0.9225 Y2.606
X0.9281 Y2.6042
X0.9339 Y2.603
X0.9439 Y2.6019
X0.9628 Y2.6012
X0.9817 Y2.6014
X1.0005 Y2.6013
X1.559 Y2.6014
X1.5613 Y2.6017
X1.5634 Y2.6029
X1.5651 Y2.6046
X1.5661 Y2.6062
X1.5704 Y2.6108
X1.5726 Y2.6127
X1.5747 Y2.6142
X1.5757 Y2.6148
G0 Z0.333
X0.9036 Y2.6408
Z0.1268
G1 Z0.1237 F14.
X0.9037 Y2.6405 Z0.1225
X0.9038 Y2.6399 Z0.1215
X0.904 Y2.6389 Z0.1208
X0.9043 Y2.6377 Z0.1206
G3 X0.9182 Y2.6101 I0.0608 J0.0134
G1 X0.9217 Y2.6065
X0.9225 Y2.6053
X0.9246 Y2.6022
X0.9278 Y2.5972
X0.9328 Y2.5942
X0.9384 Y2.5922
X0.9449 Y2.5908
X0.9543 Y2.5896
X0.9732 Y2.5886
X0.9921 Y2.589
X1.0109 Y2.5889
X1.0487
X1.5509
X1.5537 Y2.5891
X1.5565 Y2.5899
X1.5587 Y2.5917
X1.5601 Y2.5943
X1.5605 Y2.5957
X1.5613 Y2.5979
X1.5618 Y2.5991
X1.5634 Y2.6022
X1.5651 Y2.6046
X1.5655 Y2.6058
X1.5654 Y2.607
X1.5649 Y2.6081
X1.5639 Y2.609
X1.5627 Y2.6093
X1.5615 Y2.6092
X1.5604 Y2.6086
X1.5596 Y2.6076
X1.5593 Y2.6064
X1.5592 Y2.6053 Z0.1208
X1.5591 Y2.6042 Z0.1215
Y2.6036 Z0.1225
Y2.6033 Z0.1237
G0 Z0.333
X0.9195 Y2.6357
Z0.1268
G1 Z0.1237 F14.
Y2.6355 Z0.1225
X0.9194 Y2.6348 Z0.1215
X0.9193 Y2.6338 Z0.1208
X0.9192 Y2.6326 Z0.1206
G3 X0.9246 Y2.6022 I0.0621 J-0.0049
G1 X0.9267 Y2.5979
X0.9281 Y2.5936
X0.929 Y2.5908
X0.9326 Y2.5861
X0.9376 Y2.5829
X0.9431 Y2.5807
X0.9488 Y2.5792
X0.9582 Y2.5776
X0.969 Y2.5765
X0.9879 Y2.5763
X1.0067 Y2.5764
X1.0256
X1.0823
X1.5439
X1.5498 Y2.5769
X1.5531 Y2.5776
X1.556 Y2.579
X1.5581 Y2.5815
X1.5588 Y2.5846
X1.559 Y2.5893
X1.5599 Y2.5936
X1.5601 Y2.5943
G0 Z0.333
X0.932 Y2.6273
Z0.1268
G1 Z0.1237 F14.
X0.9319 Y2.6271 Z0.1225
X0.9316 Y2.6265 Z0.1215
X0.9313 Y2.6255 Z0.1208
X0.9309 Y2.6244 Z0.1206
G3 X0.9281 Y2.5936 I0.0587 J-0.0209
G1 X0.9289 Y2.5893
X0.9291 Y2.585
X0.9293 Y2.5821
X0.9323 Y2.577
X0.9369 Y2.5732
X0.9421 Y2.5705
X0.9477 Y2.5684
X0.9545 Y2.5667
X0.9619 Y2.5654
X0.9761 Y2.564
X0.995 Y2.5638
X1.0139 Y2.564
X1.0328 Y2.5639
X1.0517
X1.5395
X1.5454 Y2.5644
X1.5512 Y2.5654
X1.5538 Y2.5664
X1.5564 Y2.5679
X1.5581 Y2.5703
X1.5587 Y2.5732
X1.5588 Y2.5846
X1.5585 Y2.5858
X1.5578 Y2.5868
X1.5567 Y2.5875
X1.5555 Y2.5877
X1.5543 Y2.5873
X1.5533 Y2.5866
X1.5527 Y2.5855
X1.5526 Y2.5842
X1.553 Y2.583
X1.5536 Y2.582 Z0.1208
X1.554 Y2.5811 Z0.1215
X1.5544 Y2.5805 Z0.1225
X1.5545 Y2.5803 Z0.1237
G0 Z0.333
X0.939 Y2.6175
Z0.1268
G1 Z0.1237 F14.
X0.9389 Y2.6173 Z0.1225
X0.9386 Y2.6167 Z0.1215
X0.9381 Y2.6158 Z0.1208
X0.9375 Y2.6148 Z0.1206
G3 X0.9291 Y2.585 I0.0539 J-0.0312
G1 X0.9292 Y2.5764
X0.9294 Y2.5735
X0.9316 Y2.568
X0.9356 Y2.5637
X0.9405 Y2.5604
X0.9459 Y2.5579
X0.9514 Y2.556
X0.9595 Y2.554
X0.9684 Y2.5526
X0.9854 Y2.5513
X1.0043 Y2.5514
X1.0232 Y2.5515
X1.0421 Y2.5514
X1.0609 Y2.5515
X1.0798 Y2.5514
X1.5329
X1.5407 Y2.5518
X1.5466 Y2.5526
X1.5523 Y2.554
X1.5542 Y2.5548
X1.5566 Y2.5564
X1.5581 Y2.5587
X1.5587 Y2.5615
Y2.5732
X1.5584 Y2.5744
X1.5577 Y2.5754
X1.5566 Y2.576
X1.5554 Y2.5762
X1.5542 Y2.5759
X1.5532 Y2.5751
X1.5526 Y2.574
X1.5525 Y2.5728
X1.5529 Y2.5716
X1.5534 Y2.5705 Z0.1208
X1.5539 Y2.5696 Z0.1215
X1.5543 Y2.5691 Z0.1225
X1.5544 Y2.5688 Z0.1237
G0 Z0.333
X0.9393 Y2.6089
Z0.1268
G1 Z0.1237 F14.
X0.9392 Y2.6087 Z0.1225
X0.9389 Y2.6081 Z0.1215
X0.9383 Y2.6072 Z0.1208
X0.9377 Y2.6062 Z0.1206
G3 X0.9292 Y2.5764 I0.0538 J-0.0315
G1 X0.9293 Y2.5666
X0.9296 Y2.5607
X0.9326 Y2.5556
X0.9369 Y2.5515
X0.9419 Y2.5484
X0.9472 Y2.5459
X0.9534 Y2.5438
X0.9601 Y2.5421
X0.9716 Y2.5402
X0.9848 Y2.539
X1.0037 Y2.5389
X1.0226 Y2.539
X1.0415 Y2.5389
X1.0603 Y2.539
X1.1359
X1.5323
X1.5407 Y2.5396
X1.5465 Y2.5405
X1.5523 Y2.542
X1.5543 Y2.5429
X1.5566 Y2.5445
X1.5581 Y2.5468
X1.5587 Y2.5496
Y2.5615
X1.5584 Y2.5627
X1.5576 Y2.5637
X1.5566 Y2.5644
X1.5553 Y2.5645
X1.5541 Y2.5642
X1.5532 Y2.5634
X1.5526 Y2.5623
X1.5525 Y2.561
X1.5529 Y2.5598
X1.5535 Y2.5588 Z0.1208
X1.554 Y2.5579 Z0.1215
X1.5543 Y2.5573 Z0.1225
X1.5544 Y2.5571 Z0.1237
G0 Z0.333
X0.9396 Y2.5989
Z0.1268
G1 Z0.1237 F14.
X0.9394 Y2.5987 Z0.1225
X0.9391 Y2.5981 Z0.1215
X0.9386 Y2.5973 Z0.1208
X0.938 Y2.5962 Z0.1206
G3 X0.9293 Y2.5666 I0.0536 J-0.0318
G1 Y2.555
X0.9296 Y2.5491
X0.9326 Y2.5441
X0.937 Y2.54
X0.9419 Y2.5368
X0.9473 Y2.5343
X0.9536 Y2.532
X0.9611 Y2.53
X0.9716 Y2.5281
X0.9842 Y2.5268
X1.0031 Y2.5263
X1.022 Y2.5265
X1.0409 Y2.5264
X1.0598 Y2.5265
X1.5223
X1.5342 Y2.5268
X1.5419 Y2.5276
X1.5477 Y2.5286
X1.5533 Y2.5303
X1.5546 Y2.531
X1.5568 Y2.5326
X1.5582 Y2.5349
X1.5587 Y2.5375
Y2.5496
X1.5584 Y2.5508
X1.5576 Y2.5518
X1.5566 Y2.5524
X1.5553 Y2.5526
X1.5541 Y2.5522
X1.5532 Y2.5514
X1.5526 Y2.5503
X1.5525 Y2.5491
X1.5529 Y2.5479
X1.5535 Y2.5469 Z0.1208
X1.554 Y2.546 Z0.1215
X1.5543 Y2.5454 Z0.1225
X1.5544 Y2.5452 Z0.1237
G0 Z0.333
X0.9396 Y2.5873
Z0.1268
G1 Z0.1237 F14.
X0.9394 Y2.5871 Z0.1225
X0.9391 Y2.5866 Z0.1215
X0.9386 Y2.5857 Z0.1208
X0.938 Y2.5847 Z0.1206
G3 X0.9293 Y2.555 I0.0536 J-0.0318
G1 Y2.5441
X0.9296 Y2.5382
X0.9324 Y2.533
X0.9366 Y2.5288
X0.9415 Y2.5255
X0.9468 Y2.5228
X0.9526 Y2.5206
X0.9598 Y2.5184
X0.9698 Y2.5162
X0.9808 Y2.5148
X0.9996 Y2.5138
X1.0185 Y2.514
X1.0563
X1.5094
X1.5282 Y2.5141
X1.5376 Y2.5147
X1.5446 Y2.5158
X1.5504 Y2.5172
X1.554 Y2.5186
X1.5565 Y2.5202
X1.5581 Y2.5226
X1.5587 Y2.5254
Y2.5375
X1.5584 Y2.5387
X1.5576 Y2.5397
X1.5566 Y2.5404
X1.5553 Y2.5405
X1.5541 Y2.5402
X1.5532 Y2.5394
X1.5526 Y2.5383
X1.5525 Y2.537
X1.5529 Y2.5359
X1.5535 Y2.5348 Z0.1208
X1.554 Y2.5339 Z0.1215
X1.5543 Y2.5334 Z0.1225
X1.5544 Y2.5332 Z0.1237
G0 Z0.333
X0.9396 Y2.5764
Z0.1268
G1 Z0.1237 F14.
X0.9394 Y2.5762 Z0.1225
X0.9391 Y2.5756 Z0.1215
X0.9386 Y2.5747 Z0.1208
X0.938 Y2.5737 Z0.1206
G3 X0.9293 Y2.5441 I0.0536 J-0.0318
G1 Y2.5322
X0.9296 Y2.5263
X0.9325 Y2.5212
X0.9367 Y2.5171
X0.9416 Y2.5137
X0.9468 Y2.511
X0.9533 Y2.5084
X0.9601 Y2.5063
X0.9693 Y2.5042
X0.9829 Y2.5023
X1.0012 Y2.5012
X1.0201 Y2.5016
X1.039 Y2.5015
X1.5109
X1.5204
X1.5326 Y2.502
X1.5409 Y2.5029
X1.5467 Y2.5041
X1.5524 Y2.5057
X1.5544 Y2.5067
X1.5567 Y2.5083
X1.5582 Y2.5106
X1.5587 Y2.5133
Y2.5254
X1.5584 Y2.5266
X1.5576 Y2.5276
X1.5566 Y2.5283
X1.5553 Y2.5284
X1.5541 Y2.5281
X1.5532 Y2.5273
X1.5526 Y2.5262
X1.5525 Y2.5249
X1.5529 Y2.5238
X1.5535 Y2.5227 Z0.1208
X1.554 Y2.5218 Z0.1215
X1.5543 Y2.5213 Z0.1225
X1.5544 Y2.5211 Z0.1237
G0 Z0.333
X0.9396 Y2.5646
Z0.1268
G1 Z0.1237 F14.
X0.9394 Y2.5644 Z0.1225
X0.9391 Y2.5638 Z0.1215
X0.9386 Y2.5629 Z0.1208
X0.938 Y2.5619 Z0.1206
G3 X0.9293 Y2.5322 I0.0536 J-0.0318
G1 Y2.5207
X0.9296 Y2.5148
X0.9324 Y2.5096
X0.9366 Y2.5054
X0.9414 Y2.502
X0.9466 Y2.4992
X0.9528 Y2.4966
X0.9569 Y2.4953
X0.9576 Y2.4951
X0.9584 Y2.495
X0.9592 Y2.4949
X0.9604 Y2.4952
X0.9614 Y2.496
X0.962 Y2.497
X0.9622 Y2.4983
X0.9618 Y2.4995
X0.9611 Y2.5004
X0.9527 Y2.5075
X0.9344 Y2.523
X0.9332 Y2.5236
X0.9318
X0.9305 Y2.5231
X0.9296 Y2.522
X0.9293 Y2.5207
Y2.5078
Y2.5065
Y2.5049
Y2.5034
X0.9321 Y2.4982
X0.933 Y2.4972
X0.9345 Y2.496
X0.9363 Y2.4952
X0.9383 Y2.4949
X0.9396 Y2.4953
X0.9407 Y2.4962
X0.9413 Y2.4975
X0.9412 Y2.4989
X0.9405 Y2.5001
X0.9347 Y2.5068
X0.9338 Y2.5076
X0.9326 Y2.5079
X0.9313 Y2.5077
X0.9303 Y2.5071
X0.9295 Y2.5061
X0.9293 Y2.5049
Y2.4983
Y2.4979
X0.9295 Y2.4974
X0.9297 Y2.497
X0.9301 Y2.4966
X0.9311 Y2.4957
X0.9316 Y2.4954
X0.932 Y2.4951
X0.9325 Y2.495
X0.9329 Y2.4949
X1.5447
X1.546
X1.5476
X1.5535 Y2.4952
X1.5543 Y2.4956
X1.5566 Y2.4972
X1.5581 Y2.4995
X1.5587 Y2.5023
X1.5584 Y2.5035
X1.5576 Y2.5045
X1.5566 Y2.5051
X1.5553 Y2.5053
X1.5541 Y2.5049
X1.5463 Y2.5008
X1.5452 Y2.4999
X1.5447 Y2.4987
Y2.4974
X1.5453 Y2.4961
X1.5463 Y2.4953
X1.5476 Y2.4949
X1.5551
X1.5557 Y2.495
X1.5563 Y2.4953
X1.5569 Y2.4957
X1.5575 Y2.4962
X1.5582 Y2.497
X1.5585 Y2.4977
X1.5587 Y2.4985
Y2.5133
X1.5584 Y2.5145
X1.5576 Y2.5155
X1.5566 Y2.5162
X1.5553 Y2.5163
X1.5541 Y2.516
X1.5532 Y2.5152
X1.5526 Y2.5141
X1.5525 Y2.5128
X1.5529 Y2.5116
X1.5535 Y2.5106 Z0.1208
X1.554 Y2.5097 Z0.1215
X1.5543 Y2.5091 Z0.1225
X1.5544 Y2.5089 Z0.1237
G0 Z0.333
X2.2786 Y2.6387
Z0.1268
G1 Z0.1237 F14.
X2.2787 Y2.6386 Z0.1225
X2.2791 Y2.638 Z0.1215
X2.2798 Y2.6373 Z0.1208
X2.2805 Y2.6363 Z0.1206
G3 X2.3054 Y2.6179 I0.0483 J0.0393
G1 X2.3084 Y2.6168
X2.3127 Y2.6145
X2.317 Y2.6113
X2.3177 Y2.6108
X2.3188 Y2.6096
X2.323 Y2.6055
X2.3287 Y2.6038
X2.3355 Y2.6027
X2.3493 Y2.6015
X2.3682 Y2.6013
X2.4248 Y2.6014
X2.9588
X2.9611 Y2.6017
X2.9632 Y2.6028
X2.9648 Y2.6044
X2.9664 Y2.6065
X2.9691 Y2.6096
X2.9703 Y2.6108
X2.9734 Y2.6133
X2.9761 Y2.615
X2.9769 Y2.6159
X2.9774 Y2.617
Y2.6183
X2.9768 Y2.6194
X2.9759 Y2.6202
X2.9747 Y2.6206
X2.9735 Y2.6205
X2.9724 Y2.62
X2.9716 Y2.619
X2.971 Y2.6179 Z0.1208
X2.9705 Y2.617 Z0.1215
X2.9702 Y2.6164 Z0.1225
X2.9701 Y2.6162 Z0.1237
G0 Z0.333
X2.3041 Y2.6402
Z0.1268
G1 Z0.1237 F14.
X2.3042 Y2.64 Z0.1225
X2.3043 Y2.6393 Z0.1215
X2.3045 Y2.6384 Z0.1208
X2.3048 Y2.6372 Z0.1206
G3 X2.3188 Y2.6096 I0.0608 J0.0135
G1 X2.3212 Y2.607
X2.3217 Y2.6065
X2.3245 Y2.6022
X2.3277 Y2.5972
X2.3328 Y2.5942
X2.3383 Y2.5922
X2.3441 Y2.5909
X2.3536 Y2.5897
X2.3724 Y2.5887
X2.3913 Y2.5889
X2.4102
X2.9508
X2.9537 Y2.5891
X2.9565 Y2.5899
X2.9587 Y2.5917
X2.9601 Y2.5943
X2.9605 Y2.5958
X2.9613 Y2.5979
X2.9634 Y2.6022
X2.9648 Y2.6044
X2.9652 Y2.6056
X2.9651 Y2.6068
X2.9645 Y2.6079
X2.9636 Y2.6087
X2.9624 Y2.6091
X2.9611 Y2.6089
X2.9601 Y2.6083
X2.9593 Y2.6073
X2.959 Y2.6061
Y2.6049 Z0.1208
X2.9589 Y2.6039 Z0.1215
Y2.6032 Z0.1225
Y2.603 Z0.1237
G0 Z0.333
X2.3173 Y2.6354
Z0.1268
G1 Z0.1237 F14.
Y2.6351 Z0.1225
Y2.6345 Z0.1215
Y2.6334 Z0.1208
Y2.6322 Z0.1206
G3 X2.3245 Y2.6022 I0.0623 J-0.001
G1 X2.3255 Y2.6003
X2.3267 Y2.5979
X2.3274 Y2.5957
X2.3281 Y2.5936
X2.3289 Y2.5908
X2.3325 Y2.5861
X2.3375 Y2.5829
X2.343 Y2.5807
X2.3487 Y2.5792
X2.3581 Y2.5776
X2.3693 Y2.5765
X2.3882 Y2.5763
X2.4071 Y2.5764
X2.426
X2.9439
X2.9498 Y2.5769
X2.9531 Y2.5776
X2.956 Y2.579
X2.9581 Y2.5815
X2.9588 Y2.5846
X2.959 Y2.5893
X2.9599 Y2.5936
X2.9601 Y2.5943
G0 Z0.333
X2.332 Y2.6273
Z0.1268
G1 Z0.1237 F14.
X2.3319 Y2.6271 Z0.1225
X2.3316 Y2.6265 Z0.1215
X2.3313 Y2.6255 Z0.1208
X2.3309 Y2.6244 Z0.1206
G3 X2.3281 Y2.5936 I0.0587 J-0.0209
G1 X2.3289 Y2.5893
X2.3291 Y2.585
X2.3293 Y2.5821
X2.3323 Y2.577
X2.3369 Y2.5732
X2.3421 Y2.5705
X2.3476 Y2.5684
X2.3546 Y2.5666
X2.362 Y2.5653
X2.3765 Y2.564
X2.3954 Y2.5638
X2.4143 Y2.564
X2.4332 Y2.5639
X2.4521
X2.9395
X2.9453 Y2.5644
X2.9512 Y2.5654
X2.9538 Y2.5664
X2.9563 Y2.5679
X2.9581 Y2.5703
X2.9587 Y2.5732
X2.9588 Y2.5846
X2.9585 Y2.5858
X2.9578 Y2.5868
X2.9567 Y2.5875
X2.9555 Y2.5877
X2.9543 Y2.5873
X2.9533 Y2.5866
X2.9527 Y2.5855
X2.9526 Y2.5842
X2.953 Y2.583
X2.9536 Y2.582 Z0.1208
X2.954 Y2.5811 Z0.1215
X2.9544 Y2.5805 Z0.1225
X2.9545 Y2.5803 Z0.1237
G0 Z0.333
X2.339 Y2.6175
Z0.1268
G1 Z0.1237 F14.
X2.3389 Y2.6173 Z0.1225
X2.3386 Y2.6167 Z0.1215
X2.3381 Y2.6158 Z0.1208
X2.3375 Y2.6148 Z0.1206
G3 X2.3291 Y2.585 I0.0539 J-0.0312
G1 X2.3292 Y2.5764
X2.3294 Y2.5735
X2.3315 Y2.568
X2.3356 Y2.5637
X2.3405 Y2.5604
X2.3458 Y2.5579
X2.3514 Y2.556
X2.3594 Y2.554
X2.3685 Y2.5526
X2.3856 Y2.5513
X2.4233 Y2.5515
X2.4422 Y2.5514
X2.4611
X2.9331
X2.9408 Y2.5518
X2.9467 Y2.5526
X2.9524 Y2.554
X2.9543 Y2.5548
X2.9566 Y2.5564
X2.9581 Y2.5588
X2.9587 Y2.5615
Y2.5732
X2.9584 Y2.5744
X2.9577 Y2.5754
X2.9566 Y2.5761
X2.9554 Y2.5762
X2.9542 Y2.5759
X2.9532 Y2.5751
X2.9526 Y2.574
X2.9525 Y2.5728
X2.9529 Y2.5716
X2.9534 Y2.5705 Z0.1208
X2.9539 Y2.5696 Z0.1215
X2.9543 Y2.5691 Z0.1225
X2.9544 Y2.5689 Z0.1237
G0 Z0.333
X2.3393 Y2.6089
Z0.1268
G1 Z0.1237 F14.
X2.3392 Y2.6087 Z0.1225
X2.3389 Y2.6081 Z0.1215
X2.3383 Y2.6072 Z0.1208
X2.3377 Y2.6062 Z0.1206
G3 X2.3292 Y2.5764 I0.0538 J-0.0315
G1 X2.3293 Y2.5649
X2.3294 Y2.562
X2.3319 Y2.5566
X2.3359 Y2.5523
X2.3408 Y2.549
X2.3461 Y2.5464
X2.3519 Y2.5443
X2.3582 Y2.5426
X2.3689 Y2.5405
X2.3806 Y2.5393
X2.3995 Y2.5388
X2.4184 Y2.539
X2.4372
X2.9281
X2.9373 Y2.5393
X2.944 Y2.5401
X2.9498 Y2.5413
X2.9538 Y2.5427
X2.9564 Y2.5443
X2.9581 Y2.5467
X2.9587 Y2.5496
Y2.5615
X2.9584 Y2.5627
X2.9576 Y2.5637
X2.9566 Y2.5644
X2.9553 Y2.5645
X2.9541 Y2.5642
X2.9532 Y2.5634
X2.9526 Y2.5623
X2.9525 Y2.561
X2.9529 Y2.5599
X2.9535 Y2.5588 Z0.1208
X2.954 Y2.5579 Z0.1215
X2.9543 Y2.5574 Z0.1225
X2.9544 Y2.5571 Z0.1237
G0 Z0.333
X2.3396 Y2.5973
Z0.1268
G1 Z0.1237 F14.
X2.3394 Y2.5971 Z0.1225
X2.3391 Y2.5965 Z0.1215
X2.3386 Y2.5956 Z0.1208
X2.338 Y2.5946 Z0.1206
G3 X2.3293 Y2.5649 I0.0536 J-0.0318
G1 Y2.555
X2.3296 Y2.5491
X2.3327 Y2.5441
X2.337 Y2.5401
X2.342 Y2.5369
X2.3473 Y2.5343
X2.3539 Y2.5319
X2.3613 Y2.5299
X2.3708 Y2.5282
X2.386 Y2.5266
X2.4049 Y2.5262
X2.4238 Y2.5266
X2.4426 Y2.5264
X2.4804 Y2.5265
X2.9146
X2.9309
X2.9397 Y2.5273
X2.9455 Y2.5283
X2.9512 Y2.5297
X2.9541 Y2.5308
X2.9565 Y2.5324
X2.9581 Y2.5348
X2.9587 Y2.5376
Y2.5496
X2.9584 Y2.5508
X2.9576 Y2.5518
X2.9566 Y2.5524
X2.9553 Y2.5526
X2.9541 Y2.5523
X2.9532 Y2.5515
X2.9526 Y2.5504
X2.9525 Y2.5491
X2.9529 Y2.5479
X2.9535 Y2.5469 Z0.1208
X2.954 Y2.546 Z0.1215
X2.9543 Y2.5454 Z0.1225
X2.9544 Y2.5452 Z0.1237
G0 Z0.333
X2.3396 Y2.5873
Z0.1268
G1 Z0.1237 F14.
X2.3394 Y2.5871 Z0.1225
X2.3391 Y2.5866 Z0.1215
X2.3386 Y2.5857 Z0.1208
X2.338 Y2.5847 Z0.1206
G3 X2.3293 Y2.555 I0.0536 J-0.0318
G1 Y2.5441
X2.3296 Y2.5382
X2.3324 Y2.533
X2.3366 Y2.5288
X2.3415 Y2.5255
X2.3468 Y2.5228
X2.3525 Y2.5206
X2.3594 Y2.5185
X2.3699 Y2.5162
X2.3809 Y2.5148
X2.3998 Y2.5138
X2.4186 Y2.514
X2.4375
X2.4564
X2.4753
X2.9095
X2.9284
X2.938 Y2.5148
X2.9448 Y2.5159
X2.9505 Y2.5173
X2.954 Y2.5187
X2.9565 Y2.5203
X2.9581 Y2.5226
X2.9587 Y2.5255
Y2.5376
X2.9584 Y2.5388
X2.9576 Y2.5398
X2.9566 Y2.5404
X2.9553 Y2.5406
X2.9541 Y2.5403
X2.9532 Y2.5395
X2.9526 Y2.5384
X2.9525 Y2.5371
X2.9529 Y2.5359
X2.9535 Y2.5349 Z0.1208
X2.954 Y2.534 Z0.1215
X2.9543 Y2.5334 Z0.1225
X2.9544 Y2.5332 Z0.1237
G0 Z0.333
X2.3396 Y2.5764
Z0.1268
G1 Z0.1237 F14.
X2.3394 Y2.5762 Z0.1225
X2.3391 Y2.5756 Z0.1215
X2.3386 Y2.5747 Z0.1208
X2.338 Y2.5737 Z0.1206
G3 X2.3293 Y2.5441 I0.0536 J-0.0318
G1 Y2.5322
X2.3296 Y2.5263
X2.3325 Y2.5212
X2.3367 Y2.5171
X2.3416 Y2.5137
X2.3468 Y2.511
X2.3534 Y2.5084
X2.3604 Y2.5062
X2.3697 Y2.5041
X2.3838 Y2.5022
X2.4015 Y2.5011
X2.4204 Y2.5016
X2.4393
X2.4581 Y2.5015
X2.477
X2.6469
X2.9112
X2.9207
X2.9328 Y2.502
X2.941 Y2.503
X2.9468 Y2.5042
X2.9525 Y2.5058
X2.9544 Y2.5067
X2.9567 Y2.5083
X2.9582 Y2.5107
X2.9587 Y2.5134
Y2.5255
X2.9584 Y2.5267
X2.9576 Y2.5277
X2.9566 Y2.5283
X2.9553 Y2.5285
X2.9541 Y2.5281
X2.9532 Y2.5274
X2.9526 Y2.5263
X2.9525 Y2.525
X2.9529 Y2.5238
X2.9535 Y2.5228 Z0.1208
X2.954 Y2.5219 Z0.1215
X2.9543 Y2.5213 Z0.1225
X2.9544 Y2.5211 Z0.1237
G0 Z0.333
X2.3396 Y2.5646
Z0.1268
G1 Z0.1237 F14.
X2.3394 Y2.5644 Z0.1225
X2.3391 Y2.5638 Z0.1215
X2.3386 Y2.5629 Z0.1208
X2.338 Y2.5619 Z0.1206
G3 X2.3293 Y2.5322 I0.0536 J-0.0318
G1 Y2.5207
X2.3296 Y2.5148
X2.3324 Y2.5096
X2.3366 Y2.5054
X2.3414 Y2.502
X2.3466 Y2.4992
X2.3528 Y2.4966
X2.3572 Y2.4952
X2.358 Y2.495
X2.3587 Y2.4949
X2.3595 Y2.4948
X2.3607 Y2.4951
X2.3617 Y2.4959
X2.3623 Y2.4969
X2.3625 Y2.4982
X2.3622 Y2.4994
X2.3614 Y2.5003
X2.3527 Y2.5076
X2.3344 Y2.523
X2.3331 Y2.5236
X2.3318
X2.3305 Y2.5231
X2.3296 Y2.522
X2.3293 Y2.5207
Y2.5078
Y2.5065
Y2.5049
Y2.5034
X2.3321 Y2.4982
X2.3331 Y2.4971
X2.3347 Y2.4959
X2.3365 Y2.4951
X2.3384 Y2.4948
X2.3397 Y2.4952
X2.3408 Y2.4961
X2.3414 Y2.4974
X2.3413 Y2.4988
X2.3406 Y2.5
X2.3347 Y2.5068
X2.3338 Y2.5076
X2.3326 Y2.5079
X2.3313 Y2.5077
X2.3303 Y2.5071
X2.3295 Y2.5061
X2.3293 Y2.5049
Y2.4986
Y2.498
X2.3295 Y2.4974
X2.3298 Y2.4967
X2.3303 Y2.4961
X2.3309 Y2.4955
X2.3314 Y2.4951
X2.3319 Y2.4949
X2.3325 Y2.4948
X2.9457
X2.9477
X2.949
X2.9549 Y2.4951
X2.9569 Y2.4968
X2.9582 Y2.499
X2.9587 Y2.5015
X2.9584 Y2.5027
X2.9576 Y2.5038
X2.9565 Y2.5044
X2.9553 Y2.5045
X2.9541 Y2.5042
X2.9476 Y2.5007
X2.9466 Y2.4998
X2.946 Y2.4986
Y2.4972
X2.9466 Y2.496
X2.9477 Y2.4952
X2.949 Y2.4948
X2.9548
X2.9553
X2.9558 Y2.4949
X2.9562 Y2.4951
X2.9568 Y2.4954
X2.9573 Y2.4959
X2.9579 Y2.4965
X2.9584 Y2.4972
X2.9586 Y2.4977
X2.9587 Y2.4982
Y2.5134
X2.9584 Y2.5146
X2.9576 Y2.5156
X2.9566 Y2.5162
X2.9553 Y2.5164
X2.9541 Y2.516
X2.9532 Y2.5152
X2.9526 Y2.5141
X2.9525 Y2.5129
X2.9529 Y2.5117
X2.9535 Y2.5107 Z0.1208
X2.954 Y2.5098 Z0.1215
X2.9543 Y2.5092 Z0.1225
X2.9544 Y2.509 Z0.1237
G0 Z0.333
X3.7408 Y1.9462
Z0.1268
G1 Z0.1237 F14.
X3.7406 Y1.946 Z0.1225
X3.7402 Y1.9455 Z0.1215
X3.7395 Y1.9447 Z0.1208
X3.7388 Y1.9438 Z0.1206
G3 X3.7255 Y1.9159 I0.0479 J-0.0398
G1 X3.7242 Y1.9073
X3.7234 Y1.903
X3.7215 Y1.8944
X3.7169 Y1.8773
X3.7157 Y1.8736
X3.7141 Y1.8679
X3.7129 Y1.8618
X3.7117 Y1.851
X3.7111 Y1.8322
X3.7112 Y1.8133
Y1.7944
Y0.8099
Y0.8091
X3.7114 Y0.8083
X3.7116 Y0.8075
X3.7125 Y0.8049
X3.7169 Y0.792
X3.7215 Y0.7749
X3.7234 Y0.7663
X3.7238 Y0.764
X3.7243 Y0.7629
X3.7252 Y0.7621
X3.7264 Y0.7616
X3.7276 Y0.7617
X3.7288 Y0.7623
X3.7296 Y0.7632
X3.7299 Y0.7644
X3.7298 Y0.7656
X3.7292 Y0.7667
X3.7284 Y0.7676 Z0.1208
X3.7278 Y0.7684 Z0.1215
X3.7273 Y0.7689 Z0.1225
X3.7272 Y0.7691 Z0.1237
G0 Z0.333
X3.7358 Y1.9009
Z0.1268
G1 Z0.1237 F14.
X3.7356 Y1.9008 Z0.1225
X3.7351 Y1.9003 Z0.1215
X3.7344 Y1.8997 Z0.1208
X3.7335 Y1.8989 Z0.1206
G3 X3.7157 Y1.8736 I0.0405 J-0.0474
G1 X3.7125 Y1.8644
X3.711 Y1.8601
X3.7071 Y1.85
X3.7059 Y1.8472
X3.7039 Y1.8429
X3.7017 Y1.8375
X3.7005 Y1.8317
X3.6993 Y1.8218
X3.6986 Y1.8029
X3.6987 Y1.784
Y1.7463
Y0.8391
X3.6988 Y0.8379
X3.6991 Y0.8368
X3.6995 Y0.8358
X3.6999 Y0.8349
X3.7059 Y0.8221
X3.7071 Y0.8193
X3.7116 Y0.8075
X3.7123 Y0.8064
X3.7134 Y0.8057
X3.7146 Y0.8055
X3.7158 Y0.8058
X3.7168 Y0.8065
X3.7175 Y0.8076
X3.7176 Y0.8088
X3.7173 Y0.81
X3.7165 Y0.811
X3.7156 Y0.8118 Z0.1208
X3.7149 Y0.8124 Z0.1215
X3.7143 Y0.8129 Z0.1225
X3.7142 Y0.813 Z0.1237
G0 Z0.333
X3.7269 Y1.868
Z0.1268
G1 Z0.1237 F14.
X3.7267 Y1.8678 Z0.1225
X3.7261 Y1.8674 Z0.1215
X3.7253 Y1.8669 Z0.1208
X3.7243 Y1.8662 Z0.1206
G3 X3.7039 Y1.8429 I0.0352 J-0.0514
G1 X3.6999 Y1.8344
X3.6934 Y1.8215
X3.6926 Y1.8202
X3.6899 Y1.815
X3.6884 Y1.8093
X3.6873 Y1.8016
X3.686 Y1.7834
X3.6863 Y1.7645
X3.6862 Y1.7456
Y0.8617
X3.6864 Y0.8603
X3.6867 Y0.859
X3.6873 Y0.8578
X3.6908 Y0.8521
X3.6934 Y0.8478
X3.6995 Y0.8358
X3.7003 Y0.8348
X3.7014 Y0.8343
X3.7027 Y0.8342
X3.7039 Y0.8346
X3.7048 Y0.8355
X3.7053 Y0.8366
Y0.8379
X3.7048 Y0.839
X3.7039 Y0.8399
X3.7029 Y0.8406 Z0.1208
X3.7021 Y0.8411 Z0.1215
X3.7015 Y0.8415 Z0.1225
X3.7013 Y0.8416 Z0.1237
G0 Z0.333
X3.7179 Y1.8428
Z0.1268
G1 Z0.1237 F14.
X3.7177 Y1.8427 Z0.1225
X3.7171 Y1.8424 Z0.1215
X3.7162 Y1.8419 Z0.1208
X3.7152 Y1.8413 Z0.1206
G3 X3.6926 Y1.8202 I0.0299 J-0.0547
G1 X3.6908 Y1.8172
X3.6856 Y1.8086
X3.6829 Y1.8043
X3.6813 Y1.802
X3.6784 Y1.7969
X3.6764 Y1.7913
X3.6753 Y1.7855
X3.6742 Y1.7749
X3.6737 Y1.7561
X3.6738 Y1.7372
Y0.8809
X3.6739 Y0.8795
X3.6743 Y0.8781
X3.675 Y0.8768
X3.6773 Y0.8735
X3.6829 Y0.865
X3.6866 Y0.8591
X3.6873 Y0.8578
X3.6882 Y0.857
X3.6894 Y0.8565
X3.6906
X3.6917 Y0.857
X3.6926 Y0.858
X3.693 Y0.8591
X3.6929 Y0.8604
X3.6924 Y0.8615
X3.6914 Y0.8623
X3.6904 Y0.8629 Z0.1208
X3.6895 Y0.8634 Z0.1215
X3.6889 Y0.8637 Z0.1225
X3.6887 Y0.8638 Z0.1237
G0 Z0.333
X3.7076 Y1.8235
Z0.1268
G1 Z0.1237 F14.
X3.7074 Y1.8234 Z0.1225
X3.7068 Y1.8231 Z0.1215
X3.7059 Y1.8227 Z0.1208
X3.7048 Y1.8221 Z0.1206
G3 X3.6813 Y1.802 I0.0276 J-0.0559
G1 X3.6771 Y1.7954
X3.6743 Y1.7915
X3.6702 Y1.7863
X3.6667 Y1.7815
X3.6646 Y1.776
X3.6633 Y1.7701
X3.6622 Y1.7619
X3.661 Y1.7431
X3.6613 Y1.7242
Y1.7053
Y0.8967
X3.6615 Y0.895
X3.662 Y0.8935
X3.6629 Y0.8921
X3.6743 Y0.8778
X3.675 Y0.8768
X3.676 Y0.876
X3.6771 Y0.8756
X3.6784 Y0.8757
X3.6795 Y0.8762
X3.6803 Y0.8772
X3.6806 Y0.8784
X3.6805 Y0.8796
X3.6799 Y0.8807
X3.6789 Y0.8815
X3.6778 Y0.882 Z0.1208
X3.6769 Y0.8824 Z0.1215
X3.6763 Y0.8827 Z0.1225
X3.6761 Y0.8828 Z0.1237
G0 Z0.333
X3.6984 Y1.8051
Z0.1268
G1 Z0.1237 F14.
X3.6982 Y1.805 Z0.1225
X3.6976 Y1.8047 Z0.1215
X3.6966 Y1.8044 Z0.1208
X3.6955 Y1.804 Z0.1206
G3 X3.6702 Y1.7863 I0.0219 J-0.0583
G1 X3.6599 Y1.7735
X3.6583 Y1.7716
X3.6547 Y1.7669
X3.6525 Y1.7614
X3.651 Y1.7557
X3.6499 Y1.7492
X3.6489 Y1.7362
X3.6488 Y1.7173
Y1.6984
Y1.6796
Y0.9108
X3.649 Y0.9089
X3.6498 Y0.9072
X3.6509 Y0.9057
X3.6569 Y0.8993
X3.6599 Y0.8958
X3.6629 Y0.8921
X3.6639 Y0.8913
X3.6651 Y0.891
X3.6663 Y0.8912
X3.6674 Y0.8919
X3.6681 Y0.8929
X3.6684 Y0.8941
X3.6681 Y0.8953
X3.6674 Y0.8964
X3.6664 Y0.897
X3.6653 Y0.8975 Z0.1208
X3.6643 Y0.8978 Z0.1215
X3.6637 Y0.8981 Z0.1225
X3.6635 Y0.8982 Z0.1237
G0 Z0.333
X3.6871 Y1.7895
Z0.1268
G1 Z0.1237 F14.
X3.6869 Z0.1225
X3.6862 Y1.7893 Z0.1215
X3.6853 Y1.7889 Z0.1208
X3.6841 Y1.7885 Z0.1206
G3 X3.6583 Y1.7716 I0.0201 J-0.059
G1 X3.6569 Y1.77
X3.6513 Y1.764
X3.647 Y1.7597
X3.6431 Y1.7553
X3.6406 Y1.75
X3.6389 Y1.7443
X3.6377 Y1.7373
X3.6364 Y1.7231
X3.6363 Y1.7042
Y1.5532
Y0.9233
X3.6366 Y0.9214
X3.6373 Y0.9197
X3.6384 Y0.9181
X3.6509 Y0.9057
G0 Z0.333
X3.6772 Y1.7753
Z0.1268
G1 Z0.1237 F14.
X3.677 Z0.1225
X3.6763 Y1.7751 Z0.1215
X3.6753 Y1.7748 Z0.1208
X3.6742 Y1.7745 Z0.1206
G3 X3.647 Y1.7597 I0.0154 J-0.0604
G1 X3.6384 Y1.7511
X3.6357 Y1.7486
X3.6349 Y1.7478
X3.6306 Y1.7438
X3.6282 Y1.7384
X3.6265 Y1.7327
X3.6253 Y1.7256
X3.624 Y1.7122
X3.6238 Y1.6933
Y1.6745
Y0.9341
X3.6242 Y0.932
X3.6251 Y0.9301
X3.6265 Y0.9285
X3.6299 Y0.9258
X3.6357 Y0.9207
X3.6384 Y0.9181
G0 Z0.333
X3.6661 Y1.7612
Z0.1268
G1 Z0.1237 F14.
X3.6659 Y1.7611 Z0.1225
X3.6652 Y1.761 Z0.1215
X3.6642 Y1.7608 Z0.1208
X3.663 Y1.7606 Z0.1206
G3 X3.6349 Y1.7478 I0.0109 J-0.0614
G1 X3.6299 Y1.7435
X3.6242 Y1.739
X3.6198 Y1.735
X3.6168 Y1.7299
X3.6149 Y1.7244
X3.6135 Y1.7186
X3.6122 Y1.7092
X3.6111 Y1.6904
X3.6114 Y1.6715
X3.6113 Y1.6526
X3.6114 Y1.1051
Y0.9472
Y0.9439
X3.6117 Y0.9417
X3.6127 Y0.9397
X3.6142 Y0.9382
X3.6202 Y0.9336
X3.6265 Y0.9285
X3.6277 Y0.9279
X3.6289
X3.6301 Y0.9283
X3.631 Y0.9292
X3.6315 Y0.9303
Y0.9316
X3.631 Y0.9327
X3.6301 Y0.9336
X3.6289 Y0.934
X3.6277 Y0.9342 Z0.1208
X3.6267 Y0.9344 Z0.1215
X3.6261 Y0.9345 Z0.1225
X3.6258 Z0.1237
G0 Z0.333
X3.6559 Y1.7513
Z0.1268
G1 Z0.1237 F14.
X3.6556 Z0.1225
X3.6549 Y1.7512 Z0.1215
X3.6539 Y1.751 Z0.1208
X3.6528 Y1.7509 Z0.1206
G3 X3.6242 Y1.739 I0.009 J-0.0617
G1 X3.6202 Y1.7357
X3.6116 Y1.7291
X3.6071 Y1.7253
X3.6043 Y1.7201
X3.6024 Y1.7145
X3.6007 Y1.7071
X3.5996 Y1.6986
X3.5985 Y1.6802
X3.599 Y1.6613
X3.5988 Y1.6424
X3.5989 Y1.6235
Y0.9528
X3.5993 Y0.9504
X3.6004 Y0.9483
X3.6022 Y0.9467
X3.6084 Y0.9426
X3.6142 Y0.9382
X3.6154 Y0.9377
X3.6166 Y0.9376
X3.6178 Y0.9381
X3.6187 Y0.939
X3.6191 Y0.9402
Y0.9414
X3.6186 Y0.9425
X3.6176 Y0.9434
X3.6165 Y0.9438
X3.6153 Y0.944 Z0.1208
X3.6143 Y0.9441 Z0.1215
X3.6136 Y0.9442 Z0.1225
X3.6134 Z0.1237
G0 Z0.333
X3.6435 Y1.7406
Z0.1268
G1 Z0.1237 F14.
X3.6433 Z0.1225
X3.6426 Y1.7405 Z0.1215
X3.6416 Y1.7404 Z0.1208
X3.6404 Y1.7403 Z0.1206
G3 X3.6116 Y1.7291 I0.0074 J-0.0619
G1 X3.6084 Y1.7267
X3.601 Y1.7219
X3.5962 Y1.7184
X3.5929 Y1.7135
X3.5906 Y1.7081
X3.5891 Y1.7024
X3.5876 Y1.6937
X3.5866 Y1.6838
X3.5863 Y1.6649
X3.5864 Y1.646
Y1.6271
Y1.6083
Y0.9664
Y0.9604
X3.5865 Y0.9599
X3.587 Y0.9577
X3.5883 Y0.9557
X3.59 Y0.9543
X3.5959 Y0.9507
X3.6022 Y0.9467
X3.6034 Y0.9462
X3.6046 Y0.9463
X3.6057 Y0.9469
X3.6065 Y0.9478
X3.6069 Y0.949
X3.6068 Y0.9503
X3.6062 Y0.9514
X3.6052 Y0.9521
X3.604 Y0.9524
X3.6028 Y0.9525 Z0.1208
X3.6018 Y0.9526 Z0.1215
X3.6011 Z0.1225
X3.6008 Z0.1237
G0 Z0.333
X3.6338 Y1.7309
Z0.1268
G1 Z0.1237 F14.
X3.6335 Z0.1225
X3.6329 Y1.7308 Z0.1215
X3.6318 Z0.1208
X3.6307 Y1.7307 Z0.1206
G3 X3.601 Y1.7219 I0.0025 J-0.0623
G1 X3.5955 Y1.7183
X3.5899 Y1.7149
X3.5887 Y1.7143
X3.5838 Y1.711
X3.5806 Y1.7061
X3.5783 Y1.7006
X3.5767 Y1.6949
X3.5754 Y1.6877
X3.5741 Y1.6746
X3.5738 Y1.6558
X3.574 Y1.6369
X3.5739 Y1.618
Y1.5991
Y1.2782
Y0.9687
X3.5741 Y0.967
X3.5747 Y0.9647
X3.576 Y0.9626
X3.578 Y0.9611
X3.5814 Y0.9593
X3.59 Y0.9543
G0 Z0.333
X3.6219 Y1.7217
Z0.1268
G1 Z0.1237 F14.
X3.6216 Z0.1225
X3.6209 Z0.1215
X3.6199 Y1.7218 Z0.1208
X3.6187 Z0.1206
G3 X3.5887 Y1.7143 I-0.0004 J-0.0623
G1 X3.5814 Y1.71
X3.5784 Y1.7083
X3.5771 Y1.7077
X3.572 Y1.7047
X3.5686 Y1.6999
X3.5663 Y1.6944
X3.5646 Y1.6887
X3.5633 Y1.6822
X3.5619 Y1.6704
X3.5612 Y1.6516
X3.5616 Y1.6327
X3.5614 Y1.6138
X3.5615 Y1.5949
X3.5614 Y1.576
Y1.3873
Y0.9763
X3.5617 Y0.9733
X3.5623 Y0.9709
X3.5637 Y0.9689
X3.5657 Y0.9674
X3.5732 Y0.9636
X3.578 Y0.9611
X3.5792 Y0.9609
X3.5805 Y0.9611
X3.5815 Y0.9617
X3.5822 Y0.9628
X3.5825 Y0.964
X3.5822 Y0.9652
X3.5815 Y0.9662
X3.5804 Y0.9669
X3.5792 Y0.9671
X3.578 Y0.967 Z0.1208
X3.577 Z0.1215
X3.5763 Y0.9669 Z0.1225
X3.5761 Z0.1237
G0 Z0.333
X3.6106 Y1.7132
Z0.1268
G1 Z0.1237 F14.
X3.6103 Z0.1225
X3.6097 Z0.1215
X3.6087 Y1.7133 Z0.1208
X3.6075 Y1.7134 Z0.1206
G3 X3.5771 Y1.7077 I-0.0041 J-0.0622
G1 X3.5698 Y1.704
X3.5655 Y1.7018
X3.5602 Y1.6992
X3.5567 Y1.6944
X3.5543 Y1.689
X3.5525 Y1.6834
X3.5511 Y1.6768
X3.5495 Y1.6652
X3.5487 Y1.649
X3.5492 Y1.6301
X3.5488 Y1.6113
X3.549 Y1.5924
X3.5489 Y1.5735
X3.549 Y1.5546
Y0.9882
Y0.9818
X3.5493 Y0.9786
X3.55 Y0.9762
X3.5515 Y0.9741
X3.5537 Y0.9727
X3.5657 Y0.9674
X3.5669 Y0.9671
X3.5681 Y0.9673
X3.5692 Y0.968
X3.5699 Y0.969
X3.5701 Y0.9703
X3.5698 Y0.9715
X3.5691 Y0.9725
X3.568 Y0.9732
X3.5668 Y0.9733
X3.5656 Z0.1208
X3.5646 Y0.9732 Z0.1215
X3.5639 Z0.1225
X3.5637 Z0.1237
G0 Z0.333
X3.5993 Y1.7054
Z0.1268
G1 Z0.1237 F14.
X3.599 Z0.1225
X3.5984 Y1.7055 Z0.1215
X3.5974 Y1.7056 Z0.1208
X3.5962 Y1.7058 Z0.1206
G3 X3.5655 Y1.7018 I-0.0077 J-0.0618
G1 X3.5536 Y1.6966
X3.5483 Y1.694
X3.5447 Y1.6892
X3.5422 Y1.6839
X3.5404 Y1.6783
X3.5388 Y1.6717
X3.5373 Y1.6615
X3.5364 Y1.6488
X3.5366 Y1.63
X3.5364 Y1.6111
X3.5365 Y1.5922
X3.5364 Y1.5733
X3.5365 Y1.5544
Y0.9975
Y0.9885
X3.537 Y0.9826
X3.5379 Y0.9804
X3.5395 Y0.9786
X3.5415 Y0.9774
X3.5526 Y0.9731
X3.5537 Y0.9727
G0 Z0.333
X3.5873 Y1.7001
Z0.1268
G1 Z0.1237 F14.
X3.5871 Y1.7002 Z0.1225
X3.5864 Y1.7003 Z0.1215
X3.5854 Y1.7004 Z0.1208
X3.5843 Y1.7005 Z0.1206
G3 X3.5536 Y1.6966 I-0.0077 J-0.0618
G1 X3.5526 Y1.6962
X3.5427 Y1.6923
X3.5373 Y1.6899
X3.5334 Y1.6855
X3.5306 Y1.6803
X3.5285 Y1.6748
X3.5269 Y1.6687
X3.5254 Y1.6605
X3.5244 Y1.6494
X3.524 Y1.6305
X3.5239 Y1.6117
X3.524 Y1.5928
Y1.5739
Y1.555
Y1.0075
Y0.9934
X3.5245 Y0.9875
X3.5247 Y0.9868
X3.5256 Y0.9844
X3.5273 Y0.9826
X3.5296 Y0.9814
X3.5355 Y0.9796
X3.5398 Y0.9781
X3.5415 Y0.9774
X3.5428 Y0.9773
X3.544 Y0.9776
X3.5449 Y0.9784
X3.5455 Y0.9795
X3.5456 Y0.9807
X3.5453 Y0.9819
X3.5444 Y0.9828
X3.5433 Y0.9834
X3.5421
X3.5409 Y0.9833 Z0.1208
X3.5399 Y0.9831 Z0.1215
X3.5392 Y0.983 Z0.1225
X3.539 Z0.1237
G0 Z0.333
X3.5766 Y1.6943
Z0.1268
G1 Z0.1237 F14.
X3.5764 Z0.1225
X3.5757 Y1.6945 Z0.1215
X3.5747 Y1.6946 Z0.1208
X3.5735 Y1.6948 Z0.1206
G3 X3.5427 Y1.6923 I-0.0105 J-0.0614
G1 X3.5398 Y1.6912
X3.5355 Y1.6897
X3.5317 Y1.6885
X3.5261 Y1.6865
X3.522 Y1.6823
X3.5189 Y1.6772
X3.5167 Y1.6717
X3.5149 Y1.6654
X3.5135 Y1.6586
X3.5121 Y1.6466
X3.5114 Y1.6277
Y1.6089
X3.5116 Y1.59
X3.5115 Y1.5711
Y1.5522
Y1.5334
Y1.0047
X3.5117 Y0.9967
X3.5123 Y0.9908
X3.5124 Y0.9901
X3.5135 Y0.9878
X3.5153 Y0.986
X3.5176 Y0.9849
X3.5226 Y0.9836
X3.5284 Y0.9818
X3.5296 Y0.9814
X3.5308 Y0.9813
X3.532 Y0.9818
X3.5329 Y0.9826
X3.5334 Y0.9837
X3.5335 Y0.985
X3.533 Y0.9861
X3.5321 Y0.987
X3.531 Y0.9875
X3.5297
X3.5286 Y0.9872 Z0.1208
X3.5276 Y0.987 Z0.1215
X3.5269 Y0.9869 Z0.1225
X3.5267 Y0.9868 Z0.1237
G0 Z0.333
X3.5656 Y1.6884
Z0.1268
G1 Z0.1237 F14.
X3.5654 Y1.6885 Z0.1225
X3.5647 Y1.6886 Z0.1215
X3.5637 Y1.6889 Z0.1208
X3.5626 Y1.6891 Z0.1206
G3 X3.5317 Y1.6885 I-0.0143 J-0.0607
G1 X3.5269 Y1.687
X3.5226 Y1.6857
X3.5202 Y1.6851
X3.5146 Y1.6833
X3.5103 Y1.6792
X3.5072 Y1.6742
X3.5048 Y1.6688
X3.5029 Y1.6623
X3.5014 Y1.6556
X3.4997 Y1.643
X3.4988 Y1.6241
X3.499 Y1.6052
X3.4991 Y1.5863
X3.499 Y1.5675
X3.4991 Y1.5486
X3.499 Y1.5297
Y1.5108
Y1.0024
X3.4995 Y0.9966
X3.5001 Y0.9936
X3.5012 Y0.991
X3.5031 Y0.989
X3.5057 Y0.9879
X3.5097 Y0.987
X3.5176 Y0.9849
X3.5189
X3.52 Y0.9853
X3.5209 Y0.9862
X3.5214 Y0.9874
Y0.9886
X3.5208 Y0.9898
X3.5199 Y0.9906
X3.5188 Y0.991
X3.5175
X3.5164 Y0.9907 Z0.1208
X3.5154 Y0.9904 Z0.1215
X3.5147 Y0.9902 Z0.1225
X3.5145 Z0.1237
G0 Z0.333
X3.5542 Y1.6835
Z0.1268
G1 Z0.1237 F14.
X3.5539 Y1.6836 Z0.1225
X3.5533 Y1.6838 Z0.1215
X3.5523 Y1.684 Z0.1208
X3.5511 Y1.6843 Z0.1206
G3 X3.5202 Y1.6851 I-0.0169 J-0.06
G1 X3.5097 Y1.6823
X3.5084 Y1.682
X3.5027 Y1.6805
X3.4985 Y1.6764
X3.4952 Y1.6714
X3.4928 Y1.666
X3.4908 Y1.6595
X3.4891 Y1.6524
X3.4873 Y1.6396
X3.4862 Y1.6236
X3.4865 Y1.6048
X3.4866 Y1.5859
X3.4865 Y1.567
X3.4866 Y1.5481
X3.4865 Y1.5293
X3.4866 Y1.5104
Y1.0067
X3.487 Y1.0008
X3.4881 Y0.995
Y0.9949
X3.4894 Y0.9927
X3.4914 Y0.9911
X3.4938 Y0.9902
X3.4969 Y0.9898
X3.5011 Y0.9889
X3.5057 Y0.9879
X3.507
X3.5081 Y0.9884
X3.5089 Y0.9894
X3.5094 Y0.9905
X3.5093 Y0.9918
X3.5087 Y0.9929
X3.5078 Y0.9937
X3.5066 Y0.9941
X3.5053 Y0.9939
X3.5042 Y0.9936 Z0.1208
X3.5032 Y0.9933 Z0.1215
X3.5026 Y0.9931 Z0.1225
X3.5023 Y0.993 Z0.1237
G0 Z0.333
X3.5422 Y1.6788
Z0.1268
G1 Z0.1237 F14.
X3.542 Z0.1225
X3.5414 Y1.679 Z0.1215
X3.5404 Y1.6794 Z0.1208
X3.5393 Y1.6797 Z0.1206
G3 X3.5084 Y1.682 I-0.0198 J-0.0591
G1 X3.4989 Y1.6799
X3.4969 Y1.6795
X3.494 Y1.6789
X3.4889 Y1.6759
X3.485 Y1.6714
X3.4821 Y1.6663
X3.4799 Y1.6608
X3.4778 Y1.6537
X3.4761 Y1.6455
X3.4745 Y1.6334
X3.4737 Y1.6145
X3.4742 Y1.5956
X3.474 Y1.5579
X3.4741 Y1.539
X3.474 Y1.5201
X3.4741 Y1.5012
Y1.3879
Y1.0107
X3.4746 Y1.0039
X3.4756 Y0.9981
X3.4759 Y0.997
X3.4772 Y0.9946
X3.4793 Y0.9929
X3.4818 Y0.9921
X3.484 Y0.9918
X3.4938 Y0.9902
X3.4951 Y0.9903
X3.4962 Y0.9909
X3.4969 Y0.9919
X3.4973 Y0.9931
X3.4971 Y0.9943
X3.4965 Y0.9954
X3.4955 Y0.9962
X3.4943 Y0.9965
X3.4931 Y0.9963
X3.492 Y0.9958 Z0.1208
X3.491 Y0.9955 Z0.1215
X3.4904 Y0.9952 Z0.1225
X3.4902 Z0.1237
G0 Z0.333
X3.5304 Y1.6744
Z0.1268
G1 Z0.1237 F14.
X3.5302 Y1.6745 Z0.1225
X3.5296 Y1.6747 Z0.1215
X3.5286 Y1.6751 Z0.1208
X3.5275 Y1.6756 Z0.1206
G3 X3.4969 Y1.6795 I-0.0231 J-0.0579
G1 X3.4853 Y1.6777
X3.4824 Y1.6771
X3.4773 Y1.6741
X3.4734 Y1.6697
X3.4704 Y1.6647
X3.468 Y1.6592
X3.4661 Y1.6531
X3.4642 Y1.6451
X3.4624 Y1.6337
X3.4614 Y1.6183
X3.4617 Y1.5806
X3.4615 Y1.5617
X3.4616 Y1.5428
Y1.354
Y1.0142
X3.4622 Y1.0067
X3.4631 Y1.0009
X3.4638 Y0.9985
X3.4652 Y0.9961
X3.4673 Y0.9943
X3.47 Y0.9935
X3.4797 Y0.9924
X3.4818 Y0.9921
X3.4831 Y0.9922
X3.4842 Y0.9928
X3.4849 Y0.9938
X3.4853 Y0.995
X3.4851 Y0.9963
X3.4844 Y0.9973
X3.4834 Y0.9981
X3.4822 Y0.9983
X3.481 Y0.9981
X3.4799 Y0.9977 Z0.1208
X3.4789 Y0.9973 Z0.1215
X3.4783 Y0.997 Z0.1225
X3.4781 Y0.9969 Z0.1237
G0 Z0.333
X3.5189 Y1.6726
Z0.1268
G1 Z0.1237 F14.
X3.5187 Y1.6727 Z0.1225
X3.518 Y1.6729 Z0.1215
X3.5171 Y1.6733 Z0.1208
X3.516 Y1.6737 Z0.1206
G3 X3.4853 Y1.6777 I-0.0231 J-0.0579
G1 X3.4797 Y1.6769
X3.4754 Y1.6764
X3.4696 Y1.6755
X3.4648 Y1.6721
X3.461 Y1.6675
X3.4581 Y1.6624
X3.4557 Y1.6569
X3.4535 Y1.6497
X3.4517 Y1.6422
X3.4499 Y1.6303
X3.4489 Y1.6145
X3.4491 Y1.5956
X3.4492 Y1.5767
X3.449 Y1.5578
X3.4492 Y1.5389
X3.4491 Y1.5201
Y1.0198
X3.4495 Y1.0111
X3.4503 Y1.0052
X3.4517 Y0.9995
X3.4521 Y0.9986
X3.4536 Y0.9964
X3.4558 Y0.9948
X3.4584 Y0.9942
X3.4668 Y0.9938
X3.47 Y0.9935
G0 Z0.333
X3.5087 Y1.6697
Z0.1268
G1 Z0.1237 F14.
X3.5085 Y1.6698 Z0.1225
X3.5078 Y1.6701 Z0.1215
X3.5069 Y1.6705 Z0.1208
X3.5058 Y1.671 Z0.1206
G3 X3.4754 Y1.6764 I-0.0258 J-0.0567
G1 X3.4668 Y1.6755
X3.4645 Y1.6754
X3.4586 Y1.6748
X3.4536 Y1.6716
X3.4497 Y1.6672
X3.4466 Y1.6622
X3.4441 Y1.6568
X3.4421 Y1.6509
X3.4399 Y1.6428
X3.438 Y1.632
X3.4368 Y1.6195
X3.4364 Y1.6006
X3.4367 Y1.5817
X3.4366 Y1.5628
Y1.5251
Y1.5062
Y1.0342
X3.4367 Y1.019
X3.4373 Y1.0107
X3.4383 Y1.0049
X3.4399 Y0.9992
X3.4402 Y0.9987
X3.4417 Y0.9967
X3.4439 Y0.9952
X3.4465 Y0.9947
X3.4539 Y0.9945
X3.4584 Y0.9942
X3.4596 Y0.9945
X3.4607 Y0.9951
X3.4613 Y0.9962
X3.4616 Y0.9974
X3.4613 Y0.9986
X3.4606 Y0.9996
X3.4595 Y1.0003
X3.4582 Y1.0005
X3.457 Y1.0001
X3.456 Y0.9996 Z0.1208
X3.4551 Y0.9991 Z0.1215
X3.4545 Y0.9988 Z0.1225
X3.4543 Y0.9987 Z0.1237
G0 Z0.333
X3.4973 Y1.6668
Z0.1268
G1 Z0.1237 F14.
X3.4971 Y1.6669 Z0.1225
X3.4965 Y1.6672 Z0.1215
X3.4956 Y1.6677 Z0.1208
X3.4945 Y1.6682 Z0.1206
G3 X3.4645 Y1.6754 I-0.029 J-0.0551
G1 X3.4539 Y1.6748
X3.4526
X3.4468 Y1.6743
X3.4418 Y1.671
X3.4379 Y1.6666
X3.4348 Y1.6616
X3.4322 Y1.6563
X3.4299 Y1.6497
X3.4278 Y1.6422
X3.4259 Y1.6319
X3.4244 Y1.6184
X3.4239 Y1.5996
X3.4243 Y1.5807
X3.4241 Y1.5618
X3.4242 Y1.524
X3.4241 Y1.5052
X3.4242 Y1.2786
Y1.0332
Y1.021
X3.4249 Y1.0125
X3.4259 Y1.0067
X3.4273 Y1.0009
X3.4281 Y0.9993
X3.4296 Y0.997
X3.432 Y0.9955
X3.4347 Y0.9949
X3.4368
X3.4411
X3.4465 Y0.9947
X3.4477 Y0.995
X3.4487 Y0.9957
X3.4494 Y0.9967
X3.4496 Y0.998
X3.4493 Y0.9992
X3.4485 Y1.0002
X3.4474 Y1.0008
X3.4462 Y1.0009
X3.445 Y1.0006
X3.4439 Y1. Z0.1208
X3.443 Y0.9995 Z0.1215
X3.4424 Y0.9992 Z0.1225
X3.4422 Y0.9991 Z0.1237
G0 Z0.333
X3.4853 Y1.6656
Z0.1268
G1 Z0.1237 F14.
X3.4851 Y1.6657 Z0.1225
X3.4845 Y1.6661 Z0.1215
X3.4836 Y1.6665 Z0.1208
X3.4826 Y1.6671 Z0.1206
G3 X3.4526 Y1.6748 I-0.03 J-0.0546
G1 X3.4411 Y1.6744
X3.4352 Y1.674
X3.4302 Y1.6708
X3.4262 Y1.6665
X3.423 Y1.6615
X3.4204 Y1.6562
X3.4181 Y1.6499
X3.4159 Y1.6426
X3.4137 Y1.6321
X3.4122 Y1.6196
X3.4114 Y1.6007
X3.4118 Y1.5818
X3.4116 Y1.5629
X3.4117 Y1.5252
Y1.5063
Y1.0343
X3.4118 Y1.0221
X3.4127 Y1.0128
X3.4137 Y1.0069
X3.4152 Y1.0012
X3.4161 Y0.9992
X3.4177 Y0.997
X3.42 Y0.9955
X3.4227 Y0.9949
X3.4347
X3.4359 Y0.9952
X3.4369 Y0.996
X3.4376 Y0.997
X3.4377 Y0.9983
X3.4374 Y0.9995
X3.4366 Y1.0005
X3.4355 Y1.001
X3.4342 Y1.0011
X3.4331 Y1.0008
X3.432 Y1.0002 Z0.1208
X3.4311 Y0.9997 Z0.1215
X3.4306 Y0.9993 Z0.1225
X3.4303 Y0.9992 Z0.1237
G0 Z0.333
X3.4736 Y1.6646
Z0.1268
G1 Z0.1237 F14.
X3.4734 Y1.6647 Z0.1225
X3.4728 Y1.6651 Z0.1215
X3.4719 Y1.6656 Z0.1208
X3.4709 Y1.6662 Z0.1206
G3 X3.4411 Y1.6744 I-0.031 J-0.054
G1 X3.4368
X3.4301
X3.4242 Y1.6741
X3.4191 Y1.6711
X3.415 Y1.6669
X3.4116 Y1.6621
X3.4089 Y1.6568
X3.4064 Y1.6508
X3.4041 Y1.6435
X3.4019 Y1.6335
X3.4001 Y1.6219
X3.3989 Y1.6033
X3.3992 Y1.5844
Y1.5466
Y1.5277
Y1.2068
Y1.0369
X3.3993 Y1.024
X3.4002 Y1.0145
X3.4013 Y1.0081
X3.4027 Y1.0023
X3.4039 Y0.9994
X3.4055 Y0.9971
X3.4079 Y0.9955
X3.4106 Y0.9949
X3.4227
X3.4239 Y0.9952
X3.4249 Y0.996
X3.4256 Y0.997
X3.4257 Y0.9983
X3.4254 Y0.9995
X3.4246 Y1.0005
X3.4235 Y1.001
X3.4223 Y1.0011
X3.4211 Y1.0008
X3.42 Y1.0002 Z0.1208
X3.4192 Y0.9997 Z0.1215
X3.4186 Y0.9993 Z0.1225
X3.4184 Y0.9992 Z0.1237
G0 Z0.333
X3.4625 Y1.6641
Z0.1268
G1 Z0.1237 F14.
X3.4623 Y1.6642 Z0.1225
X3.4617 Y1.6645 Z0.1215
X3.4608 Y1.665 Z0.1208
X3.4598 Y1.6656 Z0.1206
G3 X3.4301 Y1.6744 I-0.0318 J-0.0536
G1 X3.4183
X3.4124 Y1.6741
X3.4073 Y1.6711
X3.4032 Y1.6669
X3.3998 Y1.6621
X3.397 Y1.6569
X3.3943 Y1.6504
X3.3921 Y1.6435
X3.3898 Y1.6339
X3.3877 Y1.6203
X3.3866 Y1.6052
X3.3867 Y1.5863
Y1.5674
Y1.5485
Y1.5296
Y1.0388
X3.3868 Y1.0257
X3.3877 Y1.0156
X3.3889 Y1.0087
X3.3903 Y1.003
X3.3917 Y0.9995
X3.3933 Y0.9971
X3.3957 Y0.9955
X3.3985 Y0.9949
X3.4106
X3.4119 Y0.9952
X3.4129 Y0.996
X3.4135 Y0.997
X3.4137 Y0.9983
X3.4133 Y0.9995
X3.4125 Y1.0005
X3.4114 Y1.001
X3.4102 Y1.0011
X3.409 Y1.0008
X3.408 Y1.0002 Z0.1208
X3.4071 Y0.9997 Z0.1215
X3.4065 Y0.9993 Z0.1225
X3.4063 Y0.9992 Z0.1237
G0 Z0.333
X3.4507 Y1.6641
Z0.1268
G1 Z0.1237 F14.
X3.4505 Y1.6642 Z0.1225
X3.4499 Y1.6645 Z0.1215
X3.449 Y1.665 Z0.1208
X3.448 Y1.6656 Z0.1206
G3 X3.4183 Y1.6744 I-0.0318 J-0.0536
G1 X3.4068
X3.4009 Y1.6741
X3.3957 Y1.6712
X3.3915 Y1.6671
X3.388 Y1.6623
X3.3852 Y1.6571
X3.3824 Y1.6509
X3.3802 Y1.6442
X3.3776 Y1.6339
X3.3754 Y1.6212
X3.3743 Y1.6078
X3.3741 Y1.5889
X3.3743 Y1.5701
X3.3742 Y1.5512
Y1.0414
X3.3743 Y1.0273
X3.3752 Y1.0168
X3.3765 Y1.0094
X3.3779 Y1.0036
X3.3795 Y0.9996
X3.381 Y0.9972
X3.3834 Y0.9955
X3.3863 Y0.9949
X3.3985
X3.3997 Y0.9952
X3.4007 Y0.996
X3.4013 Y0.997
X3.4015 Y0.9983
X3.4012 Y0.9995
X3.4004 Y1.0005
X3.3993 Y1.001
X3.398 Y1.0011
X3.3968 Y1.0008
X3.3958 Y1.0002 Z0.1208
X3.3949 Y0.9997 Z0.1215
X3.3943 Y0.9993 Z0.1225
X3.3941 Y0.9992 Z0.1237
G0 Z0.333
X3.4391 Y1.6641
Z0.1268
G1 Z0.1237 F14.
X3.4389 Y1.6642 Z0.1225
X3.4383 Y1.6645 Z0.1215
X3.4374 Y1.665 Z0.1208
X3.4364 Y1.6656 Z0.1206
G3 X3.4068 Y1.6744 I-0.0318 J-0.0536
G1 X3.3939
X3.3909 Y1.6742
X3.3854 Y1.6721
X3.3808 Y1.6684
X3.3771 Y1.6638
X3.374 Y1.6588
X3.3715 Y1.6534
X3.3689 Y1.6466
X3.3661 Y1.6371
X3.364 Y1.6271
X3.3624 Y1.6144
X3.3616 Y1.5955
X3.3618 Y1.5767
X3.3617 Y1.5389
X3.3618 Y1.2746
Y1.048
Y1.0292
X3.3627 Y1.0184
X3.364 Y1.0104
X3.3654 Y1.0046
X3.3674 Y0.9991
X3.3677 Y0.9986
X3.3693 Y0.9966
X3.3715 Y0.9954
X3.374 Y0.9949
X3.3863
X3.3875 Y0.9952
X3.3885 Y0.996
X3.3891 Y0.997
X3.3893 Y0.9983
X3.3889 Y0.9995
X3.3881 Y1.0005
X3.387 Y1.001
X3.3858 Y1.0011
X3.3846 Y1.0008
X3.3836 Y1.0002 Z0.1208
X3.3827 Y0.9997 Z0.1215
X3.3821 Y0.9993 Z0.1225
X3.3819 Y0.9992 Z0.1237
G0 Z0.333
X3.4262 Y1.6641
Z0.1268
G1 Z0.1237 F14.
X3.426 Y1.6642 Z0.1225
X3.4254 Y1.6645 Z0.1215
X3.4246 Y1.665 Z0.1208
X3.4235 Y1.6656 Z0.1206
G3 X3.3939 Y1.6744 I-0.0318 J-0.0536
G1 X3.3829
X3.377 Y1.6741
X3.3719 Y1.6712
X3.3676 Y1.6671
X3.3641 Y1.6623
X3.3612 Y1.6572
X3.3584 Y1.6511
X3.3556 Y1.6432
X3.3533 Y1.6349
X3.3512 Y1.6238
X3.3495 Y1.6071
X3.349 Y1.5882
X3.3493 Y1.5693
Y1.5504
Y1.0407
X3.3496 Y1.0271
X3.3507 Y1.0161
X3.352 Y1.0087
X3.3536 Y1.003
X3.355 Y0.9995
X3.3566 Y0.9971
X3.359 Y0.9955
X3.3618 Y0.9949
X3.374
X3.3752 Y0.9952
X3.3762 Y0.996
X3.3768 Y0.997
X3.377 Y0.9983
X3.3766 Y0.9995
X3.3759 Y1.0005
X3.3748 Y1.001
X3.3735 Y1.0011
X3.3723 Y1.0008
X3.3713 Y1.0002 Z0.1208
X3.3704 Y0.9997 Z0.1215
X3.3698 Y0.9993 Z0.1225
X3.3696 Y0.9992 Z0.1237
G0 Z0.333
X3.4153 Y1.6641
Z0.1268
G1 Z0.1237 F14.
X3.4151 Y1.6642 Z0.1225
X3.4145 Y1.6645 Z0.1215
X3.4136 Y1.665 Z0.1208
X3.4126 Y1.6656 Z0.1206
G3 X3.3829 Y1.6744 I-0.0318 J-0.0536
G1 X3.3711
X3.3652 Y1.6741
X3.36 Y1.6713
X3.3557 Y1.6673
X3.3521 Y1.6626
X3.3492 Y1.6575
X3.3463 Y1.6513
X3.3439 Y1.6449
X3.3414 Y1.6359
X3.3388 Y1.6231
X3.3372 Y1.6097
X3.3366 Y1.5908
X3.3368 Y1.572
Y1.5531
Y1.5342
Y1.4398
Y1.0433
X3.3371 Y1.0282
X3.3381 Y1.0173
X3.3395 Y1.0095
X3.341 Y1.0038
X3.3427 Y0.9996
X3.3442 Y0.9972
X3.3466 Y0.9955
X3.3494 Y0.9949
X3.3618
X3.363 Y0.9952
X3.364 Y0.996
X3.3646 Y0.997
X3.3648 Y0.9983
X3.3644 Y0.9995
X3.3636 Y1.0005
X3.3625 Y1.001
X3.3613 Y1.0011
X3.3601 Y1.0008
X3.3591 Y1.0002 Z0.1208
X3.3582 Y0.9997 Z0.1215
X3.3576 Y0.9993 Z0.1225
X3.3574 Y0.9992 Z0.1237
G0 Z0.333
X3.4035 Y1.6641
Z0.1268
G1 Z0.1237 F14.
X3.4033 Y1.6642 Z0.1225
X3.4027 Y1.6645 Z0.1215
X3.4018 Y1.665 Z0.1208
X3.4008 Y1.6656 Z0.1206
G3 X3.3711 Y1.6744 I-0.0318 J-0.0536
G1 X3.3583
X3.3524 Y1.6741
X3.3473 Y1.671
X3.3431 Y1.6668
X3.3396 Y1.6621
X3.3367 Y1.657
X3.3339 Y1.6508
X3.3311 Y1.6432
X3.3285 Y1.6335
X3.3262 Y1.6212
X3.3245 Y1.6047
X3.324 Y1.5858
X3.3244 Y1.567
X3.3243 Y1.5481
Y1.5292
Y1.5103
Y1.0572
X3.3244 Y1.0383
X3.3249 Y1.0247
X3.3262 Y1.0143
X3.3276 Y1.0078
X3.3293 Y1.0021
X3.3305 Y0.9993
X3.3321 Y0.997
X3.3344 Y0.9955
X3.3372 Y0.9949
X3.3494
X3.3507 Y0.9952
X3.3517 Y0.996
X3.3523 Y0.997
X3.3524 Y0.9983
X3.3521 Y0.9995
X3.3513 Y1.0005
X3.3502 Y1.001
X3.349 Y1.0011
X3.3478 Y1.0008
X3.3468 Y1.0002 Z0.1208
X3.3459 Y0.9997 Z0.1215
X3.3453 Y0.9993 Z0.1225
X3.3451 Y0.9992 Z0.1237
G0 Z0.333
X3.3906 Y1.6641
Z0.1268
G1 Z0.1237 F14.
X3.3904 Y1.6642 Z0.1225
X3.3898 Y1.6645 Z0.1215
X3.389 Y1.665 Z0.1208
X3.3879 Y1.6656 Z0.1206
G3 X3.3583 Y1.6744 I-0.0318 J-0.0536
G1 X3.3467
X3.3408 Y1.6741
X3.3356 Y1.6712
X3.3313 Y1.6672
X3.3277 Y1.6625
X3.3247 Y1.6574
X3.3218 Y1.6512
X3.3192 Y1.6443
X3.3165 Y1.6345
X3.3139 Y1.6215
X3.3122 Y1.6076
X3.3116 Y1.5887
X3.3118 Y1.5698
X3.3119 Y1.551
X3.3118 Y1.5321
Y1.4943
Y1.0601
X3.3119 Y1.0412
X3.3124 Y1.0263
X3.3136 Y1.016
X3.3151 Y1.0085
X3.3167 Y1.0028
X3.3181 Y0.9994
X3.3197 Y0.9971
X3.322 Y0.9955
X3.3248 Y0.9949
X3.3372
X3.3384 Y0.9952
X3.3394 Y0.996
X3.34 Y0.997
X3.3402 Y0.9983
X3.3398 Y0.9995
X3.339 Y1.0005
X3.3379 Y1.001
X3.3367 Y1.0011
X3.3355 Y1.0008
X3.3345 Y1.0002 Z0.1208
X3.3336 Y0.9997 Z0.1215
X3.333 Y0.9993 Z0.1225
X3.3328 Y0.9992 Z0.1237
G0 Z0.333
X3.379 Y1.6641
Z0.1268
G1 Z0.1237 F14.
X3.3788 Y1.6642 Z0.1225
X3.3782 Y1.6645 Z0.1215
X3.3774 Y1.665 Z0.1208
X3.3764 Y1.6656 Z0.1206
G3 X3.3467 Y1.6744 I-0.0318 J-0.0536
G1 X3.3338
X3.3279 Y1.6741
X3.3229 Y1.671
X3.3187 Y1.6668
X3.3152 Y1.6621
X3.3122 Y1.6569
X3.3092 Y1.6503
X3.3065 Y1.643
X3.3037 Y1.6328
X3.3013 Y1.6201
X3.2995 Y1.6036
X3.299 Y1.5847
X3.2994 Y1.5659
X3.2993 Y1.5281
X3.2994 Y1.5092
Y1.0561
Y1.0373
X3.3002 Y1.0235
X3.3017 Y1.0131
X3.303 Y1.0071
X3.3048 Y1.0015
X3.3059 Y0.9992
X3.3075 Y0.9969
X3.3098 Y0.9954
X3.3125 Y0.9949
X3.3248
X3.326 Y0.9952
X3.327 Y0.996
X3.3277 Y0.997
X3.3278 Y0.9983
X3.3275 Y0.9995
X3.3267 Y1.0005
X3.3256 Y1.001
X3.3243 Y1.0011
X3.3232 Y1.0008
X3.3221 Y1.0002 Z0.1208
X3.3212 Y0.9997 Z0.1215
X3.3207 Y0.9993 Z0.1225
X3.3205 Y0.9992 Z0.1237
G0 Z0.333
X3.3662 Y1.6641
Z0.1268
G1 Z0.1237 F14.
X3.366 Y1.6642 Z0.1225
X3.3654 Y1.6645 Z0.1215
X3.3645 Y1.665 Z0.1208
X3.3635 Y1.6656 Z0.1206
G3 X3.3338 Y1.6744 I-0.0318 J-0.0536
G1 X3.3209
X3.318 Y1.6742
X3.3125 Y1.672
X3.308 Y1.6682
X3.3042 Y1.6637
X3.301 Y1.6587
X3.2984 Y1.6534
X3.2955 Y1.6464
X3.2924 Y1.6368
X3.2901 Y1.6268
X3.2879 Y1.6119
X3.2866 Y1.5931
X3.2867 Y1.5742
X3.287 Y1.5553
X3.2868 Y1.5364
X3.2869 Y1.4987
Y1.0645
Y1.0456
X3.2874 Y1.029
X3.2886 Y1.0172
X3.2901 Y1.0093
X3.2917 Y1.0036
X3.2933 Y0.9995
X3.2949 Y0.9971
X3.2973 Y0.9955
X3.3001 Y0.9949
X3.3125
X3.3137 Y0.9952
X3.3147 Y0.996
X3.3153 Y0.997
X3.3155 Y0.9983
X3.3151 Y0.9995
X3.3144 Y1.0005
X3.3133 Y1.001
X3.312 Y1.0011
X3.3108 Y1.0008
X3.3098 Y1.0002 Z0.1208
X3.3089 Y0.9997 Z0.1215
X3.3083 Y0.9993 Z0.1225
X3.3081 Y0.9992 Z0.1237
G0 Z0.333
X3.3533 Y1.6641
Z0.1268
G1 Z0.1237 F14.
X3.3531 Y1.6642 Z0.1225
X3.3525 Y1.6645 Z0.1215
X3.3516 Y1.665 Z0.1208
X3.3506 Y1.6656 Z0.1206
G3 X3.3209 Y1.6744 I-0.0318 J-0.0536
G1 X3.31
X3.3041 Y1.6741
X3.299 Y1.6712
X3.2947 Y1.6671
X3.2911 Y1.6624
X3.288 Y1.6574
X3.2851 Y1.6511
X3.282 Y1.6432
X3.2795 Y1.6348
X3.2769 Y1.6223
X3.2748 Y1.6053
X3.274 Y1.5865
X3.2743 Y1.5676
X3.2745 Y1.5487
X3.2743 Y1.5298
X3.2744 Y1.511
Y1.0579
X3.2745 Y1.039
X3.2753 Y1.0246
X3.2768 Y1.014
X3.2782 Y1.0075
X3.2799 Y1.0019
X3.2811 Y0.9992
X3.2827 Y0.997
X3.285 Y0.9955
X3.2877 Y0.9949
X3.3001
X3.3013 Y0.9952
X3.3023 Y0.996
X3.303 Y0.997
X3.3031 Y0.9983
X3.3028 Y0.9995
X3.302 Y1.0005
X3.3009 Y1.001
X3.2996 Y1.0011
X3.2984 Y1.0008
X3.2974 Y1.0002 Z0.1208
X3.2965 Y0.9997 Z0.1215
X3.2959 Y0.9993 Z0.1225
X3.2957 Y0.9992 Z0.1237
G0 Z0.333
X3.3423 Y1.6641
Z0.1268
G1 Z0.1237 F14.
X3.3421 Y1.6642 Z0.1225
X3.3416 Y1.6645 Z0.1215
X3.3407 Y1.665 Z0.1208
X3.3397 Y1.6656 Z0.1206
G3 X3.31 Y1.6744 I-0.0318 J-0.0536
G1 X3.2982
X3.2923 Y1.6741
X3.2871 Y1.6713
X3.2827 Y1.6674
X3.279 Y1.6627
X3.2759 Y1.6577
X3.2729 Y1.6516
X3.2704 Y1.6451
X3.2674 Y1.6355
X3.2646 Y1.6226
X3.2626 Y1.6084
X3.2616 Y1.5896
X3.2617 Y1.5707
X3.262 Y1.5518
X3.2619 Y1.5329
Y1.4952
Y1.3253
Y1.0609
X3.262 Y1.0421
X3.2627 Y1.0262
X3.264 Y1.0159
X3.2656 Y1.0083
X3.2673 Y1.0026
X3.2687 Y0.9993
X3.2703 Y0.997
X3.2726 Y0.9955
X3.2754 Y0.9949
X3.2877
X3.289 Y0.9952
X3.29 Y0.996
X3.2906 Y0.997
X3.2908 Y0.9983
X3.2904 Y0.9995
X3.2896 Y1.0005
X3.2885 Y1.001
X3.2873 Y1.0011
X3.2861 Y1.0008
X3.2851 Y1.0002 Z0.1208
X3.2842 Y0.9997 Z0.1215
X3.2836 Y0.9993 Z0.1225
X3.2834 Y0.9992 Z0.1237
G0 Z0.333
X3.3305 Y1.6641
Z0.1268
G1 Z0.1237 F14.
X3.3303 Y1.6642 Z0.1225
X3.3298 Y1.6645 Z0.1215
X3.3289 Y1.665 Z0.1208
X3.3279 Y1.6656 Z0.1206
G3 X3.2982 Y1.6744 I-0.0318 J-0.0536
G1 X3.2853
X3.2794 Y1.6741
X3.2743 Y1.6711
X3.27 Y1.667
X3.2664 Y1.6624
X3.2634 Y1.6573
X3.2603 Y1.6509
X3.2574 Y1.6434
X3.2545 Y1.6334
X3.2519 Y1.6206
X3.2498 Y1.604
X3.2489 Y1.5851
X3.2494 Y1.5662
X3.2496 Y1.5474
X3.2494 Y1.5285
X3.2495 Y1.4907
X3.2494 Y1.4718
Y1.0565
X3.2496 Y1.0376
X3.2505 Y1.0237
X3.2521 Y1.013
X3.2535 Y1.007
X3.2553 Y1.0013
X3.2564 Y0.9991
X3.258 Y0.9969
X3.2603 Y0.9954
X3.263 Y0.9949
X3.2754
X3.2766 Y0.9952
X3.2776 Y0.996
X3.2782 Y0.997
X3.2784 Y0.9983
X3.278 Y0.9995
X3.2772 Y1.0005
X3.2761 Y1.001
X3.2749 Y1.0011
X3.2737 Y1.0008
X3.2727 Y1.0002 Z0.1208
X3.2718 Y0.9997 Z0.1215
X3.2712 Y0.9993 Z0.1225
X3.271 Y0.9992 Z0.1237
G0 Z0.333
X3.3177 Y1.6641
Z0.1268
G1 Z0.1237 F14.
X3.3175 Y1.6642 Z0.1225
X3.3169 Y1.6645 Z0.1215
X3.316 Y1.665 Z0.1208
X3.315 Y1.6656 Z0.1206
G3 X3.2853 Y1.6744 I-0.0318 J-0.0536
G1 X3.2724
X3.2665 Y1.6741
X3.2616 Y1.6709
X3.2574 Y1.6668
X3.2538 Y1.662
X3.2508 Y1.6569
X3.2476 Y1.6501
X3.2449 Y1.643
X3.2419 Y1.6326
X3.2391 Y1.6185
X3.2371 Y1.6026
X3.2364 Y1.5837
X3.2369 Y1.5648
X3.2371 Y1.546
X3.2369 Y1.5271
X3.237 Y1.5082
Y1.4893
X3.2369 Y1.4704
X3.237 Y1.0551
X3.2371 Y1.0362
X3.2382 Y1.0225
X3.2398 Y1.0124
X3.2413 Y1.0064
X3.2431 Y1.0008
X3.244 Y0.999
X3.2456 Y0.9968
X3.2479 Y0.9954
X3.2506 Y0.9949
X3.263
X3.2642 Y0.9952
X3.2652 Y0.996
X3.2658 Y0.997
X3.266 Y0.9983
X3.2656 Y0.9995
X3.2648 Y1.0005
X3.2637 Y1.001
X3.2625 Y1.0011
X3.2613 Y1.0008
X3.2603 Y1.0002 Z0.1208
X3.2594 Y0.9997 Z0.1215
X3.2588 Y0.9993 Z0.1225
X3.2586 Y0.9992 Z0.1237
G0 Z0.333
X3.3048 Y1.6641
Z0.1268
G1 Z0.1237 F14.
X3.3046 Y1.6642 Z0.1225
X3.304 Y1.6645 Z0.1215
X3.3031 Y1.665 Z0.1208
X3.3021 Y1.6656 Z0.1206
G3 X3.2724 Y1.6744 I-0.0318 J-0.0536
G1 X3.2609
X3.255 Y1.6741
X3.2498 Y1.6712
X3.2455 Y1.6672
X3.2419 Y1.6625
X3.2388 Y1.6575
X3.2358 Y1.6513
X3.233 Y1.644
X3.2297 Y1.6332
X3.2269 Y1.6204
X3.225 Y1.6058
X3.224 Y1.587
X3.2246 Y1.5492
X3.2244 Y1.5303
Y1.5115
X3.2245 Y1.4926
Y1.4548
Y1.0584
X3.2246 Y1.0395
X3.2255 Y1.0246
X3.2269 Y1.0148
X3.2286 Y1.0074
X3.2303 Y1.0017
X3.2315 Y0.9992
X3.2331 Y0.9969
X3.2354 Y0.9954
X3.2381 Y0.9949
X3.2506
X3.2518 Y0.9952
X3.2528 Y0.996
X3.2534 Y0.997
X3.2536 Y0.9983
X3.2532 Y0.9995
X3.2524 Y1.0005
X3.2513 Y1.001
X3.2501 Y1.0011
X3.2489 Y1.0008
X3.2479 Y1.0002 Z0.1208
X3.247 Y0.9997 Z0.1215
X3.2464 Y0.9993 Z0.1225
X3.2462 Y0.9992 Z0.1237
G0 Z0.333
X3.2932 Y1.6641
Z0.1268
G1 Z0.1237 F14.
X3.293 Y1.6642 Z0.1225
X3.2924 Y1.6645 Z0.1215
X3.2916 Y1.665 Z0.1208
X3.2905 Y1.6656 Z0.1206
G3 X3.2609 Y1.6744 I-0.0318 J-0.0536
G1 X3.248
X3.2421 Y1.6741
X3.2371 Y1.671
X3.2328 Y1.6669
X3.2293 Y1.6622
X3.2262 Y1.6571
X3.2229 Y1.6501
X3.2201 Y1.6428
X3.217 Y1.6322
X3.2143 Y1.619
X3.2122 Y1.6024
X3.2113 Y1.5835
X3.2119 Y1.5646
X3.2122 Y1.5458
X3.2119 Y1.5269
X3.212 Y1.4891
Y1.4702
Y1.0549
X3.2121 Y1.036
X3.2133 Y1.0222
X3.2151 Y1.0118
X3.2165 Y1.0061
X3.2184 Y1.0005
X3.2192 Y0.9989
X3.2208 Y0.9968
X3.2231 Y0.9954
X3.2257 Y0.9949
X3.2381
X3.2394 Y0.9952
X3.2404 Y0.996
X3.241 Y0.997
X3.2411 Y0.9983
X3.2408 Y0.9995
X3.24 Y1.0005
X3.2389 Y1.001
X3.2377 Y1.0011
X3.2365 Y1.0008
X3.2354 Y1.0002 Z0.1208
X3.2346 Y0.9997 Z0.1215
X3.234 Y0.9993 Z0.1225
X3.2338 Y0.9992 Z0.1237
G0 Z0.333
X3.2804 Y1.6641
Z0.1268
G1 Z0.1237 F14.
X3.2801 Y1.6642 Z0.1225
X3.2796 Y1.6645 Z0.1215
X3.2787 Y1.665 Z0.1208
X3.2777 Y1.6656 Z0.1206
G3 X3.248 Y1.6744 I-0.0318 J-0.0536
G1 X3.2351
X3.2322 Y1.6742
X3.2267 Y1.6721
X3.2221 Y1.6684
X3.2182 Y1.6639
X3.215 Y1.6589
X3.2122 Y1.6537
X3.2091 Y1.6465
X3.2059 Y1.6371
X3.2033 Y1.6265
X3.2007 Y1.6113
X3.1991 Y1.5928
X3.199 Y1.5739
X3.1997 Y1.555
X3.1996 Y1.5361
X3.1994 Y1.5173
X3.1995 Y1.4984
Y1.4606
Y1.3851
Y1.0642
X3.1996 Y1.0453
X3.2001 Y1.03
X3.2016 Y1.0172
X3.2032 Y1.0092
X3.2048 Y1.0035
X3.2065 Y0.9994
X3.2081 Y0.9971
X3.2105 Y0.9955
X3.2132 Y0.9949
X3.2257
X3.2269 Y0.9952
X3.2279 Y0.996
X3.2285 Y0.997
X3.2287 Y0.9983
X3.2284 Y0.9995
X3.2276 Y1.0005
X3.2265 Y1.001
X3.2252 Y1.0011
X3.224 Y1.0008
X3.223 Y1.0002 Z0.1208
X3.2221 Y0.9997 Z0.1215
X3.2215 Y0.9993 Z0.1225
X3.2213 Y0.9992 Z0.1237
G0 Z0.333
X3.2675 Y1.6641
Z0.1268
G1 Z0.1237 F14.
X3.2673 Y1.6642 Z0.1225
X3.2667 Y1.6645 Z0.1215
X3.2658 Y1.665 Z0.1208
X3.2648 Y1.6656 Z0.1206
G3 X3.2351 Y1.6744 I-0.0318 J-0.0536
G1 X3.2242
X3.2183 Y1.6741
X3.2131 Y1.6713
X3.2087 Y1.6673
X3.205 Y1.6627
X3.2019 Y1.6577
X3.1988 Y1.6515
X3.1956 Y1.6435
X3.1929 Y1.6351
X3.19 Y1.6222
X3.1876 Y1.6055
X3.1864 Y1.5866
X3.1867 Y1.5677
X3.1873 Y1.5489
X3.1871 Y1.53
X3.1869 Y1.5111
X3.1871 Y1.4922
X3.187 Y1.4545
Y1.4356
Y1.058
X3.1872 Y1.0391
X3.1883 Y1.024
X3.1899 Y1.0134
X3.1914 Y1.0071
X3.1932 Y1.0014
X3.1942 Y0.9991
X3.1958 Y0.9969
X3.1982 Y0.9954
X3.2008 Y0.9949
X3.2132
X3.2145 Y0.9952
X3.2155 Y0.996
X3.2161 Y0.997
X3.2162 Y0.9983
X3.2159 Y0.9995
X3.2151 Y1.0005
X3.214 Y1.001
X3.2128 Y1.0011
X3.2116 Y1.0008
X3.2105 Y1.0002 Z0.1208
X3.2097 Y0.9997 Z0.1215
X3.2091 Y0.9993 Z0.1225
X3.2089 Y0.9992 Z0.1237
G0 Z0.333
X3.2565 Y1.6641
Z0.1268
G1 Z0.1237 F14.
X3.2563 Y1.6642 Z0.1225
X3.2558 Y1.6645 Z0.1215
X3.2549 Y1.665 Z0.1208
X3.2539 Y1.6656 Z0.1206
G3 X3.2242 Y1.6744 I-0.0318 J-0.0536
G1 X3.2107
X3.2048 Y1.6741
X3.1999 Y1.6709
X3.1957 Y1.6667
X3.1921 Y1.662
X3.1891 Y1.657
X3.186 Y1.6506
X3.1831 Y1.6432
X3.18 Y1.6332
X3.177 Y1.6191
X3.1747 Y1.602
X3.1738 Y1.5837
X3.1743 Y1.5648
X3.1749 Y1.546
X3.1745 Y1.5271
X3.1744 Y1.5082
X3.1746 Y1.4893
X3.1745 Y1.4704
X3.1746 Y1.4327
Y1.376
Y1.0551
X3.1748 Y1.0362
X3.176 Y1.022
X3.1777 Y1.0118
X3.1792 Y1.006
X3.1811 Y1.0005
X3.1819 Y0.9989
X3.1835 Y0.9968
X3.1858 Y0.9954
X3.1884 Y0.9949
X3.2008
X3.202 Y0.9952
X3.2031 Y0.996
X3.2037 Y0.997
X3.2038 Y0.9983
X3.2035 Y0.9995
X3.2027 Y1.0005
X3.2016 Y1.001
X3.2004 Y1.0011
X3.1992 Y1.0008
X3.1981 Y1.0002 Z0.1208
X3.1973 Y0.9997 Z0.1215
X3.1967 Y0.9993 Z0.1225
X3.1965 Y0.9992 Z0.1237
G0 Z0.333
X3.2431 Y1.6641
Z0.1268
G1 Z0.1237 F14.
X3.2429 Y1.6642 Z0.1225
X3.2423 Y1.6645 Z0.1215
X3.2414 Y1.665 Z0.1208
X3.2404 Y1.6656 Z0.1206
G3 X3.2107 Y1.6744 I-0.0318 J-0.0536
G1 X3.1995
X3.1936 Y1.6741
X3.1884 Y1.6714
X3.184 Y1.6674
X3.1803 Y1.6628
X3.1771 Y1.6578
X3.1741 Y1.6517
X3.1712 Y1.6446
X3.1678 Y1.634
X3.1649 Y1.6213
X3.1626 Y1.6057
X3.1614 Y1.587
X3.1617 Y1.5681
X3.1623 Y1.5492
X3.1619 Y1.5115
X3.1621 Y1.4926
X3.162 Y1.4548
X3.1621 Y1.4359
Y1.0584
X3.1622 Y1.0395
X3.1633 Y1.0242
X3.1648 Y1.0144
X3.1665 Y1.0071
X3.1683 Y1.0014
X3.1694 Y0.9991
X3.171 Y0.9969
X3.1733 Y0.9954
X3.1759 Y0.9949
X3.1884
X3.1896 Y0.9952
X3.1906 Y0.996
X3.1912 Y0.997
X3.1914 Y0.9983
X3.191 Y0.9995
X3.1903 Y1.0005
X3.1892 Y1.001
X3.1879 Y1.0011
X3.1867 Y1.0008
X3.1857 Y1.0002 Z0.1208
X3.1848 Y0.9997 Z0.1215
X3.1842 Y0.9993 Z0.1225
X3.184 Y0.9992 Z0.1237
G0 Z0.333
X3.2319 Y1.6641
Z0.1268
G1 Z0.1237 F14.
X3.2317 Y1.6642 Z0.1225
X3.2311 Y1.6645 Z0.1215
X3.2302 Y1.665 Z0.1208
X3.2292 Y1.6656 Z0.1206
G3 X3.1995 Y1.6744 I-0.0318 J-0.0536
G1 X3.1866
X3.1807 Y1.6741
X3.1756 Y1.6712
X3.1713 Y1.6671
X3.1676 Y1.6625
X3.1645 Y1.6574
X3.1612 Y1.6506
X3.1583 Y1.6433
X3.1551 Y1.633
X3.1521 Y1.6193
X3.1498 Y1.6025
X3.1488 Y1.5853
X3.1492 Y1.5664
X3.1499 Y1.5475
X3.1496 Y1.5286
X3.1495 Y1.5098
X3.1497 Y1.4909
X3.1496 Y1.4531
Y1.4342
Y1.0567
X3.1498 Y1.0378
X3.1508 Y1.0243
X3.1525 Y1.0136
X3.1541 Y1.0068
X3.1559 Y1.0012
X3.1569 Y0.999
X3.1586 Y0.9969
X3.1608 Y0.9954
X3.1635 Y0.9949
X3.1759
X3.1772 Y0.9952
X3.1782 Y0.996
X3.1788 Y0.997
X3.1789 Y0.9983
X3.1786 Y0.9995
X3.1778 Y1.0005
X3.1767 Y1.001
X3.1755 Y1.0011
X3.1743 Y1.0008
X3.1732 Y1.0002 Z0.1208
X3.1724 Y0.9997 Z0.1215
X3.1718 Y0.9993 Z0.1225
X3.1716 Y0.9992 Z0.1237
G0 Z0.333
X3.219 Y1.6641
Z0.1268
G1 Z0.1237 F14.
X3.2188 Y1.6642 Z0.1225
X3.2182 Y1.6645 Z0.1215
X3.2173 Y1.665 Z0.1208
X3.2163 Y1.6656 Z0.1206
G3 X3.1866 Y1.6744 I-0.0318 J-0.0536
G1 X3.1738
X3.1679 Y1.6741
X3.1628 Y1.671
X3.1586 Y1.6669
X3.155 Y1.6622
X3.1519 Y1.6571
X3.1486 Y1.6504
X3.1458 Y1.6432
X3.1425 Y1.6323
X3.1393 Y1.6179
X3.1372 Y1.6024
X3.1363 Y1.5849
X3.1368 Y1.566
X3.1374 Y1.5472
X3.1371 Y1.5283
X3.137 Y1.5094
X3.1372 Y1.4905
X3.1371 Y1.4528
Y1.4339
Y1.1696
Y1.0563
X3.1373 Y1.0374
X3.1383 Y1.0241
X3.14 Y1.0136
X3.1416 Y1.0067
X3.1435 Y1.0011
X3.1445 Y0.999
X3.1461 Y0.9969
X3.1484 Y0.9954
X3.151 Y0.9949
X3.1635
X3.1647 Y0.9952
X3.1657 Y0.996
X3.1663 Y0.997
X3.1665 Y0.9983
X3.1662 Y0.9995
X3.1654 Y1.0005
X3.1643 Y1.001
X3.163 Y1.0011
X3.1618 Y1.0008
X3.1608 Y1.0002 Z0.1208
X3.1599 Y0.9997 Z0.1215
X3.1593 Y0.9993 Z0.1225
X3.1591 Y0.9992 Z0.1237
G0 Z0.333
X3.2061 Y1.6641
Z0.1268
G1 Z0.1237 F14.
X3.2059 Y1.6642 Z0.1225
X3.2053 Y1.6645 Z0.1215
X3.2045 Y1.665 Z0.1208
X3.2034 Y1.6656 Z0.1206
G3 X3.1738 Y1.6744 I-0.0318 J-0.0536
G1 X3.1622
X3.1563 Y1.6741
X3.1511 Y1.6713
X3.1467 Y1.6674
X3.143 Y1.6628
X3.1399 Y1.6577
X3.1368 Y1.6516
X3.1337 Y1.6441
X3.1302 Y1.6331
X3.1272 Y1.6203
X3.1251 Y1.6058
X3.1239 Y1.5879
X3.1242 Y1.569
X3.1248 Y1.5501
X3.1247 Y1.5312
X3.1245 Y1.5124
X3.1247 Y1.4935
Y1.4746
X3.1246 Y1.4557
Y1.4368
Y1.0593
X3.1248 Y1.0404
X3.1257 Y1.0257
X3.1272 Y1.0154
X3.1289 Y1.0077
X3.1307 Y1.002
X3.132 Y0.9992
X3.1336 Y0.9969
X3.1359 Y0.9955
X3.1386 Y0.9949
X3.151
X3.1523 Y0.9952
X3.1533 Y0.996
X3.1539 Y0.997
X3.154 Y0.9983
X3.1537 Y0.9995
X3.1529 Y1.0005
X3.1518 Y1.001
X3.1506 Y1.0011
X3.1494 Y1.0008
X3.1483 Y1.0002 Z0.1208
X3.1475 Y0.9997 Z0.1215
X3.1469 Y0.9993 Z0.1225
X3.1467 Y0.9992 Z0.1237
G0 Z0.333
X3.1945 Y1.6641
Z0.1268
G1 Z0.1237 F14.
X3.1943 Y1.6642 Z0.1225
X3.1938 Y1.6645 Z0.1215
X3.1929 Y1.665 Z0.1208
X3.1919 Y1.6656 Z0.1206
G3 X3.1622 Y1.6744 I-0.0318 J-0.0536
G1 X3.1493
X3.1434 Y1.6741
X3.1383 Y1.6711
X3.134 Y1.6671
X3.1304 Y1.6624
X3.1273 Y1.6574
X3.1238 Y1.6505
X3.1209 Y1.6431
X3.1176 Y1.6325
X3.1146 Y1.6193
X3.1123 Y1.6032
X3.1113 Y1.5866
X3.1117 Y1.5677
X3.1124 Y1.5488
X3.1122 Y1.5299
X3.112 Y1.5111
X3.1122 Y1.4922
X3.1121 Y1.4544
X3.1122 Y1.4355
Y1.058
X3.1123 Y1.0391
X3.1132 Y1.0256
X3.1149 Y1.0146
X3.1165 Y1.0073
X3.1183 Y1.0017
X3.1195 Y0.9991
X3.1211 Y0.9969
X3.1234 Y0.9954
X3.1261 Y0.9949
X3.1386
X3.1398 Y0.9952
X3.1408 Y0.996
X3.1414 Y0.997
X3.1416 Y0.9983
X3.1413 Y0.9995
X3.1405 Y1.0005
X3.1394 Y1.001
X3.1381 Y1.0011
X3.1369 Y1.0008
X3.1359 Y1.0002 Z0.1208
X3.135 Y0.9997 Z0.1215
X3.1344 Y0.9993 Z0.1225
X3.1342 Y0.9992 Z0.1237
G0 Z0.333
X3.1817 Y1.6641
Z0.1268
G1 Z0.1237 F14.
X3.1815 Y1.6642 Z0.1225
X3.1809 Y1.6645 Z0.1215
X3.18 Y1.665 Z0.1208
X3.179 Y1.6656 Z0.1206
G3 X3.1493 Y1.6744 I-0.0318 J-0.0536
G1 X3.1364
X3.1305 Y1.6741
X3.1255 Y1.671
X3.1213 Y1.6669
X3.1177 Y1.6622
X3.1146 Y1.6571
X3.1113 Y1.6504
X3.1083 Y1.643
X3.105 Y1.6322
X3.1019 Y1.6182
X3.0998 Y1.6028
X3.0988 Y1.5864
X3.0993 Y1.5675
X3.0999 Y1.5486
X3.0997 Y1.5297
X3.0995 Y1.5109
X3.0997 Y1.492
X3.0996 Y1.4542
X3.0997 Y1.4353
Y1.0578
X3.0998 Y1.0389
X3.1008 Y1.0254
X3.1024 Y1.0146
X3.1041 Y1.0073
X3.1059 Y1.0016
X3.1071 Y0.9991
X3.1087 Y0.9969
X3.111 Y0.9954
X3.1137 Y0.9949
X3.1261
X3.1274 Y0.9952
X3.1284 Y0.996
X3.129 Y0.997
X3.1291 Y0.9983
X3.1288 Y0.9995
X3.128 Y1.0005
X3.1269 Y1.001
X3.1257 Y1.0011
X3.1245 Y1.0008
X3.1234 Y1.0002 Z0.1208
X3.1226 Y0.9997 Z0.1215
X3.122 Y0.9993 Z0.1225
X3.1218 Y0.9992 Z0.1237
G0 Z0.333
X3.1688 Y1.6641
Z0.1268
G1 Z0.1237 F14.
X3.1686 Y1.6642 Z0.1225
X3.168 Y1.6645 Z0.1215
X3.1671 Y1.665 Z0.1208
X3.1661 Y1.6656 Z0.1206
G3 X3.1364 Y1.6744 I-0.0318 J-0.0536
G1 X3.1236
X3.1206 Y1.6742
X3.1151 Y1.6721
X3.1105 Y1.6684
X3.1066 Y1.664
X3.1033 Y1.659
X3.1005 Y1.6539
X3.0973 Y1.6465
X3.0939 Y1.637
X3.091 Y1.6259
X3.0884 Y1.6112
X3.0867 Y1.5946
X3.0864 Y1.5757
X3.0871 Y1.5569
X3.0874 Y1.538
X3.0871 Y1.5191
Y1.5002
X3.0873 Y1.4814
X3.0872 Y1.4625
Y1.4247
Y1.066
X3.0873 Y1.0471
X3.0878 Y1.0309
X3.0893 Y1.0181
X3.091 Y1.0098
X3.0926 Y1.0041
X3.0948 Y0.9986
X3.0949 Y0.9984
X3.0965 Y0.9966
X3.0987 Y0.9954
X3.1011 Y0.9949
X3.1137
X3.1149 Y0.9952
X3.1159 Y0.996
X3.1165 Y0.997
X3.1167 Y0.9983
X3.1163 Y0.9995
X3.1155 Y1.0005
X3.1144 Y1.001
X3.1132 Y1.0011
X3.112 Y1.0008
X3.111 Y1.0002 Z0.1208
X3.1101 Y0.9997 Z0.1215
X3.1095 Y0.9993 Z0.1225
X3.1093 Y0.9992 Z0.1237
G0 Z0.333
X3.1559 Y1.6641
Z0.1268
G1 Z0.1237 F14.
X3.1557 Y1.6642 Z0.1225
X3.1551 Y1.6645 Z0.1215
X3.1543 Y1.665 Z0.1208
X3.1532 Y1.6656 Z0.1206
G3 X3.1236 Y1.6744 I-0.0318 J-0.0536
G1 X3.1126
X3.1067 Y1.6741
X3.1015 Y1.6713
X3.0971 Y1.6674
X3.0934 Y1.6628
X3.0902 Y1.6578
X3.087 Y1.6516
X3.0836 Y1.6436
X3.0808 Y1.6348
X3.0777 Y1.6221
X3.0753 Y1.6065
X3.074 Y1.5879
X3.0741 Y1.569
X3.0748 Y1.5502
X3.0749 Y1.5313
X3.0746 Y1.5124
X3.0747 Y1.4935
X3.0748 Y1.4747
X3.0747 Y1.4558
Y1.418
Y1.3236
Y1.0782
Y1.0593
X3.0749 Y1.0404
X3.0759 Y1.0255
X3.0776 Y1.0143
X3.0792 Y1.007
X3.081 Y1.0014
X3.0821 Y0.9991
X3.0837 Y0.9969
X3.086 Y0.9954
X3.0887 Y0.9949
X3.1011
X3.1023 Y0.9952
X3.1033 Y0.996
X3.104 Y0.997
X3.1041 Y0.9983
X3.1038 Y0.9995
X3.103 Y1.0005
X3.1019 Y1.001
X3.1006 Y1.0011
X3.0994 Y1.0008
X3.0984 Y1.0002 Z0.1208
X3.0975 Y0.9997 Z0.1215
X3.0969 Y0.9993 Z0.1225
X3.0967 Y0.9992 Z0.1237
G0 Z0.333
X3.145 Y1.6641
Z0.1268
G1 Z0.1237 F14.
X3.1448 Y1.6642 Z0.1225
X3.1442 Y1.6645 Z0.1215
X3.1433 Y1.665 Z0.1208
X3.1423 Y1.6656 Z0.1206
G3 X3.1126 Y1.6744 I-0.0318 J-0.0536
G1 X3.0998
X3.0939 Y1.6741
X3.0887 Y1.6712
X3.0844 Y1.6672
X3.0807 Y1.6626
X3.0776 Y1.6576
X3.0743 Y1.6512
X3.0714 Y1.6443
X3.0682 Y1.6343
X3.0651 Y1.621
X3.0627 Y1.6057
X3.0615 Y1.5879
X3.0616 Y1.569
X3.0623 Y1.5502
X3.0624 Y1.5313
X3.0621 Y1.5124
X3.0623 Y1.4746
X3.0622 Y1.4558
Y1.418
Y1.3236
Y1.0782
X3.0623 Y1.0593
X3.0625 Y1.0404
X3.0634 Y1.0257
X3.065 Y1.0148
X3.0667 Y1.0074
X3.0685 Y1.0017
X3.0697 Y0.9992
X3.0713 Y0.9969
X3.0736 Y0.9954
X3.0763 Y0.9949
X3.0887
X3.0899 Y0.9952
X3.0909 Y0.996
X3.0916 Y0.997
X3.0917 Y0.9983
X3.0914 Y0.9995
X3.0906 Y1.0005
X3.0895 Y1.001
X3.0882 Y1.0011
X3.087 Y1.0008
X3.086 Y1.0002 Z0.1208
X3.0851 Y0.9997 Z0.1215
X3.0845 Y0.9993 Z0.1225
X3.0843 Y0.9992 Z0.1237
G0 Z0.333
X3.1321 Y1.6641
Z0.1268
G1 Z0.1237 F14.
X3.1319 Y1.6642 Z0.1225
X3.1313 Y1.6645 Z0.1215
X3.1305 Y1.665 Z0.1208
X3.1294 Y1.6656 Z0.1206
G3 X3.0998 Y1.6744 I-0.0318 J-0.0536
G1 X3.0863
X3.0834 Y1.6742
X3.0779 Y1.6721
X3.0732 Y1.6684
X3.0693 Y1.664
X3.066 Y1.6591
X3.063 Y1.6535
X3.0599 Y1.6467
X3.0565 Y1.6367
X3.0535 Y1.6256
X3.051 Y1.6114
X3.0493 Y1.5938
X3.049 Y1.5749
X3.0496 Y1.556
X3.05 Y1.5371
X3.0497 Y1.5183
X3.0496 Y1.4994
X3.0498 Y1.4805
X3.0497 Y1.4427
X3.0498 Y1.4239
Y1.0652
X3.0499 Y1.0463
X3.0506 Y1.029
X3.0521 Y1.0173
X3.0538 Y1.0091
X3.0554 Y1.0034
X3.0571 Y0.9994
X3.0587 Y0.9971
X3.061 Y0.9955
X3.0638 Y0.9949
X3.0763
X3.0775 Y0.9952
X3.0785 Y0.996
X3.0791 Y0.997
X3.0793 Y0.9983
X3.0789 Y0.9995
X3.0781 Y1.0005
X3.077 Y1.001
X3.0758 Y1.0011
X3.0746 Y1.0008
X3.0736 Y1.0002 Z0.1208
X3.0727 Y0.9997 Z0.1215
X3.0721 Y0.9993 Z0.1225
X3.0719 Y0.9992 Z0.1237
G0 Z0.333
X3.1187 Y1.6641
Z0.1268
G1 Z0.1237 F14.
X3.1185 Y1.6642 Z0.1225
X3.1179 Y1.6645 Z0.1215
X3.117 Y1.665 Z0.1208
X3.116 Y1.6656 Z0.1206
G3 X3.0863 Y1.6744 I-0.0318 J-0.0536
G1 X3.0751
X3.0692 Y1.6741
X3.064 Y1.6713
X3.0596 Y1.6673
X3.0559 Y1.6627
X3.0527 Y1.6577
X3.0495 Y1.6514
X3.0461 Y1.6432
X3.0433 Y1.6344
X3.0403 Y1.6218
X3.0378 Y1.6057
X3.0365 Y1.5868
X3.0366 Y1.568
X3.0373 Y1.5491
X3.0375 Y1.5302
X3.0372 Y1.5113
Y1.4925
X3.0373 Y1.4736
Y1.4547
X3.0372 Y1.4358
X3.0373 Y1.4169
Y1.2093
Y1.0771
Y1.0582
X3.0376 Y1.0394
X3.0386 Y1.0249
X3.0403 Y1.0138
X3.0418 Y1.0072
X3.0436 Y1.0016
X3.0448 Y0.9991
X3.0464 Y0.9969
X3.0487 Y0.9954
X3.0514 Y0.9949
X3.0638
X3.065 Y0.9952
X3.066 Y0.996
X3.0667 Y0.997
X3.0668 Y0.9983
X3.0665 Y0.9995
X3.0657 Y1.0005
X3.0646 Y1.001
X3.0633 Y1.0011
X3.0622 Y1.0008
X3.0611 Y1.0002 Z0.1208
X3.0602 Y0.9997 Z0.1215
X3.0597 Y0.9993 Z0.1225
X3.0594 Y0.9992 Z0.1237
G0 Z0.333
X3.1074 Y1.6641
Z0.1268
G1 Z0.1237 F14.
X3.1072 Y1.6642 Z0.1225
X3.1066 Y1.6645 Z0.1215
X3.1058 Y1.665 Z0.1208
X3.1048 Y1.6656 Z0.1206
G3 X3.0751 Y1.6744 I-0.0318 J-0.0536
G1 X3.0622
X3.0563 Y1.6741
X3.0512 Y1.6711
X3.0469 Y1.6671
X3.0432 Y1.6624
X3.0401 Y1.6574
X3.0368 Y1.651
X3.034 Y1.6441
X3.0308 Y1.6342
X3.0276 Y1.6206
X3.0253 Y1.6054
X3.024 Y1.5866
X3.0242 Y1.5678
X3.0248 Y1.5489
X3.025 Y1.53
X3.0247 Y1.5111
Y1.4923
X3.0249 Y1.4734
X3.0248 Y1.4545
Y1.4356
Y1.4167
Y1.2846
Y1.0769
Y1.058
X3.0251 Y1.0392
X3.0261 Y1.0251
X3.0277 Y1.0145
X3.0294 Y1.0072
X3.0312 Y1.0016
X3.0323 Y0.9991
X3.0339 Y0.9969
X3.0362 Y0.9954
X3.0389 Y0.9949
X3.0514
X3.0526 Y0.9952
X3.0536 Y0.996
X3.0542 Y0.997
X3.0544 Y0.9983
X3.054 Y0.9995
X3.0532 Y1.0005
X3.0521 Y1.001
X3.0509 Y1.0011
X3.0497 Y1.0008
X3.0487 Y1.0002 Z0.1208
X3.0478 Y0.9997 Z0.1215
X3.0472 Y0.9993 Z0.1225
X3.047 Y0.9992 Z0.1237
G0 Z0.333
X3.0946 Y1.6641
Z0.1268
G1 Z0.1237 F14.
X3.0944 Y1.6642 Z0.1225
X3.0938 Y1.6645 Z0.1215
X3.0929 Y1.665 Z0.1208
X3.0919 Y1.6656 Z0.1206
G3 X3.0622 Y1.6744 I-0.0318 J-0.0536
G1 X3.0493
X3.0434 Y1.6741
X3.0384 Y1.671
X3.0342 Y1.6669
X3.0305 Y1.6622
X3.0274 Y1.6572
X3.0241 Y1.6505
X3.0212 Y1.6431
X3.0178 Y1.6324
X3.0148 Y1.6188
X3.0124 Y1.6019
X3.0114 Y1.5844
X3.0118 Y1.5655
X3.0124 Y1.5467
X3.0125 Y1.5278
X3.0122 Y1.5089
X3.0123 Y1.49
X3.0124 Y1.4712
X3.0123 Y1.4523
Y1.4334
Y1.4145
Y1.3957
Y1.0747
X3.0124 Y1.0558
X3.0127 Y1.0369
X3.0138 Y1.0232
X3.0156 Y1.0125
X3.0171 Y1.0064
X3.019 Y1.0008
X3.0199 Y0.999
X3.0216 Y0.9968
X3.0238 Y0.9954
X3.0265 Y0.9949
X3.0389
X3.0401 Y0.9952
X3.0411 Y0.996
X3.0418 Y0.997
X3.0419 Y0.9983
X3.0416 Y0.9995
X3.0408 Y1.0005
X3.0397 Y1.001
X3.0384 Y1.0011
X3.0373 Y1.0008
X3.0362 Y1.0002 Z0.1208
X3.0353 Y0.9997 Z0.1215
X3.0348 Y0.9993 Z0.1225
X3.0346 Y0.9992 Z0.1237
G0 Z0.333
X3.0817 Y1.6641
Z0.1268
G1 Z0.1237 F14.
X3.0815 Y1.6642 Z0.1225
X3.0809 Y1.6645 Z0.1215
X3.08 Y1.665 Z0.1208
X3.079 Y1.6656 Z0.1206
G3 X3.0493 Y1.6744 I-0.0318 J-0.0536
G1 X3.0378
X3.0319 Y1.6741
X3.0266 Y1.6713
X3.0222 Y1.6674
X3.0185 Y1.6628
X3.0154 Y1.6578
X3.0122 Y1.6517
X3.0092 Y1.6443
X3.0057 Y1.6336
X3.0027 Y1.6209
X3.0003 Y1.6056
X2.999 Y1.5875
X2.9992 Y1.5687
X2.9998 Y1.5498
X3.0001 Y1.5309
X2.9998 Y1.512
X2.9997 Y1.4931
X2.9999 Y1.4743
X2.9998 Y1.4365
Y1.4176
Y1.0778
X2.9999 Y1.0589
X3.0001 Y1.04
X3.0012 Y1.0248
X3.0027 Y1.0147
X3.0044 Y1.0072
X3.0062 Y1.0016
X3.0074 Y0.9991
X3.009 Y0.9969
X3.0113 Y0.9954
X3.014 Y0.9949
X3.0265
X3.0277 Y0.9952
X3.0287 Y0.996
X3.0293 Y0.997
X3.0295 Y0.9983
X3.0291 Y0.9995
X3.0283 Y1.0005
X3.0272 Y1.001
X3.026 Y1.0011
X3.0248 Y1.0008
X3.0238 Y1.0002 Z0.1208
X3.0229 Y0.9997 Z0.1215
X3.0223 Y0.9993 Z0.1225
X3.0221 Y0.9992 Z0.1237
G0 Z0.333
X3.0701 Y1.6641
Z0.1268
G1 Z0.1237 F14.
X3.0699 Y1.6642 Z0.1225
X3.0693 Y1.6645 Z0.1215
X3.0685 Y1.665 Z0.1208
X3.0674 Y1.6656 Z0.1206
G3 X3.0378 Y1.6744 I-0.0318 J-0.0536
G1 X3.0249
X3.019 Y1.6741
X3.0138 Y1.6712
X3.0095 Y1.6672
X3.0059 Y1.6625
X3.0027 Y1.6575
X2.9993 Y1.6507
X2.9963 Y1.6434
X2.993 Y1.633
X2.9899 Y1.6194
X2.9875 Y1.6031
X2.9864 Y1.5862
X2.9867 Y1.5673
X2.9874 Y1.5485
X2.9876 Y1.5296
X2.9872 Y1.5107
X2.9873 Y1.4918
X2.9874 Y1.473
X2.9873 Y1.4541
Y1.4352
X2.9874 Y1.4163
Y1.2653
Y1.0765
Y1.0576
X2.9877 Y1.0387
X2.9887 Y1.0251
X2.9903 Y1.0143
X2.992 Y1.0071
X2.9938 Y1.0015
X2.995 Y0.9991
X2.9966 Y0.9969
X2.9989 Y0.9954
X3.0015 Y0.9949
X3.014
X3.0152 Y0.9952
X3.0162 Y0.996
X3.0168 Y0.997
X3.017 Y0.9983
X3.0167 Y0.9995
X3.0159 Y1.0005
X3.0148 Y1.001
X3.0135 Y1.0011
X3.0123 Y1.0008
X3.0113 Y1.0002 Z0.1208
X3.0104 Y0.9997 Z0.1215
X3.0098 Y0.9993 Z0.1225
X3.0096 Y0.9992 Z0.1237
G0 Z0.333
X3.0572 Y1.6641
Z0.1268
G1 Z0.1237 F14.
X3.057 Y1.6642 Z0.1225
X3.0565 Y1.6645 Z0.1215
X3.0556 Y1.665 Z0.1208
X3.0546 Y1.6656 Z0.1206
G3 X3.0249 Y1.6744 I-0.0318 J-0.0536
G1 X3.012
X3.0061 Y1.6741
X3.0011 Y1.671
X2.9968 Y1.6669
X2.9932 Y1.6623
X2.9901 Y1.6572
X2.9867 Y1.6505
X2.9838 Y1.6432
X2.9804 Y1.6323
X2.9772 Y1.6182
X2.9749 Y1.6025
X2.9739 Y1.5859
X2.9743 Y1.567
X2.9749 Y1.5481
X2.9751 Y1.5292
X2.9748 Y1.5104
Y1.4915
X2.9749 Y1.4726
Y1.4537
X2.9748 Y1.4349
X2.9749 Y1.416
Y1.3405
Y1.0762
Y1.0573
X2.9752 Y1.0384
X2.9762 Y1.0249
X2.9779 Y1.0142
X2.9796 Y1.007
X2.9814 Y1.0014
X2.9825 Y0.9991
X2.9841 Y0.9969
X2.9864 Y0.9954
X2.9891 Y0.9949
X3.0015
X3.0028 Y0.9952
X3.0038 Y0.996
X3.0044 Y0.997
X3.0045 Y0.9983
X3.0042 Y0.9995
X3.0034 Y1.0005
X3.0023 Y1.001
X3.0011 Y1.0011
X2.9999 Y1.0008
X2.9988 Y1.0002 Z0.1208
X2.998 Y0.9997 Z0.1215
X2.9974 Y0.9993 Z0.1225
X2.9972 Y0.9992 Z0.1237
G0 Z0.333
X3.0444 Y1.6641
Z0.1268
G1 Z0.1237 F14.
X3.0442 Y1.6642 Z0.1225
X3.0436 Y1.6645 Z0.1215
X3.0427 Y1.665 Z0.1208
X3.0417 Y1.6656 Z0.1206
G3 X3.012 Y1.6744 I-0.0318 J-0.0536
G1 X2.9992
X2.9933 Y1.6741
X2.9883 Y1.6709
X2.9841 Y1.6667
X2.9805 Y1.6621
X2.9774 Y1.657
X2.974 Y1.6501
X2.9711 Y1.6426
X2.9676 Y1.6312
X2.9645 Y1.6171
X2.9623 Y1.6011
X2.9614 Y1.5847
X2.9618 Y1.5658
X2.9625 Y1.5469
X2.9626 Y1.5281
X2.9622 Y1.5092
X2.9623 Y1.4903
X2.9625 Y1.4714
X2.9624 Y1.4525
Y1.4337
Y1.4148
Y1.377
Y1.075
Y1.0561
X2.9627 Y1.0372
X2.9639 Y1.0236
X2.9656 Y1.0129
X2.9673 Y1.0065
X2.9691 Y1.0009
X2.9701 Y0.999
X2.9717 Y0.9968
X2.974 Y0.9954
X2.9766 Y0.9949
X2.9891
X2.9903 Y0.9952
X2.9913 Y0.996
X2.9919 Y0.997
X2.9921 Y0.9983
X2.9917 Y0.9995
X2.9909 Y1.0005
X2.9898 Y1.001
X2.9886 Y1.0011
X2.9874 Y1.0008
X2.9864 Y1.0002 Z0.1208
X2.9855 Y0.9997 Z0.1215
X2.9849 Y0.9993 Z0.1225
X2.9847 Y0.9992 Z0.1237
G0 Z0.333
X3.0315 Y1.6641
Z0.1268
G1 Z0.1237 F14.
X3.0313 Y1.6642 Z0.1225
X3.0307 Y1.6645 Z0.1215
X3.0298 Y1.665 Z0.1208
X3.0288 Y1.6656 Z0.1206
G3 X2.9992 Y1.6744 I-0.0318 J-0.0536
G1 X2.9863
X2.9833 Y1.6742
X2.9779 Y1.672
X2.9732 Y1.6683
X2.9694 Y1.6638
X2.9661 Y1.6589
X2.9633 Y1.6537
X2.9599 Y1.6461
X2.9566 Y1.6366
X2.9536 Y1.625
X2.9509 Y1.6099
X2.9493 Y1.5932
X2.949 Y1.5743
X2.9497 Y1.5554
X2.9501 Y1.5365
X2.95 Y1.5177
X2.9497 Y1.4988
X2.9499 Y1.4799
X2.95 Y1.461
X2.9499 Y1.4422
Y1.4044
Y1.3855
Y1.0834
Y1.0646
X2.9501 Y1.0457
X2.9508 Y1.0297
X2.9524 Y1.0171
X2.9541 Y1.009
X2.9558 Y1.0033
X2.9574 Y0.9994
X2.959 Y0.997
X2.9613 Y0.9955
X2.9641 Y0.9949
X2.9766
X2.9778 Y0.9952
X2.9788 Y0.996
X2.9794 Y0.997
X2.9796 Y0.9983
X2.9793 Y0.9995
X2.9785 Y1.0005
X2.9774 Y1.001
X2.9761 Y1.0011
X2.9749 Y1.0008
X2.9739 Y1.0002 Z0.1208
X2.973 Y0.9997 Z0.1215
X2.9724 Y0.9993 Z0.1225
X2.9722 Y0.9992 Z0.1237
G0 Z0.333
X3.0186 Y1.6641
Z0.1268
G1 Z0.1237 F14.
X3.0184 Y1.6642 Z0.1225
X3.0178 Y1.6645 Z0.1215
X3.017 Y1.665 Z0.1208
X3.0159 Y1.6656 Z0.1206
G3 X2.9863 Y1.6744 I-0.0318 J-0.0536
G1 X2.9753
X2.9694 Y1.6741
X2.9642 Y1.6713
X2.9598 Y1.6673
X2.9562 Y1.6627
X2.953 Y1.6577
X2.9497 Y1.6514
X2.9464 Y1.6434
X2.9434 Y1.6343
X2.9403 Y1.6211
X2.9378 Y1.6053
X2.9365 Y1.5867
X2.9366 Y1.5678
X2.9374 Y1.5489
X2.9377 Y1.53
X2.9374 Y1.5112
X2.9373 Y1.4923
X2.9375 Y1.4734
Y1.4545
X2.9374 Y1.4357
Y1.4168
Y1.379
Y1.0769
X2.9375 Y1.0581
X2.9378 Y1.0392
X2.9389 Y1.0241
X2.9407 Y1.0132
X2.9422 Y1.0069
X2.944 Y1.0013
X2.9451 Y0.9991
X2.9466 Y0.997
X2.9489 Y0.9955
X2.9515 Y0.995
X2.9605 Y0.9949
X2.9641
X2.9653 Y0.9952
X2.9663 Y0.996
X2.967 Y0.997
