(1001)
(T2  D=0.0312 CR=0. - ZMIN=0.098 - FLAT END MILL)
G0 G90 G94 G17
G20
G53 G0 Z0.

(ADAPTIVE1)
M5
M9
T2
S16500 M3
G4 P4.
G55
M8
G0 X1.0279 Y1.4617
Z0.7307
Z0.337
Z0.2386
G3 X1.0008 Y1.4737 Z0.2369 I-0.0136 J0.006 F14.
X1.0279 Y1.4617 Z0.2353 I0.0136 J-0.006
X1.0008 Y1.4737 Z0.2337 I-0.0136 J0.006
X1.0279 Y1.4617 Z0.2321 I0.0136 J-0.006
X1.0008 Y1.4737 Z0.2304 I-0.0136 J0.006
X1.0279 Y1.4617 Z0.2288 I0.0136 J-0.006
X1.0008 Y1.4737 Z0.2272 I-0.0136 J0.006
X1.0279 Y1.4617 Z0.2256 I0.0136 J-0.006
X1.0008 Y1.4737 Z0.2239 I-0.0136 J0.006
X1.0279 Y1.4617 Z0.2223 I0.0136 J-0.006
X1.0008 Y1.4737 Z0.2207 I-0.0136 J0.006
X1.0279 Y1.4617 Z0.2191 I0.0136 J-0.006
X1.0008 Y1.4737 Z0.2174 I-0.0136 J0.006
X1.0279 Y1.4617 Z0.2158 I0.0136 J-0.006
X1.0008 Y1.4737 Z0.2142 I-0.0136 J0.006
X1.0279 Y1.4617 Z0.2126 I0.0136 J-0.006
X1.0008 Y1.4737 Z0.2109 I-0.0136 J0.006
X1.0279 Y1.4617 Z0.2093 I0.0136 J-0.006
X1.0008 Y1.4737 Z0.2077 I-0.0136 J0.006
X1.0279 Y1.4617 Z0.206 I0.0136 J-0.006
X1.0008 Y1.4737 Z0.2044 I-0.0136 J0.006
X1.0279 Y1.4617 Z0.2028 I0.0136 J-0.006
X1.0008 Y1.4737 Z0.2012 I-0.0136 J0.006
X1.0279 Y1.4617 Z0.1995 I0.0136 J-0.006
X1.0008 Y1.4737 Z0.1979 I-0.0136 J0.006
X1.0279 Y1.4617 Z0.1963 I0.0136 J-0.006
X1.0008 Y1.4737 Z0.1947 I-0.0136 J0.006
X1.0279 Y1.4617 Z0.193 I0.0136 J-0.006
X1.0008 Y1.4737 Z0.1914 I-0.0136 J0.006
X1.0279 Y1.4617 Z0.1898 I0.0136 J-0.006
X1.0008 Y1.4737 Z0.1882 I-0.0136 J0.006
X1.0279 Y1.4617 Z0.1865 I0.0136 J-0.006
X1.0008 Y1.4737 Z0.1849 I-0.0136 J0.006
X1.0279 Y1.4617 Z0.1833 I0.0136 J-0.006
X1.0008 Y1.4737 Z0.1817 I-0.0136 J0.006
X1.0279 Y1.4617 Z0.18 I0.0136 J-0.006
X1.0008 Y1.4737 Z0.1784 I-0.0136 J0.006
X1.0279 Y1.4617 Z0.1768 I0.0136 J-0.006
X1.0008 Y1.4737 Z0.1752 I-0.0136 J0.006
X1.0279 Y1.4617 Z0.1735 I0.0136 J-0.006
X1.0008 Y1.4737 Z0.1719 I-0.0136 J0.006
X1.0279 Y1.4617 Z0.1703 I0.0136 J-0.006
X1.0008 Y1.4737 Z0.1687 I-0.0136 J0.006
X1.0279 Y1.4617 Z0.167 I0.0136 J-0.006
X1.0008 Y1.4737 Z0.1654 I-0.0136 J0.006
X1.0279 Y1.4617 Z0.1638 I0.0136 J-0.006
X1.0008 Y1.4737 Z0.1622 I-0.0136 J0.006
X1.0279 Y1.4617 Z0.1605 I0.0136 J-0.006
X1.0008 Y1.4737 Z0.1589 I-0.0136 J0.006
X1.0279 Y1.4617 Z0.1573 I0.0136 J-0.006
X1.0008 Y1.4737 Z0.1556 I-0.0136 J0.006
X1.0279 Y1.4617 Z0.154 I0.0136 J-0.006
X1.0008 Y1.4737 Z0.1524 I-0.0136 J0.006
X1.0279 Y1.4617 Z0.1508 I0.0136 J-0.006
X1.0008 Y1.4737 Z0.1491 I-0.0136 J0.006
X1.0279 Y1.4617 Z0.1475 I0.0136 J-0.006
X1.0008 Y1.4737 Z0.1459 I-0.0136 J0.006
X1.0279 Y1.4617 Z0.1443 I0.0136 J-0.006
X1.0008 Y1.4737 Z0.1426 I-0.0136 J0.006
X1.0279 Y1.4617 Z0.141 I0.0136 J-0.006
X1.0008 Y1.4737 Z0.1394 I-0.0136 J0.006
X1.0279 Y1.4617 Z0.1378 I0.0136 J-0.006
X1.0008 Y1.4737 Z0.1361 I-0.0136 J0.006
X1.0279 Y1.4617 Z0.1345 I0.0136 J-0.006
X1.0008 Y1.4737 Z0.1329 I-0.0136 J0.006
X1.0279 Y1.4617 Z0.1313 I0.0136 J-0.006
X1.0008 Y1.4737 Z0.1296 I-0.0136 J0.006
X1.0279 Y1.4617 Z0.128 I0.0136 J-0.006
X1.0008 Y1.4737 Z0.1264 I-0.0136 J0.006
X1.0279 Y1.4617 Z0.1248 I0.0136 J-0.006
X1.0291 Y1.4677 Z0.1245 I-0.0136 J0.006
X0.9995 I-0.0148 J0.
X1.0291 I0.0148 J0.
G1 X1.0304 Y1.4753
X1.0306 Y1.4782
X1.0292 Y1.4839
X1.0252 Y1.4883
X1.0199 Y1.491
X1.0141 Y1.4921
X1.0082 Y1.4915
X1.0027 Y1.4895
X0.9978 Y1.4862
X0.9939 Y1.4818
X0.9911 Y1.4766
X0.9897 Y1.4708
X0.9896 Y1.4649
X0.991 Y1.4592
X0.9936 Y1.4539
X0.9975 Y1.4494
X1.0022 Y1.446
X1.0077 Y1.4437
X1.0135 Y1.4428
X1.0194 Y1.4434
X1.025 Y1.4453
X1.03 Y1.4484
X1.0341 Y1.4527
X1.0371 Y1.4578
X1.0392 Y1.4633
X1.0407 Y1.469
X1.0413 Y1.4749
X1.0409 Y1.4808
X1.039 Y1.4864
X1.0361 Y1.4915
X1.032 Y1.4957
X1.027 Y1.4989
X1.0216 Y1.5012
X1.0158 Y1.5023
X1.0099 Y1.5022
X1.004 Y1.5012
X0.9985 Y1.4991
X0.9934 Y1.4961
X0.989 Y1.4922
X0.9852 Y1.4877
X0.9822 Y1.4826
X0.9802 Y1.4771
X0.9791 Y1.4713
X0.979 Y1.4654
X0.9799 Y1.4595
X0.9817 Y1.4539
X0.9844 Y1.4487
X0.988 Y1.444
X0.9923 Y1.4399
X0.9972 Y1.4366
X1.0026 Y1.4342
X1.0083 Y1.4328
X1.0142 Y1.4322
X1.0201 Y1.4327
X1.0258 Y1.4342
X1.0312 Y1.4365
X1.0362 Y1.4398
X1.0405 Y1.4438
X1.0441 Y1.4485
X1.0471 Y1.4536
X1.0495 Y1.459
X1.0511 Y1.4646
X1.0521 Y1.4705
X1.0523 Y1.4764
X1.0516 Y1.4822
X1.05 Y1.4879
X1.0475 Y1.4933
X1.0443 Y1.4982
X1.0403 Y1.5026
X1.0357 Y1.5062
X1.0328 Y1.5079
X1.0312 Y1.5086
X1.0293 Y1.5088
X1.0275 Y1.5085
X1.0216 Y1.5073
X1.0173 Y1.5064
X1.013 Y1.5056
X1.0001 Y1.5048
X0.9958 Y1.5046
X0.99 Y1.5041
X0.9847 Y1.5014
X0.9801 Y1.4976
X0.9762 Y1.4932
X0.9731 Y1.4882
X0.9707 Y1.4828
X0.969 Y1.4772
X0.9681 Y1.4713
X0.968 Y1.4654
X0.9683 Y1.4621
X0.9689 Y1.4601
X0.97 Y1.4583
X0.9716 Y1.4568
X0.9744 Y1.455
X0.9772 Y1.4528
X0.9787 Y1.4514
X0.9813 Y1.4485
X0.983 Y1.4463
X0.9842 Y1.4442
X0.988 Y1.4368
X0.9909 Y1.4317
X0.9952 Y1.4276
X1.0003 Y1.4246
X1.0059 Y1.4227
X1.0117 Y1.4217
X1.0176 Y1.4216
X1.0235 Y1.4223
X1.0292 Y1.4238
X1.0347 Y1.426
X1.0398 Y1.4289
X1.0445 Y1.4325
X1.046 Y1.4339
X1.0474 Y1.4356
X1.0482 Y1.4377
X1.0484 Y1.4399
X1.0482 Y1.4442
X1.0485 Y1.4485
X1.0493 Y1.4528
X1.05 Y1.4549
X1.0508 Y1.4571
X1.0516 Y1.4589
X1.053 Y1.4614
X1.0559 Y1.4656
X1.0597 Y1.4702
X1.0614 Y1.4758
X1.0617 Y1.4817
X1.061 Y1.4876
X1.0593 Y1.4932
X1.057 Y1.4987
X1.0539 Y1.5037
X1.0501 Y1.5082
X1.0477 Y1.5106
X1.0455 Y1.512
X1.043 Y1.5126
X1.0404 Y1.5122
X1.0387 Y1.5117
X1.0275 Y1.5085
X1.0265 Y1.508
X1.0258 Y1.5071
X1.0254 Y1.506
Y1.5049
X1.0259 Y1.5038
X1.037 Y1.4872
X1.0511 Y1.4661
X1.0521 Y1.4652
X1.0534 Y1.4647
X1.0547 Y1.4649
X1.0559 Y1.4656
X1.0599 Y1.4699
X1.0636 Y1.4728
X1.0681 Y1.4766
X1.0702 Y1.4821
X1.0706 Y1.488
X1.0699 Y1.4939
X1.0683 Y1.4996
X1.0659 Y1.505
X1.0629 Y1.51
X1.0592 Y1.5147
X1.0584 Y1.5153
X1.0561 Y1.5167
X1.0534 Y1.5171
X1.0508 Y1.5165
X1.0423 Y1.5128
X1.0404 Y1.5122
X1.0393 Y1.5115
X1.0385 Y1.5103
X1.0384 Y1.509
X1.0388 Y1.5077
X1.0459 Y1.4959
X1.0591 Y1.4737
X1.06 Y1.4728
X1.0611 Y1.4723
X1.0624
X1.0636 Y1.4728
X1.0645 Y1.4735
X1.0657 Y1.4742
X1.0687 Y1.4759
X1.0717 Y1.4772
X1.0743 Y1.4785
X1.078 Y1.4832
X1.0796 Y1.4889
X1.0798 Y1.4948
X1.0789 Y1.5006
X1.0772 Y1.5062
X1.0747 Y1.5116
X1.0717 Y1.5167
X1.069 Y1.5197
X1.0663 Y1.5216
X1.063 Y1.5221
X1.0599 Y1.5211
X1.0559 Y1.5188
X1.0516 Y1.5168
X1.0508 Y1.5165
X1.0498 Y1.5157
X1.0492 Y1.5146
X1.049 Y1.5134
X1.0494 Y1.5122
X1.0551 Y1.5017
X1.0678 Y1.4786
X1.0685 Y1.4777
X1.0695 Y1.4771
X1.0706 Y1.477
X1.0717 Y1.4772
X1.0797 Y1.4809
X1.0823 Y1.4823
X1.0865 Y1.4864
X1.0886 Y1.492
X1.0892 Y1.4978
X1.0887 Y1.5037
X1.0874 Y1.5095
X1.0853 Y1.515
X1.0825 Y1.5202
X1.0789 Y1.5249
X1.077 Y1.5264
X1.0743 Y1.5278
X1.0712 Y1.5279
X1.0683 Y1.5268
X1.0599 Y1.5211
X1.0591 Y1.5204
X1.0586 Y1.5193
X1.0584 Y1.5182
X1.0588 Y1.5171
X1.0642 Y1.5059
X1.0757 Y1.4824
X1.0764 Y1.4814
X1.0774 Y1.4808
X1.0785 Y1.4806
X1.0797 Y1.4809
X1.0859 Y1.4838
X1.0893 Y1.4855
X1.0919 Y1.487
X1.0959 Y1.4913
X1.0981 Y1.4968
X1.0987 Y1.5026
X1.0983 Y1.5085
X1.0971 Y1.5143
X1.0951 Y1.5199
X1.0924 Y1.5251
X1.0889 Y1.5299
X1.0845 Y1.5338
X1.0838 Y1.5341
X1.0811 Y1.5349
X1.0783 Y1.5346
X1.0758 Y1.5331
X1.0687 Y1.5271
X1.0683 Y1.5268
X1.0676 Y1.526
X1.0671 Y1.525
Y1.5239
X1.0674 Y1.5229
X1.0736 Y1.5103
X1.0852 Y1.4869
X1.0859 Y1.486
X1.087 Y1.4854
X1.0882 Y1.4852
X1.0893 Y1.4855
X1.0923 Y1.4871
X1.0994 Y1.4914
X1.1041 Y1.4949
X1.1069 Y1.5001
X1.1081 Y1.5059
Y1.5118
X1.1071 Y1.5177
X1.1054 Y1.5233
X1.1029 Y1.5287
X1.0998 Y1.5337
X1.0959 Y1.5382
X1.0912 Y1.5417
X1.0906 Y1.542
X1.0876 Y1.5425
X1.0846 Y1.5417
X1.0822 Y1.5398
X1.0816 Y1.539
X1.0773 Y1.5345
X1.0758 Y1.5331
X1.075 Y1.532
X1.0748 Y1.5307
X1.0752 Y1.5294
X1.0827 Y1.5154
X1.0952 Y1.4926
X1.0959 Y1.4917
X1.097 Y1.4911
X1.0983 Y1.491
X1.0994 Y1.4914
X1.103 Y1.4938
X1.1095 Y1.4986
X1.1141 Y1.5024
X1.1166 Y1.5077
X1.1175 Y1.5136
X1.1172 Y1.5195
X1.116 Y1.5253
X1.114 Y1.5308
X1.1114 Y1.5361
X1.1081 Y1.541
X1.1041 Y1.5454
X1.0995 Y1.549
X1.0972 Y1.55
X1.0939 Y1.5506
X1.0906 Y1.5497
X1.0882 Y1.5474
X1.0847 Y1.5429
X1.0822 Y1.5398
X1.0817 Y1.5387
X1.0816 Y1.5374
X1.0821 Y1.5363
X1.0914 Y1.5215
X1.1051 Y1.4995
X1.106 Y1.4986
X1.1071 Y1.4982
X1.1084
X1.1095 Y1.4986
X1.1116 Y1.5002
X1.1159 Y1.5036
X1.1202 Y1.508
X1.1241 Y1.5124
X1.126 Y1.518
X1.1262 Y1.5239
X1.1254 Y1.5297
X1.1237 Y1.5354
X1.1213 Y1.5408
X1.1182 Y1.5458
X1.1146 Y1.5504
X1.1103 Y1.5545
X1.1054 Y1.5578
X1.1025 Y1.5589
X1.099 Y1.5593
X1.0958 Y1.5582
X1.0933 Y1.5557
X1.0902 Y1.5505
X1.0882 Y1.5474
X1.0877 Y1.5463
X1.0878 Y1.545
X1.0883 Y1.5439
X1.0999 Y1.5287
X1.1156 Y1.5083
X1.1166 Y1.5075
X1.1178 Y1.5071
X1.1191 Y1.5073
X1.1202 Y1.508
X1.125 Y1.5128
X1.1288 Y1.5167
X1.1291 Y1.5171
X1.1301 Y1.5184
X1.1334 Y1.5233
X1.1345 Y1.5291
X1.1341 Y1.535
X1.1328 Y1.5408
X1.1306 Y1.5462
X1.1277 Y1.5514
X1.1242 Y1.5562
X1.1202 Y1.5605
X1.1156 Y1.5642
X1.1105 Y1.5671
X1.1049 Y1.5689
X1.1046 Y1.569
X1.1017 Y1.5685
X1.0992 Y1.5669
X1.0976 Y1.5645
X1.0956 Y1.56
X1.0933 Y1.5557
X1.0931 Y1.5545
X1.0932 Y1.5533
X1.0939 Y1.5523
X1.108 Y1.537
X1.1254 Y1.5183
X1.1265 Y1.5175
X1.1278 Y1.5173
X1.1291 Y1.5176
X1.1301 Y1.5184
X1.1324 Y1.5214
X1.1384 Y1.53
X1.141 Y1.5353
X1.1417 Y1.5412
X1.1408 Y1.547
X1.139 Y1.5526
X1.1363 Y1.5579
X1.133 Y1.5628
X1.1292 Y1.5673
X1.1247 Y1.5712
X1.1199 Y1.5745
X1.1146 Y1.5772
X1.1089 Y1.5787
X1.1079
X1.1049 Y1.5781
X1.1024 Y1.5762
X1.1009 Y1.5735
X1.0993 Y1.5686
X1.0976 Y1.5645
X1.0974 Y1.5632
X1.0977 Y1.562
X1.0984 Y1.561
X1.1145 Y1.5467
X1.1338 Y1.5295
X1.1349 Y1.5289
X1.1362 Y1.5288
X1.1374 Y1.5292
X1.1384 Y1.53
X1.1408 Y1.5343
X1.1453 Y1.5429
X1.1459 Y1.5442
X1.1479 Y1.5498
X1.1475 Y1.5556
X1.1459 Y1.5613
X1.1432 Y1.5666
X1.1399 Y1.5715
X1.136 Y1.5759
X1.1316 Y1.5799
X1.1269 Y1.5834
X1.1216 Y1.5861
X1.1161 Y1.5882
X1.1102 Y1.5889
X1.1095 Y1.5888
X1.1068 Y1.5879
X1.1046 Y1.5859
X1.1034 Y1.5833
X1.102 Y1.5772
X1.1009 Y1.5735
X1.1008 Y1.5722
X1.1014 Y1.5709
X1.1024 Y1.57
X1.1209 Y1.5593
X1.143 Y1.5465
X1.1443 Y1.5461
X1.1456 Y1.5463
X1.1467 Y1.547
X1.1475 Y1.5481
X1.1513 Y1.5587
X1.1517 Y1.56
X1.1529 Y1.5658
X1.1514 Y1.5715
X1.1487 Y1.5768
X1.1453 Y1.5816
X1.1414 Y1.586
X1.1369 Y1.5899
X1.132 Y1.5932
X1.1268 Y1.596
X1.1213 Y1.5981
X1.1155 Y1.5993
X1.1123 Y1.5992
X1.1089 Y1.5983
X1.1063 Y1.5959
X1.1052 Y1.5926
X1.105 Y1.5901
X1.1034 Y1.5833
Y1.5819
X1.1041 Y1.5807
X1.1051 Y1.5799
X1.1247 Y1.5705
X1.1478 Y1.5596
X1.1491 Y1.5593
X1.1504 Y1.5596
X1.1515 Y1.5604
X1.1521 Y1.5615
X1.155 Y1.5729
X1.1558 Y1.5787
X1.1543 Y1.5844
X1.1515 Y1.5896
X1.1478 Y1.5943
X1.1436 Y1.5984
X1.1389 Y1.602
X1.1338 Y1.605
X1.1284 Y1.6074
X1.1228 Y1.6091
X1.1169 Y1.6099
X1.111 Y1.6095
X1.1109 Y1.6094
X1.1085 Y1.608
X1.1068 Y1.6057
X1.1061 Y1.6029
X1.1052 Y1.5926
X1.1054 Y1.5913
X1.1061 Y1.5902
X1.1071 Y1.5895
X1.1272 Y1.581
X1.1507 Y1.5709
X1.152 Y1.5706
X1.1533 Y1.5709
X1.1543 Y1.5717
X1.155 Y1.5729
X1.1558 Y1.5772
X1.1574 Y1.5871
X1.1579 Y1.5929
X1.1559 Y1.5985
X1.1527 Y1.6034
X1.1487 Y1.6078
X1.1441 Y1.6115
X1.1391 Y1.6147
X1.1338 Y1.6173
X1.1282 Y1.6192
X1.1225 Y1.6204
X1.1166 Y1.6208
X1.1127 Y1.6203
X1.1096 Y1.619
X1.1074 Y1.6165
X1.1065 Y1.6133
X1.1063 Y1.6072
X1.1061 Y1.6029
X1.1064 Y1.6016
X1.1071 Y1.6006
X1.1083 Y1.5999
X1.1291 Y1.5929
X1.1533 Y1.5847
X1.1546 Y1.5845
X1.1559 Y1.5849
X1.1569 Y1.5858
X1.1574 Y1.5871
X1.1578 Y1.5901
X1.1587 Y1.6005
X1.1588 Y1.6064
X1.1567 Y1.6119
X1.1532 Y1.6167
X1.1489 Y1.6208
X1.1441 Y1.6242
X1.139 Y1.627
X1.1335 Y1.6292
X1.1278 Y1.6308
X1.1219 Y1.6316
X1.116
X1.1102 Y1.6304
X1.108 Y1.6287
X1.1066 Y1.6262
X1.1062 Y1.6234
X1.1065 Y1.6201
X1.1066 Y1.6158
X1.1065 Y1.6133
X1.1068 Y1.612
X1.1076 Y1.6109
X1.1088 Y1.6103
X1.1301 Y1.6045
X1.1548 Y1.5979
X1.1561 Y1.5978
X1.1573 Y1.5983
X1.1582 Y1.5993
X1.1587 Y1.6005
X1.1589 Y1.6029
X1.159 Y1.6072
X1.1591 Y1.6158
X1.1588 Y1.6217
X1.1558 Y1.6268
X1.1518 Y1.6311
X1.1471 Y1.6347
X1.1419 Y1.6376
X1.1365 Y1.6399
X1.1308 Y1.6416
X1.125 Y1.6425
X1.1191 Y1.6428
X1.1132 Y1.6423
X1.1103 Y1.6413
X1.1073 Y1.6394
X1.1056 Y1.6365
X1.1054 Y1.633
X1.1058 Y1.6287
X1.1062 Y1.6234
X1.1067 Y1.6221
X1.1076 Y1.6211
X1.1088 Y1.6206
X1.1302 Y1.6171
X1.1555 Y1.6129
X1.1568
X1.158 Y1.6135
X1.1588 Y1.6145
X1.1591 Y1.6158
Y1.6201
X1.1587 Y1.6287
X1.1581 Y1.6345
X1.1551 Y1.6396
X1.1509 Y1.6438
X1.146 Y1.6471
X1.1408 Y1.6498
X1.1352 Y1.6518
X1.1295 Y1.6532
X1.1236 Y1.6538
X1.1177 Y1.6539
X1.1119 Y1.653
X1.1063 Y1.6509
X1.1044 Y1.6489
X1.1034 Y1.6464
Y1.6436
X1.1054 Y1.633
X1.1059 Y1.6319
X1.1069 Y1.631
X1.1081 Y1.6306
X1.1297 Y1.6283
X1.1552 Y1.6255
X1.1565 Y1.6257
X1.1577 Y1.6263
X1.1584 Y1.6274
X1.1587 Y1.6287
X1.1585 Y1.633
X1.1572 Y1.6428
X1.1562 Y1.6487
X1.1527 Y1.6534
X1.1481 Y1.6572
X1.143 Y1.6602
X1.1375 Y1.6624
X1.1319 Y1.6639
X1.126 Y1.6649
X1.1201 Y1.6651
X1.1142 Y1.6646
X1.1085 Y1.6634
X1.1031 Y1.6609
X1.103 Y1.6608
X1.1012 Y1.6586
X1.1004 Y1.6559
X1.1007 Y1.6531
X1.103 Y1.6458
X1.1034 Y1.6436
X1.104 Y1.6424
X1.105 Y1.6416
X1.1063 Y1.6412
X1.1284 Y1.6404
X1.154 Y1.6394
X1.1553 Y1.6397
X1.1564 Y1.6404
X1.157 Y1.6415
X1.1572 Y1.6428
X1.1568 Y1.6458
X1.156 Y1.6501
X1.1548 Y1.6559
X1.1532 Y1.6616
X1.1496 Y1.6663
X1.1449 Y1.6699
X1.1397 Y1.6726
X1.1341 Y1.6745
X1.1283 Y1.6757
X1.1224 Y1.6763
X1.1165 Y1.6761
X1.1107 Y1.6753
X1.105 Y1.6738
X1.0997 Y1.6711
X1.0994 Y1.6707
X1.0976 Y1.6683
X1.097 Y1.6654
X1.0975 Y1.6625
X1.0988 Y1.6596
X1.1007 Y1.6531
X1.1014 Y1.652
X1.1025 Y1.6513
X1.1038 Y1.651
X1.1262 Y1.6516
X1.1518 Y1.6523
X1.1531 Y1.6526
X1.1541 Y1.6534
X1.1547 Y1.6546
X1.1548 Y1.6559
X1.1542 Y1.6587
X1.1531 Y1.663
X1.151 Y1.6696
X1.149 Y1.6752
X1.145 Y1.6796
X1.1401 Y1.6828
X1.1346 Y1.685
X1.1289 Y1.6865
X1.123 Y1.6872
X1.1171 Y1.6874
X1.1112 Y1.6868
X1.1055 Y1.6855
X1.0999 Y1.6835
X1.0949 Y1.6804
X1.0942 Y1.6795
X1.0926 Y1.677
X1.0923 Y1.674
X1.0931 Y1.6712
X1.0952 Y1.6673
X1.0973 Y1.663
X1.0975 Y1.6625
X1.0983 Y1.6615
X1.0994 Y1.6608
X1.1007 Y1.6607
X1.123 Y1.6631
X1.1484 Y1.6657
X1.1496 Y1.6661
X1.1506 Y1.6671
X1.1511 Y1.6683
X1.151 Y1.6696
X1.1491 Y1.6759
X1.1459 Y1.6836
X1.1434 Y1.689
X1.1389 Y1.6928
X1.1337 Y1.6955
X1.128 Y1.6972
X1.1222 Y1.6981
X1.1163 Y1.6984
X1.1104 Y1.6979
X1.1046 Y1.6969
X1.099 Y1.695
X1.0936 Y1.6925
X1.089 Y1.6889
X1.0883 Y1.688
X1.0869 Y1.6853
X1.0868 Y1.6823
X1.0879 Y1.6795
X1.0903 Y1.6759
X1.0931 Y1.6712
X1.094 Y1.6702
X1.0952 Y1.6697
X1.0965
X1.1186 Y1.6743
X1.1436 Y1.6795
X1.1449 Y1.6801
X1.1457 Y1.6811
X1.1461 Y1.6823
X1.1459 Y1.6836
X1.1456 Y1.6844
X1.1436 Y1.6887
X1.1416 Y1.6924
X1.1387 Y1.6973
X1.1354 Y1.7022
X1.1306 Y1.7056
X1.125 Y1.7077
X1.1192 Y1.7088
X1.1133 Y1.7091
X1.1074 Y1.7087
X1.1016 Y1.7076
X1.096 Y1.7059
X1.0906 Y1.7034
X1.0857 Y1.7002
X1.0815 Y1.696
X1.0811 Y1.6954
X1.0802 Y1.6926
X1.0805 Y1.6897
X1.0819 Y1.6871
X1.0841 Y1.6844
X1.0875 Y1.6802
X1.0879 Y1.6795
X1.0889 Y1.6786
X1.0901 Y1.6782
X1.0914 Y1.6784
X1.1127 Y1.6851
X1.1369 Y1.6928
X1.1381 Y1.6935
X1.1388 Y1.6947
X1.1391 Y1.696
X1.1387 Y1.6973
X1.1335 Y1.7059
X1.1303 Y1.7102
X1.1263 Y1.7145
X1.1211 Y1.7174
X1.1154 Y1.7189
X1.1095 Y1.7193
X1.1036 Y1.719
X1.0978 Y1.718
X1.0922 Y1.7163
X1.0867 Y1.7139
X1.0817 Y1.7109
X1.0771 Y1.7071
X1.0735 Y1.7025
X1.0731 Y1.7016
X1.0726 Y1.6988
X1.0733 Y1.6959
X1.075 Y1.6935
X1.0816 Y1.6875
X1.0819 Y1.6871
X1.0829 Y1.6864
X1.0842 Y1.6861
X1.0855 Y1.6864
X1.1057 Y1.6953
X1.129 Y1.7056
X1.1301 Y1.7064
X1.1308 Y1.7076
Y1.7089
X1.1303 Y1.7102
X1.123 Y1.7188
X1.1202 Y1.7217
X1.1157 Y1.7256
X1.1103 Y1.728
X1.1045 Y1.7289
X1.0986 Y1.7288
X1.0928 Y1.7278
X1.0871 Y1.7261
X1.0817 Y1.7238
X1.0765 Y1.7208
X1.0719 Y1.7172
X1.0678 Y1.7129
X1.0658 Y1.7096
X1.0647 Y1.7061
X1.0655 Y1.7026
X1.0678 Y1.6999
X1.0687 Y1.6992
X1.075 Y1.6935
X1.0761 Y1.6929
X1.0774 Y1.6928
X1.0786 Y1.6932
X1.0975 Y1.7042
X1.1194 Y1.717
X1.1204 Y1.7179
X1.1209 Y1.7192
Y1.7205
X1.1202 Y1.7217
X1.1159 Y1.7258
X1.1073 Y1.7329
X1.1026 Y1.7363
X1.0968 Y1.7376
X1.0909
X1.0851 Y1.7366
X1.0795 Y1.7348
X1.0741 Y1.7322
X1.0691 Y1.7291
X1.0645 Y1.7255
X1.0604 Y1.7211
X1.0573 Y1.7162
X1.0564 Y1.7136
X1.0561 Y1.7104
X1.0573 Y1.7074
X1.0596 Y1.7051
X1.0654 Y1.7016
X1.0678 Y1.6999
X1.069 Y1.6994
X1.0703 Y1.6995
X1.0715 Y1.7001
X1.0872 Y1.7124
X1.1072 Y1.7281
X1.1081 Y1.7291
X1.1084 Y1.7305
X1.1081 Y1.7318
X1.1073 Y1.7329
X1.103 Y1.7363
X1.0988 Y1.7392
X1.0945 Y1.7419
X1.0892 Y1.7446
X1.0834 Y1.7453
X1.0775 Y1.7446
X1.0719 Y1.7428
X1.0665 Y1.7403
X1.0615 Y1.7372
X1.0569 Y1.7335
X1.0528 Y1.7292
X1.0495 Y1.7244
X1.0472 Y1.7189
X1.0469 Y1.7172
X1.0471 Y1.7141
X1.0487 Y1.7113
X1.0513 Y1.7094
X1.0559 Y1.7073
X1.0596 Y1.7051
X1.0609 Y1.7047
X1.0622 Y1.7049
X1.0633 Y1.7056
X1.0769 Y1.7192
X1.0949 Y1.7371
X1.0957 Y1.7382
X1.0958 Y1.7396
X1.0954 Y1.7409
X1.0945 Y1.7419
X1.09 Y1.7445
X1.0859 Y1.7468
X1.0816 Y1.7489
X1.0803 Y1.7495
X1.0748 Y1.7516
X1.0689 Y1.7514
X1.0632 Y1.7499
X1.0578 Y1.7475
X1.0529 Y1.7443
X1.0483 Y1.7405
X1.0443 Y1.7362
X1.0409 Y1.7313
X1.0383 Y1.726
X1.0369 Y1.7203
Y1.72
X1.0376 Y1.7173
X1.0392 Y1.715
X1.0415 Y1.7135
X1.043 Y1.7129
X1.0513 Y1.7094
X1.0526 Y1.7092
X1.0538 Y1.7096
X1.0548 Y1.7104
X1.0658 Y1.7247
X1.0814 Y1.7448
X1.082 Y1.746
Y1.7474
X1.0814 Y1.7486
X1.0803 Y1.7495
X1.0773 Y1.7508
X1.0722 Y1.7531
X1.0664 Y1.7552
X1.0607 Y1.7568
X1.0549 Y1.756
X1.0494 Y1.7539
X1.0443 Y1.7509
X1.0397 Y1.7471
X1.0356 Y1.7429
X1.0321 Y1.7381
X1.0294 Y1.7329
X1.0274 Y1.7273
X1.0271 Y1.7241
X1.0275 Y1.7206
X1.0295 Y1.7178
X1.0326 Y1.7162
X1.0344 Y1.7158
X1.0387 Y1.7146
X1.0415 Y1.7135
X1.0429 Y1.7133
X1.0442 Y1.7138
X1.0452 Y1.7148
X1.0543 Y1.7291
X1.0679 Y1.7506
X1.0683 Y1.7519
X1.0682 Y1.7532
X1.0675 Y1.7544
X1.0664 Y1.7552
X1.0601 Y1.7574
X1.0559 Y1.7587
X1.0535 Y1.7593
X1.0477 Y1.7606
X1.0419 Y1.7596
X1.0365 Y1.7571
X1.0317 Y1.7537
X1.0274 Y1.7497
X1.0237 Y1.7451
X1.0206 Y1.74
X1.0183 Y1.7346
X1.017 Y1.7289
X1.0169 Y1.7257
X1.0176 Y1.7224
X1.0197 Y1.7198
X1.0228 Y1.7184
X1.0259 Y1.7178
X1.0315 Y1.7165
X1.0326 Y1.7162
X1.034 Y1.7163
X1.0352 Y1.7168
X1.036 Y1.7179
X1.0436 Y1.7324
X1.0554 Y1.7549
X1.0557 Y1.7562
X1.0555 Y1.7576
X1.0547 Y1.7587
X1.0535 Y1.7593
X1.043 Y1.7621
X1.0387 Y1.7629
X1.0329 Y1.7637
X1.0273 Y1.7618
X1.0223 Y1.7587
X1.0179 Y1.7547
X1.0141 Y1.7502
X1.011 Y1.7452
X1.0085 Y1.7398
X1.0069 Y1.7341
X1.0064 Y1.7283
X1.0067 Y1.7262
X1.0078 Y1.7233
X1.01 Y1.7212
X1.013 Y1.7203
X1.0228 Y1.7184
X1.0238
X1.0248 Y1.7188
X1.0257 Y1.7195
X1.0262 Y1.7204
X1.0318 Y1.7349
X1.0409 Y1.7588
X1.0411 Y1.7601
X1.0408 Y1.7614
X1.0399 Y1.7624
X1.0387 Y1.7629
X1.0302 Y1.7646
X1.0259 Y1.7652
X1.02 Y1.7655
X1.0144 Y1.7634
X1.0096 Y1.76
X1.0055 Y1.7558
X1.002 Y1.7511
X0.9992 Y1.7458
X0.9972 Y1.7403
X0.996 Y1.7345
X0.9959 Y1.7286
X0.9963 Y1.7267
X0.9976 Y1.7239
X0.9999 Y1.7219
X1.0029 Y1.721
X1.013 Y1.7203
X1.0143 Y1.7206
X1.0154 Y1.7213
X1.0161 Y1.7225
X1.0206 Y1.7367
X1.0283 Y1.7612
X1.0284 Y1.7625
X1.028 Y1.7637
X1.0271 Y1.7647
X1.0259 Y1.7652
X1.0173 Y1.7661
X1.013 Y1.7665
X1.0071
X1.0016 Y1.7643
X0.997 Y1.7606
X0.9931 Y1.7562
X0.9899 Y1.7512
X0.9875 Y1.7458
X0.9859 Y1.7401
X0.985 Y1.7343
X0.9853 Y1.7284
X0.9858 Y1.7267
X0.9872 Y1.7241
X0.9896 Y1.7222
X0.9926 Y1.7215
X1.0001 Y1.7212
X1.0029 Y1.721
X1.004 Y1.7211
X1.0049 Y1.7216
X1.0056 Y1.7224
X1.006 Y1.7234
X1.0095 Y1.7377
X1.0156 Y1.7627
X1.0157 Y1.764
X1.0152 Y1.7652
X1.0142 Y1.7661
X1.013 Y1.7665
X1.0001 Y1.7672
X0.9942 Y1.767
X0.9889 Y1.7645
X0.9845 Y1.7606
X0.9808 Y1.7559
X0.978 Y1.7507
X0.976 Y1.7452
X0.9747 Y1.7394
X0.9742 Y1.7336
X0.9748 Y1.7277
X0.9752 Y1.7266
X0.9768 Y1.724
X0.9792 Y1.7223
X0.9821 Y1.7217
X0.9873
X0.9926 Y1.7215
X0.9936 Y1.7217
X0.9946 Y1.7222
X0.9953 Y1.723
X0.9956 Y1.724
X0.9983 Y1.7382
X1.0029 Y1.7635
Y1.7648
X1.0023 Y1.766
X1.0014 Y1.7668
X1.0001 Y1.7672
X0.9873 Y1.7675
X0.9814 Y1.7672
X0.9762 Y1.7643
X0.9721 Y1.7601
X0.9687 Y1.7552
X0.9662 Y1.7499
X0.9645 Y1.7442
X0.9635 Y1.7384
X0.9633 Y1.7325
X0.9643 Y1.7267
X0.9646 Y1.7261
X0.9662 Y1.7238
X0.9685 Y1.7223
X0.9713 Y1.7217
X0.9821
X0.9832 Y1.722
X0.9841 Y1.7225
X0.9847 Y1.7234
X0.9851 Y1.7245
X0.9869 Y1.7384
X0.9902 Y1.7639
X0.9901 Y1.7652
X0.9895 Y1.7663
X0.9885 Y1.7671
X0.9873 Y1.7675
X0.983
X0.9744
X0.9715 Y1.7674
X0.966 Y1.7651
X0.9616 Y1.7612
X0.9581 Y1.7564
X0.9555 Y1.7511
X0.9537 Y1.7455
X0.9526 Y1.7397
X0.9524 Y1.7338
X0.9531 Y1.7279
X0.9536 Y1.7265
X0.9552 Y1.724
X0.9576 Y1.7223
X0.9604 Y1.7217
X0.9713
X0.9724 Y1.722
X0.9733 Y1.7226
X0.974 Y1.7235
X0.9743 Y1.7246
X0.9753 Y1.7383
X0.9774 Y1.7641
X0.9773 Y1.7654
X0.9766 Y1.7665
X0.9756 Y1.7672
X0.9744 Y1.7675
X0.9629
X0.9599 Y1.7674
X0.9545 Y1.765
X0.9501 Y1.7611
X0.9468 Y1.7562
X0.9443 Y1.7508
X0.9426 Y1.7452
X0.9416 Y1.7394
X0.9414 Y1.7335
X0.9423 Y1.7276
X0.9428 Y1.7264
X0.9443 Y1.7239
X0.9467 Y1.7223
X0.9496 Y1.7217
X0.9604
X0.9615 Y1.722
X0.9625 Y1.7226
X0.9632 Y1.7236
X0.9634 Y1.7247
X0.9643 Y1.7383
X0.9659 Y1.7642
X0.9657 Y1.7654
X0.9651 Y1.7665
X0.9641 Y1.7672
X0.9629 Y1.7675
X0.953
X0.9471 Y1.7672
X0.942 Y1.7642
X0.938 Y1.7599
X0.9349 Y1.7548
X0.9327 Y1.7494
X0.9312 Y1.7436
X0.9305 Y1.7378
X0.9306 Y1.7319
X0.9318 Y1.7261
X0.9319 Y1.7258
X0.9335 Y1.7237
X0.9358 Y1.7222
X0.9385 Y1.7217
X0.9496
X0.9507 Y1.722
X0.9516 Y1.7226
X0.9523 Y1.7235
X0.9526 Y1.7246
X0.9537 Y1.7383
X0.956 Y1.7641
X0.9558 Y1.7654
X0.9552 Y1.7664
X0.9542 Y1.7672
X0.953 Y1.7675
X0.9401
X0.9372 Y1.7674
X0.9318 Y1.7648
X0.9276 Y1.7607
X0.9244 Y1.7558
X0.922 Y1.7503
X0.9204 Y1.7447
X0.9196 Y1.7388
Y1.7329
X0.9205 Y1.7271
X0.9208 Y1.7262
X0.9224 Y1.7239
X0.9248 Y1.7223
X0.9276 Y1.7217
X0.9385
X0.9396 Y1.722
X0.9406 Y1.7226
X0.9412 Y1.7236
X0.9415 Y1.7247
X0.942 Y1.7383
X0.9431 Y1.7643
X0.9429 Y1.7655
X0.9423 Y1.7665
X0.9413 Y1.7672
X0.9401 Y1.7675
X0.9302
X0.9273 Y1.7674
X0.9217 Y1.7654
X0.9173 Y1.7615
X0.9139 Y1.7566
X0.9114 Y1.7513
X0.9097 Y1.7456
X0.9087 Y1.7398
X0.9085 Y1.7339
X0.9093 Y1.728
X0.9098 Y1.7265
X0.9114 Y1.724
X0.9138 Y1.7223
X0.9167 Y1.7217
X0.9276
X0.9287 Y1.722
X0.9296 Y1.7226
X0.9303 Y1.7235
X0.9306 Y1.7246
X0.9315 Y1.7383
X0.9332 Y1.7642
X0.9331 Y1.7654
X0.9324 Y1.7665
X0.9314 Y1.7672
X0.9302 Y1.7675
X0.9187
X0.9157 Y1.7674
X0.9102 Y1.7651
X0.9059 Y1.7611
X0.9026 Y1.7562
X0.9002 Y1.7508
X0.8986 Y1.7452
X0.8977 Y1.7393
X0.8975 Y1.7334
X0.8985 Y1.7276
X0.8989 Y1.7263
X0.9005 Y1.7239
X0.9029 Y1.7223
X0.9057 Y1.7217
X0.9167
X0.9178 Y1.722
X0.9187 Y1.7226
X0.9194 Y1.7236
X0.9197 Y1.7247
X0.9204 Y1.7383
X0.9217 Y1.7642
X0.9215 Y1.7654
X0.9208 Y1.7665
X0.9199 Y1.7672
X0.9187 Y1.7675
X0.9088
X0.9029 Y1.7672
X0.8978 Y1.7642
X0.8938 Y1.7599
X0.8908 Y1.7548
X0.8886 Y1.7493
X0.8872 Y1.7436
X0.8866 Y1.7377
X0.8867 Y1.7318
X0.888 Y1.726
X0.8881 Y1.7258
X0.8897 Y1.7237
X0.892 Y1.7222
X0.8946 Y1.7217
X0.9057
X0.9068 Y1.722
X0.9078 Y1.7226
X0.9084 Y1.7235
X0.9087 Y1.7246
X0.9098 Y1.7383
X0.9118 Y1.7641
X0.9116 Y1.7654
X0.911 Y1.7665
X0.91 Y1.7672
X0.9088 Y1.7675
X0.8972
X0.8913 Y1.7672
X0.8863 Y1.764
X0.8825 Y1.7596
X0.8795 Y1.7544
X0.8775 Y1.7489
X0.8762 Y1.7432
X0.8756 Y1.7373
X0.8757 Y1.7314
X0.8766 Y1.7274
X0.8781 Y1.7245
X0.8806 Y1.7225
X0.8837 Y1.7217
X0.8946
X0.8957 Y1.722
X0.8967 Y1.7226
X0.8973 Y1.7235
X0.8976 Y1.7246
X0.8985 Y1.7383
X0.9002 Y1.7642
X0.9001 Y1.7654
X0.8994 Y1.7665
X0.8984 Y1.7672
X0.8972 Y1.7675
X0.8863
X0.8804 Y1.7672
X0.8754 Y1.7641
X0.8715 Y1.7596
X0.8686 Y1.7545
X0.8665 Y1.749
X0.8652 Y1.7432
X0.8645 Y1.7373
X0.8648 Y1.7314
X0.8661 Y1.7257
X0.8677 Y1.7236
X0.8699 Y1.7222
X0.8725 Y1.7217
X0.8837
X0.8849 Y1.722
X0.8858 Y1.7226
X0.8865 Y1.7235
X0.8868 Y1.7247
X0.8876 Y1.7383
X0.8893 Y1.7642
X0.8891 Y1.7654
X0.8885 Y1.7665
X0.8875 Y1.7672
X0.8863 Y1.7675
X0.8745
X0.8715 Y1.7674
X0.8661 Y1.7651
X0.8618 Y1.761
X0.8585 Y1.7561
X0.8561 Y1.7507
X0.8545 Y1.745
X0.8537 Y1.7392
X0.8536 Y1.7333
X0.8545 Y1.7274
X0.8549 Y1.7263
X0.8564 Y1.7239
X0.8588 Y1.7223
X0.8617 Y1.7217
X0.8725
X0.8737 Y1.722
X0.8746 Y1.7226
X0.8753 Y1.7236
X0.8755 Y1.7247
X0.8762 Y1.7383
X0.8775 Y1.7642
X0.8773 Y1.7654
X0.8767 Y1.7665
X0.8757 Y1.7672
X0.8745 Y1.7675
X0.8629
X0.86 Y1.7674
X0.8546 Y1.7648
X0.8504 Y1.7607
X0.8473 Y1.7557
X0.845 Y1.7502
X0.8435 Y1.7445
X0.8427 Y1.7387
X0.8426 Y1.7328
X0.8437 Y1.727
X0.844 Y1.7262
X0.8456 Y1.7238
X0.8479 Y1.7223
X0.8507 Y1.7217
X0.8617
X0.8628 Y1.722
X0.8638 Y1.7227
X0.8644 Y1.7236
X0.8647 Y1.7248
X0.8651 Y1.7383
X0.8659 Y1.7643
X0.8657 Y1.7655
X0.8651 Y1.7665
X0.8641 Y1.7672
X0.8629 Y1.7675
X0.853
X0.8501 Y1.7674
X0.8446 Y1.7653
X0.8401 Y1.7614
X0.8368 Y1.7565
X0.8344 Y1.7511
X0.8327 Y1.7455
X0.8317 Y1.7396
X0.8316 Y1.7337
X0.8324 Y1.7279
X0.833 Y1.7264
X0.8346 Y1.7239
X0.837 Y1.7222
X0.84 Y1.7217
X0.8415
X0.8507
X0.8518 Y1.722
X0.8528 Y1.7226
X0.8534 Y1.7236
X0.8537 Y1.7247
X0.8545 Y1.7383
X0.856 Y1.7642
X0.8559 Y1.7654
X0.8552 Y1.7665
X0.8542 Y1.7672
X0.853 Y1.7675
X0.8415
X0.8385 Y1.7674
X0.8331 Y1.765
X0.8288 Y1.761
X0.8255 Y1.7561
X0.8232 Y1.7507
X0.8216 Y1.745
X0.8207 Y1.7391
X0.8206 Y1.7332
X0.8216 Y1.7274
X0.8225 Y1.7253
X0.8244 Y1.7225
X0.8274 Y1.7209
X0.8308 Y1.7208
X0.8329 Y1.7212
X0.8372 Y1.7216
X0.84 Y1.7217
X0.8411 Y1.722
X0.842 Y1.7226
X0.8427 Y1.7236
X0.8429 Y1.7247
X0.8434 Y1.7383
X0.8445 Y1.7643
X0.8443 Y1.7655
X0.8437 Y1.7665
X0.8427 Y1.7672
X0.8415 Y1.7675
X0.8316
X0.8257 Y1.7672
X0.8207 Y1.7641
X0.8167 Y1.7597
X0.8137 Y1.7546
X0.8116 Y1.7491
X0.8103 Y1.7434
X0.8097 Y1.7375
X0.8098 Y1.7316
X0.811 Y1.7258
X0.8134 Y1.7204
X0.8141 Y1.7196
X0.8167 Y1.7177
X0.8199 Y1.7171
X0.8231 Y1.7179
X0.8243 Y1.7186
X0.8286 Y1.7202
X0.8308 Y1.7208
X0.8319 Y1.7214
X0.8327 Y1.7224
X0.833 Y1.7237
X0.8336 Y1.7383
X0.8346 Y1.7643
X0.8344 Y1.7655
X0.8338 Y1.7665
X0.8328 Y1.7672
X0.8316 Y1.7675
X0.82
X0.8171 Y1.7674
X0.8116 Y1.7653
X0.8072 Y1.7613
X0.8038 Y1.7565
X0.8014 Y1.7511
X0.7997 Y1.7454
X0.7988 Y1.7396
X0.7987 Y1.7337
X0.7993 Y1.7278
X0.8008 Y1.7221
X0.8034 Y1.7168
X0.8056 Y1.7142
X0.8087 Y1.7121
X0.8123 Y1.7117
X0.8157 Y1.7132
X0.8174 Y1.7145
X0.82 Y1.7163
X0.8231 Y1.7179
X0.8239 Y1.7187
X0.8245 Y1.7196
X0.8246 Y1.7207
X0.824 Y1.7383
X0.823 Y1.7645
X0.8228 Y1.7656
X0.8221 Y1.7666
X0.8212 Y1.7672
X0.82 Y1.7675
X0.8085
X0.8056 Y1.7674
X0.8001 Y1.765
X0.7958 Y1.761
X0.7926 Y1.7561
X0.7902 Y1.7507
X0.7886 Y1.745
X0.7878 Y1.7391
X0.7876 Y1.7332
X0.7881 Y1.7273
X0.7895 Y1.7216
X0.7916 Y1.7161
X0.7946 Y1.711
X0.7986 Y1.7067
X0.8009 Y1.7054
X0.8042 Y1.7044
X0.8077 Y1.7051
X0.8104 Y1.7073
X0.8115 Y1.7088
X0.8126 Y1.7102
X0.8142 Y1.7117
X0.8157 Y1.7132
X0.8165 Y1.7143
X0.8166 Y1.7157
X0.8143 Y1.7384
X0.8115 Y1.7647
X0.8112 Y1.7658
X0.8105 Y1.7667
X0.8096 Y1.7673
X0.8085 Y1.7675
X0.7986
X0.7927 Y1.7672
X0.7877 Y1.7641
X0.7837 Y1.7597
X0.7807 Y1.7546
X0.7786 Y1.7491
X0.7773 Y1.7433
X0.7766 Y1.7375
X0.7765 Y1.7316
X0.7771 Y1.7257
X0.7783 Y1.7199
X0.7802 Y1.7143
X0.7829 Y1.7091
X0.7861 Y1.7041
X0.7903 Y1.6999
X0.7953 Y1.6967
X0.7976 Y1.6961
X0.8012 Y1.6959
X0.8043 Y1.6975
X0.8064 Y1.7004
X0.8072 Y1.7022
X0.8082 Y1.704
X0.8093 Y1.7059
X0.8104 Y1.7073
X0.8109 Y1.7084
Y1.7096
X0.8062 Y1.7377
X0.806 Y1.7386
X0.8016 Y1.7649
X0.8012 Y1.7659
X0.8005 Y1.7667
X0.7996 Y1.7673
X0.7986 Y1.7675
X0.7877
X0.7818 Y1.7672
X0.7767 Y1.7642
X0.7727 Y1.7598
X0.7698 Y1.7547
X0.7676 Y1.7492
X0.7662 Y1.7434
X0.7654 Y1.7376
X0.7653 Y1.7317
X0.7656 Y1.7258
X0.7666 Y1.72
X0.7682 Y1.7143
X0.7704 Y1.7088
X0.7731 Y1.7035
X0.7764 Y1.6986
X0.7803 Y1.6943
X0.7849 Y1.6905
X0.7901 Y1.6877
X0.7957 Y1.6861
X0.797
X0.8002 Y1.687
X0.8028 Y1.6892
X0.804 Y1.6923
X0.8041 Y1.693
X0.8052 Y1.6973
X0.8064 Y1.7004
X0.8066 Y1.7013
X0.8065 Y1.7022
X0.7994 Y1.7304
X0.7972 Y1.7391
X0.7906 Y1.7651
X0.79 Y1.7663
X0.7889 Y1.7672
X0.7877 Y1.7675
X0.7759
X0.7729 Y1.7674
X0.7674 Y1.7652
X0.763 Y1.7612
X0.7597 Y1.7563
X0.7573 Y1.751
X0.7555 Y1.7453
X0.7545 Y1.7395
X0.7544 Y1.7382
X0.7547 Y1.7369
X0.7555 Y1.7359
X0.7566 Y1.7353
X0.7579 Y1.7352
X0.7591 Y1.7356
X0.76 Y1.7365
X0.7644 Y1.7427
X0.7783 Y1.7626
X0.7788 Y1.7638
Y1.7651
X0.7782 Y1.7663
X0.7771 Y1.7672
X0.7759 Y1.7675
X0.7643
X0.763
X0.7613
X0.7602 Y1.7674
X0.758 Y1.7662
X0.7561 Y1.7646
X0.7548 Y1.7624
X0.7544 Y1.7599
X0.7547 Y1.7587
X0.7554 Y1.7577
X0.7565 Y1.757
X0.7577 Y1.7569
X0.7589 Y1.7572
X0.7599 Y1.758
X0.7636 Y1.7624
X0.7643 Y1.7636
Y1.765
X0.7637 Y1.7662
X0.7627 Y1.7671
X0.7613 Y1.7675
X0.7579
X0.7573 Y1.7674
X0.7568 Y1.7673
X0.7562 Y1.767
X0.7557 Y1.7666
X0.7551 Y1.766
X0.7547 Y1.7654
X0.7545 Y1.7649
X0.7544 Y1.7643
Y1.7617
Y1.7316
X0.7547 Y1.7243
X0.7555 Y1.7185
X0.7568 Y1.7127
X0.7587 Y1.7071
X0.7611 Y1.7017
X0.764 Y1.6966
X0.7674 Y1.6918
X0.7713 Y1.6873
X0.7758 Y1.6834
X0.7807 Y1.6802
X0.786 Y1.6776
X0.7917 Y1.6762
X0.7976 Y1.6761
X0.7984 Y1.6763
X0.801 Y1.6778
X0.8029 Y1.6803
X0.8035 Y1.6832
X0.8036 Y1.6887
X0.8038 Y1.6909
X0.804 Y1.6923
X0.8039 Y1.6933
X0.8036 Y1.6942
X0.803 Y1.695
X0.7821 Y1.7136
X0.7773 Y1.7179
X0.7596 Y1.7339
X0.7586 Y1.7345
X0.7574 Y1.7346
X0.7563 Y1.7344
X0.7553 Y1.7337
X0.7546 Y1.7328
X0.7544 Y1.7316
Y1.7016
X0.7547 Y1.6957
X0.7566 Y1.6901
X0.7595 Y1.685
X0.7631 Y1.6803
X0.7673 Y1.6762
X0.772 Y1.6726
X0.7771 Y1.6696
X0.7825 Y1.6672
X0.7883 Y1.6658
X0.7942 Y1.6654
X0.7974 Y1.6659
X0.8005 Y1.6672
X0.8027 Y1.6698
X0.8035 Y1.6731
Y1.6832
X0.8033 Y1.6844
X0.8026 Y1.6854
X0.8016 Y1.686
X0.7816 Y1.6946
X0.7587 Y1.7044
X0.7575 Y1.7046
X0.7564 Y1.7044
X0.7553 Y1.7038
X0.7546 Y1.7028
X0.7544 Y1.7016
Y1.6844
X0.7547 Y1.6785
X0.7572 Y1.6732
X0.7608 Y1.6685
X0.7651 Y1.6645
X0.7699 Y1.6611
X0.7752 Y1.6584
X0.7807 Y1.6563
X0.7865 Y1.655
X0.7923 Y1.6546
X0.7982 Y1.6554
X0.799 Y1.6557
X0.8013 Y1.6573
X0.8029 Y1.6596
X0.8035 Y1.6624
Y1.6731
X0.8031 Y1.6744
X0.8023 Y1.6754
X0.8011 Y1.676
X0.7828 Y1.6809
X0.7583 Y1.6874
X0.7569
X0.7556 Y1.6868
X0.7547 Y1.6858
X0.7544 Y1.6844
Y1.6703
X0.7547 Y1.6644
X0.7575 Y1.6592
X0.7615 Y1.6548
X0.7662 Y1.6512
X0.7713 Y1.6483
X0.7767 Y1.646
X0.7825 Y1.6445
X0.7883 Y1.6438
X0.7942
X0.7978 Y1.6446
X0.8007 Y1.646
X0.8027 Y1.6486
X0.8035 Y1.6517
Y1.6624
X0.8032 Y1.6634
X0.8027 Y1.6643
X0.8019 Y1.665
X0.8009 Y1.6654
X0.7832 Y1.6686
X0.7581 Y1.6732
X0.7567
X0.7555 Y1.6726
X0.7547 Y1.6716
X0.7544 Y1.6703
Y1.6574
X0.7547 Y1.6515
X0.7577 Y1.6465
X0.7619 Y1.6423
X0.7668 Y1.6389
X0.772 Y1.6363
X0.7776 Y1.6344
X0.7834 Y1.6332
X0.7893 Y1.6327
X0.7952 Y1.6331
X0.7981 Y1.6339
X0.8009 Y1.6353
X0.8028 Y1.6378
X0.8035 Y1.6409
Y1.6517
X0.8032 Y1.6528
X0.8026 Y1.6537
X0.8018 Y1.6544
X0.8007 Y1.6547
X0.7834 Y1.657
X0.7579 Y1.6604
X0.7566 Y1.6603
X0.7555 Y1.6597
X0.7547 Y1.6587
X0.7544 Y1.6574
Y1.6458
X0.7547 Y1.6399
X0.7576 Y1.6348
X0.7618 Y1.6306
X0.7667 Y1.6273
X0.772 Y1.6249
X0.7777 Y1.6231
X0.7835 Y1.622
X0.7894 Y1.6216
X0.7952 Y1.6221
X0.7982 Y1.6229
X0.8009 Y1.6244
X0.8028 Y1.6269
X0.8035 Y1.6299
Y1.6409
X0.8032 Y1.642
X0.8026 Y1.6429
X0.8018 Y1.6436
X0.8007 Y1.6439
X0.7835 Y1.6459
X0.7578 Y1.6488
X0.7566 Y1.6487
X0.7555 Y1.6481
X0.7547 Y1.6471
X0.7544 Y1.6458
Y1.633
X0.7545 Y1.63
X0.7568 Y1.6246
X0.7607 Y1.6202
X0.7655 Y1.6167
X0.7708 Y1.6141
X0.7764 Y1.6122
X0.7822 Y1.611
X0.7881 Y1.6105
X0.794 Y1.6109
X0.7979 Y1.6118
X0.8008 Y1.6132
X0.8028 Y1.6158
X0.8035 Y1.6189
Y1.6299
X0.8032 Y1.6311
X0.8026 Y1.632
X0.8017 Y1.6327
X0.8006 Y1.633
X0.7836 Y1.6341
X0.7577 Y1.636
X0.7565 Y1.6358
X0.7554 Y1.6352
X0.7547 Y1.6342
X0.7544 Y1.633
Y1.6214
X0.7545 Y1.6185
X0.7569 Y1.6131
X0.7609 Y1.6087
X0.7657 Y1.6053
X0.771 Y1.6028
X0.7767 Y1.601
X0.7825 Y1.5999
X0.7883 Y1.5995
X0.7942 Y1.5999
X0.7979 Y1.6008
X0.8008 Y1.6022
X0.8028 Y1.6047
X0.8035 Y1.6079
Y1.6189
X0.8032 Y1.62
X0.8026 Y1.621
X0.8016 Y1.6216
X0.8005 Y1.6219
X0.7836 Y1.6229
X0.7577 Y1.6244
X0.7565 Y1.6243
X0.7554 Y1.6236
X0.7547 Y1.6226
X0.7544 Y1.6214
Y1.6115
X0.7547 Y1.6056
X0.7577 Y1.6005
X0.762 Y1.5965
X0.767 Y1.5934
X0.7724 Y1.5911
X0.7781 Y1.5895
X0.784 Y1.5886
X0.7899 Y1.5884
X0.7957 Y1.5891
X0.7983 Y1.5899
X0.801 Y1.5914
X0.8028 Y1.5939
X0.8035 Y1.5969
Y1.6079
X0.8032 Y1.609
X0.8026 Y1.6099
X0.8017 Y1.6106
X0.8006 Y1.6109
X0.7835 Y1.6123
X0.7578 Y1.6145
X0.7565 Y1.6144
X0.7554 Y1.6137
X0.7547 Y1.6127
X0.7544 Y1.6115
Y1.5986
X0.7545 Y1.5957
X0.757 Y1.5903
X0.7611 Y1.5861
X0.766 Y1.5828
X0.7714 Y1.5803
X0.777 Y1.5786
X0.7829 Y1.5776
X0.7887 Y1.5773
X0.7946 Y1.5778
X0.7981 Y1.5787
X0.8009 Y1.5802
X0.8028 Y1.5827
X0.8035 Y1.5858
Y1.5969
X0.8032 Y1.598
X0.8026 Y1.599
X0.8016 Y1.5996
X0.8005 Y1.5999
X0.7836 Y1.6006
X0.7576 Y1.6016
X0.7564 Y1.6015
X0.7554 Y1.6008
X0.7547 Y1.5998
X0.7544 Y1.5986
Y1.5888
X0.7547 Y1.5829
X0.7578 Y1.5779
X0.7622 Y1.5739
X0.7673 Y1.5709
X0.7728 Y1.5687
X0.7785 Y1.5672
X0.7843 Y1.5664
X0.7902 Y1.5663
X0.7961 Y1.567
X0.7985 Y1.5678
X0.8011 Y1.5693
X0.8028 Y1.5718
X0.8035 Y1.5747
Y1.5858
X0.8032 Y1.5869
X0.8026 Y1.5878
X0.8017 Y1.5885
X0.8006 Y1.5888
X0.7836 Y1.59
X0.7577 Y1.5918
X0.7565 Y1.5916
X0.7554 Y1.591
X0.7547 Y1.59
X0.7544 Y1.5888
Y1.5772
X0.7545 Y1.5742
X0.7566 Y1.5687
X0.7605 Y1.5643
X0.7654 Y1.5609
X0.7707 Y1.5584
X0.7763 Y1.5566
X0.7821 Y1.5555
X0.788 Y1.5551
X0.7939 Y1.5555
X0.7979 Y1.5565
X0.8008 Y1.558
X0.8028 Y1.5605
X0.8035 Y1.5636
Y1.5747
X0.8032 Y1.5758
X0.8026 Y1.5768
X0.8016 Y1.5775
X0.8005 Y1.5777
X0.7836 Y1.5787
X0.7577 Y1.5802
X0.7564 Y1.58
X0.7554 Y1.5794
X0.7547 Y1.5784
X0.7544 Y1.5772
Y1.5657
X0.7545 Y1.5627
X0.7568 Y1.5573
X0.7608 Y1.5529
X0.7657 Y1.5496
X0.771 Y1.5471
X0.7767 Y1.5454
X0.7825 Y1.5444
X0.7884 Y1.544
X0.7943 Y1.5445
X0.798 Y1.5454
X0.8008 Y1.5469
X0.8028 Y1.5494
X0.8035 Y1.5525
Y1.5636
X0.8032 Y1.5647
X0.8026 Y1.5657
X0.8016 Y1.5663
X0.8005 Y1.5666
X0.7836 Y1.5674
X0.7576 Y1.5687
X0.7564 Y1.5685
X0.7554 Y1.5679
X0.7547 Y1.5669
X0.7544 Y1.5657
Y1.5557
X0.7547 Y1.5498
X0.7577 Y1.5448
X0.762 Y1.5408
X0.7671 Y1.5377
X0.7725 Y1.5354
X0.7782 Y1.5339
X0.7841 Y1.5331
X0.79 Y1.533
X0.7958 Y1.5337
X0.7984 Y1.5345
X0.8011 Y1.5361
X0.8029 Y1.5385
X0.8035 Y1.5415
Y1.5525
X0.8032 Y1.5536
X0.8026 Y1.5545
X0.8017 Y1.5552
X0.8006 Y1.5555
X0.7835 Y1.5568
X0.7577 Y1.5587
X0.7565 Y1.5586
X0.7554 Y1.558
X0.7547 Y1.557
X0.7544 Y1.5557
Y1.5429
X0.7545 Y1.5399
X0.7571 Y1.5346
X0.7612 Y1.5304
X0.7661 Y1.5271
X0.7715 Y1.5247
X0.7772 Y1.5231
X0.783 Y1.5221
X0.7889 Y1.5218
X0.7948 Y1.5224
X0.8005 Y1.524
X0.8009 Y1.5242
X0.8031 Y1.5263
X0.8043 Y1.529
X0.8044 Y1.532
X0.8039 Y1.5343
X0.8035 Y1.5386
Y1.5415
X0.8032 Y1.5427
X0.8025 Y1.5436
X0.8016 Y1.5443
X0.8005 Y1.5445
X0.7836 Y1.5451
X0.7576 Y1.5459
X0.7564 Y1.5457
X0.7554 Y1.545
X0.7547 Y1.5441
X0.7544 Y1.5429
Y1.533
X0.7545 Y1.53
X0.7565 Y1.5245
X0.7604 Y1.52
X0.7652 Y1.5166
X0.7705 Y1.5141
X0.7762 Y1.5123
X0.782 Y1.5112
X0.7879 Y1.5107
X0.7937 Y1.5111
X0.7995 Y1.5123
X0.8036 Y1.5141
X0.8065 Y1.5165
X0.8078 Y1.5201
X0.8072 Y1.5238
X0.8063 Y1.5257
X0.8055 Y1.5279
X0.8048 Y1.53
X0.8044 Y1.532
X0.8038 Y1.5332
X0.8027 Y1.534
X0.8014 Y1.5344
X0.7836 Y1.535
X0.7576 Y1.536
X0.7564 Y1.5358
X0.7554 Y1.5352
X0.7547 Y1.5342
X0.7544 Y1.533
Y1.5214
X0.7545 Y1.5185
X0.7567 Y1.513
X0.7607 Y1.5086
X0.7656 Y1.5053
X0.7709 Y1.5028
X0.7766 Y1.5011
X0.7824 Y1.5
X0.7883 Y1.4996
X0.7942 Y1.4999
X0.8 Y1.5011
X0.8055 Y1.5032
X0.8105 Y1.5064
X0.8116 Y1.5077
X0.8132 Y1.5107
X0.8131 Y1.5141
X0.8115 Y1.5171
X0.8085 Y1.5214
X0.8072 Y1.5238
X0.8065 Y1.5247
X0.8055 Y1.5253
X0.8043 Y1.5255
X0.7836 Y1.525
X0.7574 Y1.5244
X0.7563 Y1.5242
X0.7553 Y1.5235
X0.7546 Y1.5226
X0.7544 Y1.5214
Y1.5099
X0.7545 Y1.5069
X0.7569 Y1.5015
X0.761 Y1.4973
X0.7659 Y1.494
X0.7713 Y1.4915
X0.7769 Y1.4899
X0.7827 Y1.4889
X0.7886 Y1.4885
X0.7945 Y1.4887
X0.8004 Y1.4897
X0.806 Y1.4915
X0.8114 Y1.494
X0.8161 Y1.4975
X0.8199 Y1.502
X0.8201 Y1.5026
X0.8207 Y1.5057
X0.8199 Y1.5088
X0.8177 Y1.5113
X0.8156 Y1.5128
X0.8135 Y1.515
X0.8115 Y1.5171
X0.8103 Y1.5179
X0.809 Y1.518
X0.7835 Y1.5155
X0.7572 Y1.5129
X0.7561 Y1.5126
X0.7552 Y1.5119
X0.7546 Y1.511
X0.7544 Y1.5099
Y1.5
X0.7547 Y1.4941
X0.7578 Y1.4891
X0.7622 Y1.4851
X0.7673 Y1.4821
X0.7727 Y1.4799
X0.7784 Y1.4784
X0.7843 Y1.4775
X0.7902 Y1.4773
X0.7961 Y1.4776
X0.8019 Y1.4785
X0.8076 Y1.4801
X0.8131 Y1.4824
X0.8182 Y1.4853
X0.8228 Y1.489
X0.8267 Y1.4934
X0.8293 Y1.4987
X0.8294 Y1.4992
X0.8292 Y1.5024
X0.8277 Y1.5051
X0.8251 Y1.507
X0.8243 Y1.5074
X0.8219 Y1.5085
X0.82 Y1.5096
X0.8177 Y1.5113
X0.8167 Y1.5117
X0.8155 Y1.5118
X0.7873 Y1.5075
X0.7833 Y1.5069
X0.757 Y1.5029
X0.756 Y1.5026
X0.7552 Y1.5019
X0.7546 Y1.501
X0.7544 Y1.5
Y1.489
X0.7547 Y1.4831
X0.7577 Y1.4781
X0.762 Y1.4741
X0.7671 Y1.471
X0.7726 Y1.4688
X0.7783 Y1.4673
X0.7841 Y1.4663
X0.79 Y1.466
X0.7959 Y1.4662
X0.8018 Y1.4669
X0.8075 Y1.4682
X0.8131 Y1.4701
X0.8185 Y1.4725
X0.8236 Y1.4754
X0.8283 Y1.479
X0.8325 Y1.4832
X0.836 Y1.488
X0.8383 Y1.4934
X0.8388 Y1.4961
X0.8384 Y1.4999
X0.8363 Y1.503
X0.8329 Y1.5047
X0.8286 Y1.5057
X0.8265 Y1.5064
X0.8251 Y1.507
X0.8242 Y1.5072
X0.8233 Y1.5071
X0.795 Y1.5007
X0.783 Y1.4979
X0.7568 Y1.492
X0.7556 Y1.4914
X0.7547 Y1.4903
X0.7544 Y1.489
Y1.4772
X0.7545 Y1.4743
X0.7566 Y1.4687
X0.7605 Y1.4643
X0.7654 Y1.4609
X0.7707 Y1.4584
X0.7763 Y1.4566
X0.7821 Y1.4554
X0.788 Y1.4547
X0.7939 Y1.4546
X0.7998 Y1.4551
X0.8056 Y1.456
X0.8113 Y1.4574
X0.8169 Y1.4593
X0.8224 Y1.4616
X0.8275 Y1.4644
X0.8324 Y1.4678
X0.8369 Y1.4716
X0.841 Y1.4759
X0.8444 Y1.4807
X0.847 Y1.486
X0.8486 Y1.4917
X0.8488 Y1.4976
X0.8486 Y1.4987
X0.8471 Y1.5015
X0.8446 Y1.5035
X0.8415 Y1.5042
X0.8372 Y1.5043
X0.8329 Y1.5047
X0.8035 Y1.4952
X0.7823 Y1.4884
X0.7565 Y1.4801
X0.7554 Y1.4795
X0.7547 Y1.4784
X0.7544 Y1.4772
Y1.4656
X0.7545 Y1.4627
X0.7568 Y1.4573
X0.7608 Y1.4529
X0.7657 Y1.4496
X0.771 Y1.4471
X0.7767 Y1.4452
X0.7824 Y1.444
X0.7883 Y1.4434
X0.7943 Y1.4432
X0.8004 Y1.4436
X0.8054 Y1.4442
X0.8074 Y1.4448
X0.8091 Y1.4458
X0.8104 Y1.4473
X0.8115 Y1.4488
X0.8153 Y1.4528
X0.8157 Y1.4532
X0.82 Y1.4563
X0.8213 Y1.4571
X0.8243 Y1.4586
X0.8286 Y1.4603
X0.8308 Y1.4608
X0.8329 Y1.4612
X0.8387 Y1.4624
X0.8439 Y1.4652
X0.8484 Y1.4689
X0.8523 Y1.4734
X0.8554 Y1.4785
X0.8577 Y1.4839
X0.8591 Y1.4896
X0.8594 Y1.4955
X0.8588 Y1.4983
X0.8575 Y1.5013
X0.8549 Y1.5034
X0.8517 Y1.5042
X0.8415
X0.8402 Y1.5039
X0.8392 Y1.503
X0.8386 Y1.5018
X0.8355 Y1.4893
X0.8295 Y1.4651
Y1.4639
X0.8299 Y1.4628
X0.8306 Y1.4619
X0.8317 Y1.4613
X0.8329 Y1.4612
X0.8338 Y1.4614
X0.8372 Y1.4616
X0.8415 Y1.4617
X0.8458
X0.8517 Y1.462
X0.8568 Y1.4649
X0.8611 Y1.469
X0.8646 Y1.4738
X0.8673 Y1.479
X0.869 Y1.4847
X0.87 Y1.4905
X0.8698 Y1.4964
X0.8691 Y1.4988
X0.8677 Y1.5016
X0.8652 Y1.5035
X0.8621 Y1.5042
X0.8517
X0.8506 Y1.504
X0.8497 Y1.5034
X0.8491 Y1.5026
X0.8487 Y1.5016
X0.8469 Y1.4907
X0.8428 Y1.4654
X0.8429 Y1.4641
X0.8435 Y1.4629
X0.8445 Y1.4621
X0.8458 Y1.4617
X0.8586
X0.8616 Y1.4619
X0.8671 Y1.464
X0.8716 Y1.4677
X0.8752 Y1.4725
X0.8779 Y1.4777
X0.8797 Y1.4833
X0.8807 Y1.4892
X0.8806 Y1.4951
X0.8799 Y1.4985
X0.8785 Y1.5014
X0.8759 Y1.5035
X0.8727 Y1.5042
X0.8621
X0.861 Y1.5039
X0.8601 Y1.5033
X0.8594 Y1.5024
X0.8591 Y1.5014
X0.8581 Y1.4909
X0.8556 Y1.4652
X0.8558 Y1.4639
X0.8564 Y1.4628
X0.8574 Y1.462
X0.8586 Y1.4617
X0.8696
X0.8755 Y1.462
X0.8805 Y1.4651
X0.8845 Y1.4695
X0.8876 Y1.4745
X0.8898 Y1.48
X0.8911 Y1.4858
X0.8915 Y1.4917
X0.8909 Y1.4975
X0.8903 Y1.4992
X0.8888 Y1.5018
X0.8863 Y1.5036
X0.8834 Y1.5042
X0.8727
X0.8717 Y1.5039
X0.8707 Y1.5033
X0.87 Y1.5024
X0.8698 Y1.5013
X0.8688 Y1.4909
X0.8666 Y1.4651
X0.8667 Y1.4639
X0.8673 Y1.4628
X0.8683 Y1.462
X0.8696 Y1.4617
X0.8814
X0.8843 Y1.4619
X0.8898 Y1.464
X0.8942 Y1.468
X0.8976 Y1.4728
X0.9 Y1.4782
X0.9016 Y1.4839
X0.9023 Y1.4898
X0.902 Y1.4957
X0.9012 Y1.4987
X0.8998 Y1.5015
X0.8973 Y1.5035
X0.8942 Y1.5042
X0.8834
X0.8823 Y1.5039
X0.8813 Y1.5033
X0.8807 Y1.5024
X0.8804 Y1.5012
X0.8798 Y1.491
X0.8784 Y1.465
X0.8785 Y1.4638
X0.8792 Y1.4628
X0.8802 Y1.462
X0.8814 Y1.4617
X0.8929
X0.8959 Y1.4619
X0.9013 Y1.4642
X0.9056 Y1.4683
X0.9088 Y1.4733
X0.9111 Y1.4787
X0.9125 Y1.4844
X0.9131 Y1.4903
X0.9127 Y1.4962
X0.9119 Y1.4989
X0.9105 Y1.5016
X0.908 Y1.5035
X0.9049 Y1.5042
X0.8942
X0.893 Y1.5039
X0.8921 Y1.5033
X0.8914 Y1.5023
X0.8912 Y1.5012
X0.8908 Y1.491
X0.8899 Y1.465
X0.8901 Y1.4638
X0.8908 Y1.4627
X0.8917 Y1.462
X0.8929 Y1.4617
X0.9028
X0.9087 Y1.462
X0.9137 Y1.4652
X0.9176 Y1.4696
X0.9205 Y1.4748
X0.9225 Y1.4803
X0.9236 Y1.4861
X0.9239 Y1.492
X0.9231 Y1.4979
X0.9226 Y1.4994
X0.921 Y1.5019
X0.9186 Y1.5036
X0.9157 Y1.5042
X0.9049
X0.9038 Y1.5039
X0.9029 Y1.5033
X0.9022 Y1.5024
X0.9019 Y1.5012
X0.9013 Y1.491
X0.8998 Y1.4651
X0.9 Y1.4638
X0.9006 Y1.4628
X0.9016 Y1.462
X0.9028 Y1.4617
X0.9144
X0.9173 Y1.4619
X0.9228 Y1.4641
X0.9271 Y1.4681
X0.9304 Y1.473
X0.9327 Y1.4785
X0.9341 Y1.4842
X0.9347 Y1.4901
X0.9343 Y1.496
X0.9336 Y1.4988
X0.9321 Y1.5016
X0.9296 Y1.5035
X0.9265 Y1.5042
X0.9157
X0.9146 Y1.5039
X0.9136 Y1.5033
X0.913 Y1.5023
X0.9127 Y1.5012
X0.9123 Y1.491
X0.9114 Y1.465
X0.9116 Y1.4638
X0.9122 Y1.4627
X0.9132 Y1.462
X0.9144 Y1.4617
X0.9259
X0.9288 Y1.4619
X0.9342 Y1.4644
X0.9384 Y1.4685
X0.9415 Y1.4735
X0.9437 Y1.479
X0.945 Y1.4848
X0.9455 Y1.4907
X0.945 Y1.4966
X0.9443 Y1.499
X0.9428 Y1.5017
X0.9403 Y1.5035
X0.9373 Y1.5042
X0.9265
X0.9254 Y1.5039
X0.9244 Y1.5032
X0.9238 Y1.5023
X0.9235 Y1.5011
X0.9233 Y1.491
X0.9229 Y1.4649
X0.9231 Y1.4637
X0.9237 Y1.4627
X0.9247 Y1.462
X0.9259 Y1.4617
X0.9444
X0.953
X0.9573 Y1.4615
X0.9589 Y1.4614
X0.9615 Y1.4609
X0.9658 Y1.4596
X0.968 Y1.4587
X0.9701 Y1.4577
X0.9713 Y1.4571
X0.9716 Y1.4568
X0.9728 Y1.4564
X0.9741 Y1.4565
X0.9752 Y1.4571
X0.976 Y1.458
X0.987 Y1.4784
X0.9986 Y1.5
X0.999 Y1.5012
X0.9988 Y1.5025
X0.9981 Y1.5036
X0.9971 Y1.5043
X0.9958 Y1.5046
X0.9871 Y1.5043
X0.9817 Y1.5042
X0.98
X0.9787
X0.9728 Y1.5039
X0.9681 Y1.504
X0.9675 Y1.5041
X0.9669 Y1.5042
X0.9663
X0.965 Y1.5038
X0.9639 Y1.5029
X0.9633 Y1.5016
X0.9634 Y1.5003
X0.964 Y1.499
X0.9651 Y1.4982
X0.9665 Y1.4979
G3 X0.9793 Y1.5006 I-0.0014 J0.0393
G1 X0.9801 Y1.5012
X0.9805 Y1.5021
X0.9803 Y1.5031
X0.9797 Y1.5039
X0.9787 Y1.5042
X0.9373
X0.9361 Y1.5039
X0.9351 Y1.5031
X0.9345 Y1.5021
X0.9343 Y1.5008
X0.9347 Y1.4996
X0.9355 Y1.4987
X0.9366 Y1.4981
X0.9378 Y1.498
X0.939 Y1.4984
X0.94 Y1.4989 Z0.1248
X0.9409 Y1.4995 Z0.1255
X0.9415 Y1.4998 Z0.1265
X0.9417 Y1.4999 Z0.1277
G0 Z0.337
X0.7647 Y1.498
Z0.1308
G1 Z0.1277 F14.
X0.7646 Y1.4978 Z0.1265
X0.7642 Y1.4972 Z0.1255
X0.7637 Y1.4963 Z0.1248
X0.7631 Y1.4953 Z0.1245
G3 X0.7544 Y1.4656 I0.0536 J-0.0318
G1 Y1.4558
X0.7547 Y1.4499
X0.7577 Y1.4448
X0.762 Y1.4407
X0.767 Y1.4376
X0.7724 Y1.4353
X0.7781 Y1.4336
X0.7839 Y1.4325
X0.7899 Y1.4319
X0.7958 Y1.4318
X0.7987 Y1.432
X0.8014 Y1.4327
X0.8037 Y1.4344
X0.8051 Y1.4368
X0.8062 Y1.4399
X0.8072 Y1.4422
X0.8083 Y1.4442
X0.8104 Y1.4473
X0.8109 Y1.4485
X0.8108 Y1.4497
X0.8103 Y1.4509
X0.8094 Y1.4517
X0.8082 Y1.4521
X0.7838 Y1.4553
X0.7834 Y1.4554
X0.7579 Y1.4588
X0.7566 Y1.4587
X0.7555 Y1.458
X0.7547 Y1.457
X0.7544 Y1.4558
Y1.4442
X0.7547 Y1.4383
X0.7578 Y1.4333
X0.7621 Y1.4293
X0.7672 Y1.4262
X0.7726 Y1.4239
X0.7783 Y1.4222
X0.7841 Y1.4211
X0.7899 Y1.4204
X0.7958 Y1.4205
X0.798 Y1.421
X0.8009 Y1.4223
X0.803 Y1.4248
X0.8038 Y1.4279
X0.8039 Y1.4313
X0.8042 Y1.4335
X0.8047 Y1.4356
X0.8051 Y1.4368
X0.8052 Y1.4382
X0.8048 Y1.4394
X0.8038 Y1.4404
X0.8026 Y1.4408
X0.7834 Y1.4436
X0.7579 Y1.4472
X0.7566 Y1.4471
X0.7555 Y1.4465
X0.7547 Y1.4455
X0.7544 Y1.4442
Y1.4333
X0.7547 Y1.4274
X0.7576 Y1.4222
X0.7619 Y1.4182
X0.7669 Y1.4151
X0.7723 Y1.4127
X0.778 Y1.4109
X0.7838 Y1.4098
X0.7896 Y1.4092
X0.7955 Y1.4096
X0.7981 Y1.4103
X0.8009 Y1.4117
X0.8028 Y1.4142
X0.8035 Y1.4173
Y1.4185
X0.8038 Y1.4279
X0.8036 Y1.429
X0.803 Y1.4299
X0.8021 Y1.4306
X0.801 Y1.431
X0.7834 Y1.4331
X0.7579 Y1.4362
X0.7566 Y1.4361
X0.7555 Y1.4355
X0.7547 Y1.4345
X0.7544 Y1.4333
Y1.4214
X0.7547 Y1.4155
X0.7578 Y1.4106
X0.7622 Y1.4066
X0.7672 Y1.4035
X0.7727 Y1.4012
X0.7783 Y1.3995
X0.7841 Y1.3985
X0.79 Y1.3981
X0.7959 Y1.3987
X0.7983 Y1.3995
X0.801 Y1.401
X0.8028 Y1.4034
X0.8035 Y1.4064
Y1.4173
X0.8032 Y1.4184
X0.8026 Y1.4193
X0.8017 Y1.42
X0.8006 Y1.4203
X0.7835 Y1.4219
X0.7578 Y1.4244
X0.7565 Y1.4243
X0.7554 Y1.4237
X0.7547 Y1.4227
X0.7544 Y1.4214
Y1.4099
X0.7545 Y1.4069
X0.7566 Y1.4014
X0.7605 Y1.3969
X0.7652 Y1.3935
X0.7705 Y1.3908
X0.7761 Y1.3889
X0.7819 Y1.3876
X0.7877 Y1.3871
X0.7936 Y1.3873
X0.7994 Y1.3887
X0.7995
X0.8016 Y1.3903
X0.803 Y1.3926
X0.8035 Y1.3952
Y1.4064
X0.8032 Y1.4075
X0.8026 Y1.4085
X0.8017 Y1.4091
X0.8006 Y1.4094
X0.7835 Y1.4108
X0.7577 Y1.4129
X0.7565 Y1.4127
X0.7554 Y1.4121
X0.7547 Y1.4111
X0.7544 Y1.4099
Y1.3989
X0.7547 Y1.393
X0.7579 Y1.3881
X0.7622 Y1.3841
X0.7673 Y1.381
X0.7727 Y1.3787
X0.7784 Y1.3771
X0.7842 Y1.3762
X0.7901 Y1.376
X0.796 Y1.3766
X0.7984 Y1.3774
X0.801 Y1.3789
X0.8028 Y1.3813
X0.8035 Y1.3843
Y1.3952
X0.8032 Y1.3963
X0.8026 Y1.3972
X0.8017 Y1.3979
X0.8006 Y1.3982
X0.7835 Y1.3997
X0.7578 Y1.4019
X0.7565 Y1.4018
X0.7554 Y1.4012
X0.7547 Y1.4002
X0.7544 Y1.3989
Y1.3871
X0.7545 Y1.3842
X0.7567 Y1.3787
X0.7606 Y1.3743
X0.7654 Y1.3709
X0.7708 Y1.3683
X0.7764 Y1.3664
X0.7822 Y1.3653
X0.7881 Y1.3649
X0.794 Y1.3652
X0.7979 Y1.3662
X0.8008 Y1.3676
X0.8028 Y1.3701
X0.8035 Y1.3732
Y1.3843
X0.8032 Y1.3854
X0.8026 Y1.3863
X0.8016 Y1.387
X0.8005 Y1.3873
X0.7836 Y1.3884
X0.7577 Y1.3901
X0.7565 Y1.39
X0.7554 Y1.3893
X0.7547 Y1.3883
X0.7544 Y1.3871
Y1.3756
X0.7545 Y1.3726
X0.7568 Y1.3672
X0.7608 Y1.3628
X0.7657 Y1.3595
X0.7711 Y1.357
X0.7767 Y1.3552
X0.7825 Y1.3542
X0.7884 Y1.3538
X0.7943 Y1.3542
X0.798 Y1.3551
X0.8008 Y1.3565
X0.8028 Y1.3591
X0.8035 Y1.3622
Y1.3732
X0.8032 Y1.3743
X0.8026 Y1.3753
X0.8016 Y1.376
X0.8005 Y1.3762
X0.7836 Y1.3772
X0.7577 Y1.3786
X0.7564 Y1.3784
X0.7554 Y1.3777
X0.7547 Y1.3768
X0.7544 Y1.3756
Y1.3657
X0.7547 Y1.3598
X0.7577 Y1.3547
X0.762 Y1.3507
X0.767 Y1.3476
X0.7725 Y1.3453
X0.7782 Y1.3437
X0.784 Y1.3429
X0.7899 Y1.3427
X0.7958 Y1.3434
X0.7984 Y1.3442
X0.801 Y1.3457
X0.8028 Y1.3482
X0.8035 Y1.3512
Y1.3622
X0.8032 Y1.3633
X0.8026 Y1.3642
X0.8017 Y1.3649
X0.8006 Y1.3652
X0.7835 Y1.3666
X0.7577 Y1.3687
X0.7565 Y1.3685
X0.7554 Y1.3679
X0.7547 Y1.3669
X0.7544 Y1.3657
Y1.3541
X0.7547 Y1.3482
X0.7578 Y1.3432
X0.7622 Y1.3392
X0.7673 Y1.3362
X0.7727 Y1.334
X0.7785 Y1.3326
X0.7843 Y1.3318
X0.7902 Y1.3316
X0.7961 Y1.3324
X0.7985 Y1.3332
X0.8011 Y1.3347
X0.8028 Y1.3371
X0.8035 Y1.3401
Y1.3512
X0.8032 Y1.3523
X0.8026 Y1.3532
X0.8017 Y1.3539
X0.8006 Y1.3542
X0.7836 Y1.3553
X0.7577 Y1.3571
X0.7565 Y1.3569
X0.7554 Y1.3563
X0.7547 Y1.3553
X0.7544 Y1.3541
Y1.3432
X0.7547 Y1.3373
X0.7577 Y1.3322
X0.7621 Y1.3282
X0.7671 Y1.3252
X0.7726 Y1.323
X0.7783 Y1.3215
X0.7842 Y1.3207
X0.7901 Y1.3205
X0.7959 Y1.3212
X0.7984 Y1.3221
X0.8011 Y1.3236
X0.8028 Y1.326
X0.8035 Y1.329
Y1.3401
X0.8032 Y1.3412
X0.8026 Y1.3421
X0.8017 Y1.3428
X0.8006 Y1.3431
X0.7836 Y1.3443
X0.7577 Y1.3462
X0.7565 Y1.346
X0.7554 Y1.3454
X0.7547 Y1.3444
X0.7544 Y1.3432
Y1.3314
X0.7545 Y1.3284
X0.7566 Y1.3229
X0.7606 Y1.3185
X0.7654 Y1.3151
X0.7708 Y1.3126
X0.7764 Y1.3108
X0.7822 Y1.3097
X0.7881 Y1.3094
X0.794 Y1.3098
X0.798 Y1.3108
X0.8008 Y1.3122
X0.8028 Y1.3147
X0.8035 Y1.3178
Y1.329
X0.8032 Y1.3301
X0.8026 Y1.3311
X0.8016 Y1.3317
X0.8005 Y1.332
X0.7836 Y1.3329
X0.7577 Y1.3344
X0.7564 Y1.3342
X0.7554 Y1.3335
X0.7547 Y1.3326
X0.7544 Y1.3314
Y1.3198
X0.7545 Y1.3168
X0.7569 Y1.3114
X0.7609 Y1.3071
X0.7658 Y1.3038
X0.7711 Y1.3013
X0.7768 Y1.2996
X0.7826 Y1.2986
X0.7885 Y1.2983
X0.7944 Y1.2988
X0.798 Y1.2997
X0.8008 Y1.3012
X0.8028 Y1.3037
X0.8035 Y1.3067
Y1.3178
X0.8032 Y1.319
X0.8026 Y1.3199
X0.8016 Y1.3206
X0.8005 Y1.3209
X0.7836 Y1.3216
X0.7576 Y1.3228
X0.7564 Y1.3226
X0.7554 Y1.322
X0.7547 Y1.321
X0.7544 Y1.3198
Y1.3099
X0.7547 Y1.304
X0.7577 Y1.2989
X0.7621 Y1.295
X0.7671 Y1.2919
X0.7726 Y1.2897
X0.7783 Y1.2882
X0.7842 Y1.2874
X0.7901 Y1.2872
X0.7959 Y1.288
X0.7984 Y1.2888
X0.801 Y1.2903
X0.8028 Y1.2927
X0.8035 Y1.2957
Y1.3067
X0.8032 Y1.3079
X0.8026 Y1.3088
X0.8017 Y1.3095
X0.8006 Y1.3097
X0.7836 Y1.311
X0.7577 Y1.3129
X0.7565 Y1.3127
X0.7554 Y1.3121
X0.7547 Y1.3111
X0.7544 Y1.3099
Y1.2983
X0.7547 Y1.2924
X0.7579 Y1.2875
X0.7623 Y1.2836
X0.7674 Y1.2806
X0.7729 Y1.2784
X0.7786 Y1.277
X0.7845 Y1.2762
X0.7904 Y1.2761
X0.7962 Y1.2769
X0.7985 Y1.2777
X0.8011 Y1.2792
X0.8028 Y1.2817
X0.8035 Y1.2846
Y1.2957
X0.8032 Y1.2968
X0.8026 Y1.2978
X0.8016 Y1.2984
X0.8005 Y1.2987
X0.7836 Y1.2998
X0.7577 Y1.3013
X0.7565 Y1.3012
X0.7554 Y1.3005
X0.7547 Y1.2995
X0.7544 Y1.2983
Y1.2874
X0.7547 Y1.2815
X0.7578 Y1.2765
X0.7622 Y1.2725
X0.7673 Y1.2696
X0.7728 Y1.2674
X0.7785 Y1.2659
X0.7843 Y1.2651
X0.7902 Y1.265
X0.7961 Y1.2658
X0.7985 Y1.2666
X0.8011 Y1.2681
X0.8028 Y1.2706
X0.8035 Y1.2735
Y1.2846
X0.8032 Y1.2857
X0.8026 Y1.2867
X0.8016 Y1.2873
X0.8005 Y1.2876
X0.7836 Y1.2887
X0.7577 Y1.2904
X0.7565 Y1.2902
X0.7554 Y1.2896
X0.7547 Y1.2886
X0.7544 Y1.2874
Y1.2756
X0.7545 Y1.2726
X0.7567 Y1.2672
X0.7607 Y1.2628
X0.7656 Y1.2595
X0.771 Y1.257
X0.7766 Y1.2553
X0.7824 Y1.2542
X0.7883 Y1.2539
X0.7942 Y1.2543
X0.798 Y1.2553
X0.8008 Y1.2568
X0.8028 Y1.2593
X0.8035 Y1.2624
Y1.2735
X0.8032 Y1.2746
X0.8026 Y1.2756
X0.8016 Y1.2762
X0.8005 Y1.2765
X0.7836 Y1.2773
X0.7576 Y1.2786
X0.7564 Y1.2784
X0.7554 Y1.2778
X0.7547 Y1.2768
X0.7544 Y1.2756
Y1.264
Y1.2627
Y1.2611
Y1.2596
X0.7576 Y1.2546
X0.7586 Y1.2536
X0.76 Y1.2526
X0.7617 Y1.252
X0.7635 Y1.2517
X0.7646 Y1.252
X0.7656 Y1.2527
X0.7662 Y1.2537
X0.7665 Y1.2549
X0.7662 Y1.256
X0.7656 Y1.257
X0.7597 Y1.2631
X0.7587 Y1.2638
X0.7576 Y1.2641
X0.7564 Y1.2639
X0.7554 Y1.2632
X0.7546 Y1.2622
X0.7544 Y1.2611
Y1.2554
X0.7545 Y1.2547
X0.7548 Y1.254
X0.7552 Y1.2533
X0.7557 Y1.2526
X0.7562 Y1.2522
X0.7568 Y1.252
X0.7573 Y1.2518
X0.7579
X0.7997 Y1.2517
X0.8002 Y1.2518
X0.8007 Y1.2519
X0.8013 Y1.2522
X0.8018 Y1.2525
X0.8024 Y1.2532
X0.8029 Y1.2538
X0.8031 Y1.2542
X0.8033 Y1.2546
X0.8034 Y1.255
X0.8035 Y1.2554
Y1.2624
X0.8032 Y1.2636
X0.8024 Y1.2646
X0.8013 Y1.2652
X0.8001 Y1.2654
X0.7989 Y1.265
X0.7979 Y1.2642
X0.7973 Y1.2631
X0.7972 Y1.2619
X0.7976 Y1.2607
X0.7982 Y1.2597 Z0.1248
X0.7987 Y1.2588 Z0.1255
X0.7991 Y1.2582 Z0.1265
X0.7992 Y1.258 Z0.1277
G0 Z0.337
X0.9825 Y1.4703
Z0.1308
G1 Z0.1277 F14.
Y1.4701 Z0.1265
X0.9824 Y1.4694 Z0.1255
Y1.4684 Z0.1248
X0.9823 Y1.4672 Z0.1245
G3 X0.988 Y1.4368 I0.0622 J-0.0041
G1 X0.9916 Y1.4298
X0.9946 Y1.4236
X0.9975 Y1.4185
X1.0021 Y1.4148
X1.0076 Y1.4126
X1.0134 Y1.4114
X1.0193 Y1.4111
X1.0252 Y1.4116
X1.031 Y1.4128
X1.0365 Y1.4147
X1.0419 Y1.4172
X1.0469 Y1.4202
X1.0491 Y1.422
X1.051 Y1.4245
X1.0517 Y1.4275
X1.051 Y1.4306
X1.0507 Y1.4313
X1.0492 Y1.4356
X1.0487 Y1.4378
X1.0484 Y1.4399
X1.0479 Y1.4411
X1.047 Y1.442
X1.0457 Y1.4424
X1.0444 Y1.4423
X1.0211 Y1.4353
X0.9966 Y1.4279
X0.9954 Y1.4273
X0.9946 Y1.4262
X0.9943 Y1.4249
X0.9946 Y1.4236
X1.0008 Y1.411
X1.0023 Y1.4085
X1.0067 Y1.4045
X1.0121 Y1.4021
X1.0179 Y1.4009
X1.0238 Y1.4007
X1.0296 Y1.4013
X1.0354 Y1.4026
X1.041 Y1.4044
X1.0464 Y1.4068
X1.0515 Y1.4099
X1.0539 Y1.412
X1.0557 Y1.4145
X1.0563 Y1.4175
X1.0557 Y1.4205
X1.051 Y1.4306
X1.0504 Y1.4315
X1.0494 Y1.4321
X1.0483 Y1.4324
X1.0471 Y1.4322
X1.0267 Y1.4244
X1.0026 Y1.4153
X1.0015 Y1.4146
X1.0008 Y1.4135
X1.0006 Y1.4123
X1.0008 Y1.411
X1.0057 Y1.4013
X1.0086 Y1.3961
X1.0135 Y1.393
X1.0192 Y1.3912
X1.025 Y1.3905
X1.0309 Y1.3907
X1.0368 Y1.3915
X1.0425 Y1.393
X1.048 Y1.3951
X1.0533 Y1.3978
X1.0581 Y1.4013
X1.0593 Y1.4025
X1.0608 Y1.405
X1.0612 Y1.4079
X1.0604 Y1.4107
X1.0559 Y1.42
X1.0557 Y1.4205
X1.055 Y1.4214
X1.054 Y1.422
X1.0529 Y1.4222
X1.0518 Y1.422
X1.0316 Y1.4145
X1.0074 Y1.4055
X1.0064 Y1.4048
X1.0056 Y1.4038
X1.0054 Y1.4025
X1.0057 Y1.4013
X1.0114 Y1.3898
X1.0128 Y1.3872
X1.0174 Y1.3834
X1.0229 Y1.3813
X1.0287 Y1.3804
X1.0347
X1.0405 Y1.3812
X1.0462 Y1.3826
X1.0518 Y1.3845
X1.0571 Y1.3871
X1.062 Y1.3904
X1.064 Y1.3923
X1.0656 Y1.3948
X1.0661 Y1.3978
X1.0654 Y1.4007
X1.0604 Y1.4107
X1.0597 Y1.4116
X1.0587 Y1.4122
X1.0576 Y1.4123
X1.0565 Y1.4121
X1.037 Y1.4039
X1.013 Y1.3939
X1.012 Y1.3932
X1.0113 Y1.3922
X1.0111 Y1.391
X1.0114 Y1.3898
X1.0159 Y1.3807
X1.0188 Y1.3756
X1.0238 Y1.3724
X1.0294 Y1.3707
X1.0353 Y1.3701
X1.0412 Y1.3703
X1.047 Y1.3713
X1.0527 Y1.3729
X1.0582 Y1.3751
X1.0634 Y1.3778
X1.0682 Y1.3814
X1.0692 Y1.3826
X1.0707 Y1.385
X1.0711 Y1.3879
X1.0703 Y1.3906
X1.0654 Y1.4007
X1.0647 Y1.4016
X1.0637 Y1.4021
X1.0626 Y1.4023
X1.0615 Y1.4021
X1.0417 Y1.3943
X1.0176 Y1.3849
X1.0165 Y1.3842
X1.0158 Y1.3832
X1.0156 Y1.3819
X1.0159 Y1.3807
X1.0211 Y1.3702
X1.0226 Y1.3676
X1.0269 Y1.3635
X1.0323 Y1.3612
X1.0381 Y1.3602
X1.044 Y1.3601
X1.0499 Y1.3608
X1.0556 Y1.3622
X1.0612 Y1.3641
X1.0665 Y1.3667
X1.0715 Y1.3699
X1.0738 Y1.3721
X1.0755 Y1.3746
X1.076 Y1.3776
X1.0753 Y1.3806
X1.0703 Y1.3906
X1.0696 Y1.3915
X1.0686 Y1.3921
X1.0675 Y1.3923
X1.0664 Y1.3921
X1.0468 Y1.3841
X1.0228 Y1.3743
X1.0218 Y1.3737
X1.0211 Y1.3726
X1.0208 Y1.3714
X1.0211 Y1.3702
X1.0259 Y1.3606
X1.0287 Y1.3555
X1.0337 Y1.3523
X1.0394 Y1.3505
X1.0452 Y1.3499
X1.0511 Y1.3501
X1.057 Y1.3511
X1.0626 Y1.3527
X1.0681 Y1.3549
X1.0733 Y1.3577
X1.078 Y1.3612
X1.0791 Y1.3625
X1.0806 Y1.3649
X1.081 Y1.3678
X1.0802 Y1.3705
X1.0753 Y1.3806
X1.0746 Y1.3815
X1.0736 Y1.382
X1.0725 Y1.3822
X1.0714 Y1.382
X1.0516 Y1.3743
X1.0276 Y1.3648
X1.0265 Y1.3641
X1.0258 Y1.3631
X1.0256 Y1.3618
X1.0259 Y1.3606
X1.0312 Y1.3498
X1.0327 Y1.3472
X1.037 Y1.3432
X1.0425 Y1.341
X1.0483 Y1.34
X1.0542 Y1.3399
X1.06 Y1.3407
X1.0658 Y1.342
X1.0713 Y1.344
X1.0766 Y1.3467
X1.0816 Y1.3499
X1.0837 Y1.352
X1.0854 Y1.3545
X1.0859 Y1.3575
X1.0852 Y1.3605
X1.0802 Y1.3705
X1.0795 Y1.3714
X1.0785 Y1.372
X1.0774 Y1.3722
X1.0763 Y1.3719
X1.0568 Y1.3639
X1.0329 Y1.354
X1.0318 Y1.3533
X1.0312 Y1.3522
X1.0309 Y1.351
X1.0312 Y1.3498
X1.0361 Y1.3399
X1.0376 Y1.3374
X1.0418 Y1.3332
X1.0472 Y1.3309
X1.053 Y1.3299
X1.0589 Y1.3298
X1.0648 Y1.3305
X1.0705 Y1.3319
X1.0761 Y1.3339
X1.0814 Y1.3365
X1.0864 Y1.3397
X1.0887 Y1.3419
X1.0904 Y1.3444
X1.0909 Y1.3474
X1.0902 Y1.3504
X1.0852 Y1.3605
X1.0845 Y1.3614
X1.0835 Y1.3619
X1.0824 Y1.3621
X1.0813 Y1.3619
X1.0618 Y1.3539
X1.0378 Y1.3441
X1.0367 Y1.3434
X1.0361 Y1.3424
X1.0358 Y1.3411
X1.0361 Y1.3399
X1.0409 Y1.3303
X1.0438 Y1.3251
X1.0488 Y1.3219
X1.0544 Y1.3202
X1.0603 Y1.3196
X1.0662 Y1.3199
X1.072 Y1.3209
X1.0777 Y1.3225
X1.0831 Y1.3247
X1.0883 Y1.3276
X1.093 Y1.3311
X1.094 Y1.3323
X1.0955 Y1.3348
X1.0959 Y1.3376
X1.0951 Y1.3403
X1.0902 Y1.3504
X1.0895 Y1.3513
X1.0885 Y1.3518
X1.0874 Y1.352
X1.0863 Y1.3518
X1.0666 Y1.344
X1.0426 Y1.3345
X1.0415 Y1.3338
X1.0409 Y1.3327
X1.0406 Y1.3315
X1.0409 Y1.3303
X1.0461 Y1.3198
X1.049 Y1.3146
X1.0541 Y1.3116
X1.0597 Y1.31
X1.0656 Y1.3094
X1.0715 Y1.3098
X1.0773 Y1.3109
X1.083 Y1.3126
X1.0884 Y1.3148
X1.0936 Y1.3177
X1.0983 Y1.3213
X1.0991 Y1.3223
X1.1005 Y1.3247
X1.1008 Y1.3275
X1.1001 Y1.3302
X1.0951 Y1.3403
X1.0944 Y1.3412
X1.0934 Y1.3418
X1.0923 Y1.342
X1.0912 Y1.3417
X1.0718 Y1.3338
X1.0478 Y1.324
X1.0467 Y1.3233
X1.0461 Y1.3222
X1.0458 Y1.321
X1.0461 Y1.3198
X1.051 Y1.3099
X1.0539 Y1.3047
X1.0589 Y1.3015
X1.0646 Y1.2999
X1.0705 Y1.2994
X1.0764 Y1.2997
X1.0822 Y1.3008
X1.0878 Y1.3025
X1.0933 Y1.3047
X1.0985 Y1.3075
X1.1032 Y1.3111
X1.1041 Y1.3121
X1.1055 Y1.3146
X1.1058 Y1.3174
X1.1051 Y1.3201
X1.1001 Y1.3302
X1.0994 Y1.3311
X1.0984 Y1.3317
X1.0973 Y1.3318
X1.0962 Y1.3316
X1.0767 Y1.3237
X1.0527 Y1.314
X1.0517 Y1.3133
X1.051 Y1.3123
X1.0508 Y1.3111
X1.051 Y1.3099
X1.0564 Y1.2991
X1.0578 Y1.2966
X1.0622 Y1.2926
X1.0677 Y1.2904
X1.0735 Y1.2895
X1.0794
X1.0853 Y1.2903
X1.091 Y1.2918
X1.0965 Y1.2938
X1.1018 Y1.2965
X1.1067 Y1.2997
X1.1086 Y1.3017
X1.1103 Y1.3042
X1.1108 Y1.3071
X1.11 Y1.31
X1.1051 Y1.3201
X1.1044 Y1.321
X1.1034 Y1.3216
X1.1022 Y1.3217
X1.1011 Y1.3215
X1.0819 Y1.3134
X1.058 Y1.3033
X1.057 Y1.3026
X1.0563 Y1.3016
X1.0561 Y1.3003
X1.0564 Y1.2991
X1.061 Y1.2898
X1.0639 Y1.2846
X1.0689 Y1.2815
X1.0746 Y1.2798
X1.0805 Y1.2793
X1.0864 Y1.2796
X1.0922 Y1.2806
X1.0978 Y1.2823
X1.1033 Y1.2846
X1.1085 Y1.2874
X1.1131 Y1.291
X1.114 Y1.292
X1.1154 Y1.2945
X1.1157 Y1.2972
X1.115 Y1.3
X1.11 Y1.31
X1.1093 Y1.3109
X1.1084 Y1.3115
X1.1072 Y1.3117
X1.1061 Y1.3115
X1.0867 Y1.3036
X1.0627 Y1.2939
X1.0616 Y1.2932
X1.061 Y1.2922
X1.0607 Y1.291
X1.061 Y1.2898
X1.0659 Y1.2799
X1.0688 Y1.2747
X1.0737 Y1.2715
X1.0794 Y1.2698
X1.0853 Y1.2692
X1.0912 Y1.2695
X1.097 Y1.2705
X1.1026 Y1.2722
X1.1081 Y1.2744
X1.1133 Y1.2772
X1.118 Y1.2808
X1.1189 Y1.2819
X1.1204 Y1.2843
X1.1207 Y1.2871
X1.12 Y1.2899
X1.115 Y1.3
X1.1143 Y1.3008
X1.1133 Y1.3014
X1.1122 Y1.3016
X1.1111 Y1.3014
X1.0916 Y1.2936
X1.0676 Y1.2841
X1.0666 Y1.2834
X1.0659 Y1.2823
X1.0656 Y1.2811
X1.0659 Y1.2799
X1.0712 Y1.2692
X1.0727 Y1.2666
X1.077 Y1.2625
X1.0824 Y1.2603
X1.0882 Y1.2593
X1.0942
X1.1 Y1.2601
X1.1057 Y1.2615
X1.1113 Y1.2635
X1.1166 Y1.2661
X1.1215 Y1.2694
X1.1235 Y1.2714
X1.1252 Y1.2739
X1.1257 Y1.2769
X1.1249 Y1.2798
X1.12 Y1.2899
X1.1193 Y1.2907
X1.1183 Y1.2913
X1.1172 Y1.2915
X1.116 Y1.2913
X1.0968 Y1.2833
X1.0729 Y1.2733
X1.0718 Y1.2726
X1.0712 Y1.2716
X1.0709 Y1.2704
X1.0712 Y1.2692
X1.0759 Y1.2597
X1.0767 Y1.2582
X1.0773 Y1.2569
X1.0785 Y1.2549
X1.0812 Y1.253
X1.0825 Y1.2523
X1.0838 Y1.2519
X1.0852 Y1.2518
X1.0865 Y1.2521
X1.0875 Y1.2529
X1.0881 Y1.254
X1.0882 Y1.2553
X1.0878 Y1.2565
X1.0869 Y1.2575
X1.0819 Y1.2608
X1.0811 Y1.2612
X1.0802 Y1.2613
X1.0789 Y1.261
X1.0779 Y1.2603
X1.0773 Y1.2593
X1.077 Y1.2581
X1.0773 Y1.2569
X1.078 Y1.2554
X1.079 Y1.2536
X1.0795 Y1.2529
X1.0799 Y1.2525
X1.0803 Y1.2522
X1.081 Y1.2519
X1.0816 Y1.2518
X1.103 Y1.2517
X1.1089 Y1.252
X1.1147 Y1.2535
X1.1201 Y1.2557
X1.1252 Y1.2587
X1.1281 Y1.2611
X1.13 Y1.2637
X1.1306 Y1.2668
X1.1298 Y1.2699
X1.129 Y1.2708
X1.128 Y1.2714
X1.1267 Y1.2715
X1.1256 Y1.2711
X1.1215 Y1.2688
X1.1016 Y1.2576
X1.1006 Y1.2567
X1.1001 Y1.2555
Y1.2541
X1.1007 Y1.2529
X1.1018 Y1.2521
X1.103 Y1.2517
X1.1226
X1.1245
X1.1258
X1.1287 Y1.2519
X1.1304 Y1.2528
X1.1331 Y1.2553
X1.1342 Y1.2588
X1.1335 Y1.2624
X1.1327 Y1.2634
X1.1316 Y1.2639
X1.1304 Y1.264
X1.1293 Y1.2637
X1.1283 Y1.2629
X1.1235 Y1.2568
X1.1229 Y1.2556
X1.1228 Y1.2542
X1.1234 Y1.253
X1.1245 Y1.2521
X1.1258 Y1.2517
X1.1331 Y1.2518
X1.1337 Y1.2519
X1.1344 Y1.2521
X1.1349 Y1.2524
X1.1353 Y1.2529
X1.1358 Y1.2536
X1.1363 Y1.2545
X1.1364 Y1.255
X1.1365 Y1.2554
Y1.256
X1.1364 Y1.2565
X1.1362 Y1.257
X1.1249 Y1.2798
X1.1241 Y1.2808
X1.1228 Y1.2814
X1.1215
X1.1202 Y1.2808
X1.1194 Y1.2797
X1.1191 Y1.2784
Y1.2783
X1.1194 Y1.277 Z0.1249
X1.1199 Y1.2763 Z0.1256
X1.1203 Y1.2759 Z0.1265
X1.1204 Y1.2757 Z0.1277
G0 Z0.337
X1.7856 Y1.6332
Z0.2386
G3 X1.7585 Y1.6451 Z0.2369 I-0.0136 J0.006 F14.
X1.7856 Y1.6332 Z0.2353 I0.0136 J-0.006
X1.7585 Y1.6451 Z0.2337 I-0.0136 J0.006
X1.7856 Y1.6332 Z0.2321 I0.0136 J-0.006
X1.7585 Y1.6451 Z0.2304 I-0.0136 J0.006
X1.7856 Y1.6332 Z0.2288 I0.0136 J-0.006
X1.7585 Y1.6451 Z0.2272 I-0.0136 J0.006
X1.7856 Y1.6332 Z0.2256 I0.0136 J-0.006
X1.7585 Y1.6451 Z0.2239 I-0.0136 J0.006
X1.7856 Y1.6332 Z0.2223 I0.0136 J-0.006
X1.7585 Y1.6451 Z0.2207 I-0.0136 J0.006
X1.7856 Y1.6332 Z0.2191 I0.0136 J-0.006
X1.7585 Y1.6451 Z0.2174 I-0.0136 J0.006
X1.7856 Y1.6332 Z0.2158 I0.0136 J-0.006
X1.7585 Y1.6451 Z0.2142 I-0.0136 J0.006
X1.7856 Y1.6332 Z0.2126 I0.0136 J-0.006
X1.7585 Y1.6451 Z0.2109 I-0.0136 J0.006
X1.7856 Y1.6332 Z0.2093 I0.0136 J-0.006
X1.7585 Y1.6451 Z0.2077 I-0.0136 J0.006
X1.7856 Y1.6332 Z0.206 I0.0136 J-0.006
X1.7585 Y1.6451 Z0.2044 I-0.0136 J0.006
X1.7856 Y1.6332 Z0.2028 I0.0136 J-0.006
X1.7585 Y1.6451 Z0.2012 I-0.0136 J0.006
X1.7856 Y1.6332 Z0.1995 I0.0136 J-0.006
X1.7585 Y1.6451 Z0.1979 I-0.0136 J0.006
X1.7856 Y1.6332 Z0.1963 I0.0136 J-0.006
X1.7585 Y1.6451 Z0.1947 I-0.0136 J0.006
X1.7856 Y1.6332 Z0.193 I0.0136 J-0.006
X1.7585 Y1.6451 Z0.1914 I-0.0136 J0.006
X1.7856 Y1.6332 Z0.1898 I0.0136 J-0.006
X1.7585 Y1.6451 Z0.1882 I-0.0136 J0.006
X1.7856 Y1.6332 Z0.1865 I0.0136 J-0.006
X1.7585 Y1.6451 Z0.1849 I-0.0136 J0.006
X1.7856 Y1.6332 Z0.1833 I0.0136 J-0.006
X1.7585 Y1.6451 Z0.1817 I-0.0136 J0.006
X1.7856 Y1.6332 Z0.18 I0.0136 J-0.006
X1.7585 Y1.6451 Z0.1784 I-0.0136 J0.006
X1.7856 Y1.6332 Z0.1768 I0.0136 J-0.006
X1.7585 Y1.6451 Z0.1752 I-0.0136 J0.006
X1.7856 Y1.6332 Z0.1735 I0.0136 J-0.006
X1.7585 Y1.6451 Z0.1719 I-0.0136 J0.006
X1.7856 Y1.6332 Z0.1703 I0.0136 J-0.006
X1.7585 Y1.6451 Z0.1687 I-0.0136 J0.006
X1.7856 Y1.6332 Z0.167 I0.0136 J-0.006
X1.7585 Y1.6451 Z0.1654 I-0.0136 J0.006
X1.7856 Y1.6332 Z0.1638 I0.0136 J-0.006
X1.7585 Y1.6451 Z0.1622 I-0.0136 J0.006
X1.7856 Y1.6332 Z0.1605 I0.0136 J-0.006
X1.7585 Y1.6451 Z0.1589 I-0.0136 J0.006
X1.7856 Y1.6332 Z0.1573 I0.0136 J-0.006
X1.7585 Y1.6451 Z0.1556 I-0.0136 J0.006
X1.7856 Y1.6332 Z0.154 I0.0136 J-0.006
X1.7585 Y1.6451 Z0.1524 I-0.0136 J0.006
X1.7856 Y1.6332 Z0.1508 I0.0136 J-0.006
X1.7585 Y1.6451 Z0.1491 I-0.0136 J0.006
X1.7856 Y1.6332 Z0.1475 I0.0136 J-0.006
X1.7585 Y1.6451 Z0.1459 I-0.0136 J0.006
X1.7856 Y1.6332 Z0.1443 I0.0136 J-0.006
X1.7585 Y1.6451 Z0.1426 I-0.0136 J0.006
X1.7856 Y1.6332 Z0.141 I0.0136 J-0.006
X1.7585 Y1.6451 Z0.1394 I-0.0136 J0.006
X1.7856 Y1.6332 Z0.1378 I0.0136 J-0.006
X1.7585 Y1.6451 Z0.1361 I-0.0136 J0.006
X1.7856 Y1.6332 Z0.1345 I0.0136 J-0.006
X1.7585 Y1.6451 Z0.1329 I-0.0136 J0.006
X1.7856 Y1.6332 Z0.1313 I0.0136 J-0.006
X1.7585 Y1.6451 Z0.1296 I-0.0136 J0.006
X1.7856 Y1.6332 Z0.128 I0.0136 J-0.006
X1.7585 Y1.6451 Z0.1264 I-0.0136 J0.006
X1.7856 Y1.6332 Z0.1248 I0.0136 J-0.006
X1.7869 Y1.6392 Z0.1245 I-0.0136 J0.006
X1.7572 I-0.0148 J0.
X1.7869 I0.0148 J0.
G1 X1.7881 Y1.6467
X1.7884 Y1.6497
X1.7869 Y1.6554
X1.7829 Y1.6598
X1.7777 Y1.6625
X1.7719 Y1.6635
X1.766 Y1.663
X1.7605 Y1.661
X1.7556 Y1.6576
X1.7516 Y1.6532
X1.7489 Y1.648
X1.7474 Y1.6423
Y1.6364
X1.7487 Y1.6306
X1.7514 Y1.6254
X1.7552 Y1.6209
X1.76 Y1.6174
X1.7655 Y1.6152
X1.7713 Y1.6143
X1.7772 Y1.6148
X1.7828 Y1.6167
X1.7878 Y1.6199
X1.7919 Y1.6241
X1.7949 Y1.6292
X1.797 Y1.6347
X1.7985 Y1.6404
X1.799 Y1.6463
X1.7987 Y1.6522
X1.7968 Y1.6578
X1.7938 Y1.6629
X1.7897 Y1.6672
X1.7848 Y1.6704
X1.7793 Y1.6727
X1.7735 Y1.6737
X1.7676
X1.7618 Y1.6727
X1.7563 Y1.6706
X1.7512 Y1.6675
X1.7467 Y1.6637
X1.7429 Y1.6592
X1.74 Y1.6541
X1.738 Y1.6485
X1.7368 Y1.6427
X1.7367 Y1.6368
X1.7376 Y1.631
X1.7394 Y1.6254
X1.7421 Y1.6201
X1.7457 Y1.6154
X1.7501 Y1.6114
X1.7549 Y1.6081
X1.7603 Y1.6057
X1.7661 Y1.6043
X1.7719 Y1.6037
X1.7778 Y1.6042
X1.7835 Y1.6057
X1.789 Y1.608
X1.7939 Y1.6112
X1.7982 Y1.6153
X1.8019 Y1.6199
X1.8048 Y1.625
X1.8072 Y1.6304
X1.8089 Y1.6361
X1.8098 Y1.6419
X1.81 Y1.6478
X1.8093 Y1.6537
X1.8077 Y1.6594
X1.8053 Y1.6648
X1.8021 Y1.6697
X1.7981 Y1.674
X1.7934 Y1.6777
X1.7883 Y1.6807
X1.7828 Y1.6829
X1.7771 Y1.6842
X1.7712 Y1.6847
X1.7653 Y1.6844
X1.7595 Y1.6833
X1.7539 Y1.6815
X1.7486 Y1.6788
X1.7437 Y1.6756
X1.7392 Y1.6717
X1.7353 Y1.6673
X1.732 Y1.6624
X1.7294 Y1.6571
X1.7274 Y1.6516
X1.7261 Y1.6458
X1.7257 Y1.6399
X1.726 Y1.634
X1.727 Y1.6282
X1.7287 Y1.6225
X1.7312 Y1.6172
X1.7343 Y1.6122
X1.738 Y1.6076
X1.7423 Y1.6035
X1.7471 Y1.6
X1.7523 Y1.5972
X1.7577 Y1.595
X1.7635 Y1.5935
X1.7693 Y1.5928
X1.7752
X1.7811 Y1.5936
X1.7868 Y1.5951
X1.7923 Y1.5973
X1.7974 Y1.6002
X1.8021 Y1.6038
X1.8064 Y1.6079
X1.8102 Y1.6124
X1.8134 Y1.6173
X1.8161 Y1.6226
X1.8183 Y1.6281
X1.8199 Y1.6338
X1.8209 Y1.6396
X1.8213 Y1.6455
X1.8209 Y1.6514
X1.8199 Y1.6572
X1.8183 Y1.6629
X1.816 Y1.6683
X1.813 Y1.6734
X1.8094 Y1.6781
X1.8053 Y1.6824
X1.8008 Y1.6861
X1.7958 Y1.6893
X1.7905 Y1.6919
X1.7849 Y1.6938
X1.7791 Y1.6951
X1.7733 Y1.6958
X1.7674
X1.7615 Y1.6951
X1.7557 Y1.6939
X1.7501 Y1.692
X1.7448 Y1.6896
X1.7397 Y1.6865
X1.7349 Y1.683
X1.7306 Y1.679
X1.728 Y1.6761
X1.7276 Y1.6755
X1.7272 Y1.6749
X1.7269 Y1.6742
X1.7189 Y1.6563
X1.7168 Y1.6508
X1.7154 Y1.6451
X1.7148 Y1.6392
X1.7149 Y1.6333
X1.7157 Y1.6275
X1.7172 Y1.6217
X1.7192 Y1.6162
X1.7218 Y1.6109
X1.725 Y1.6059
X1.7286 Y1.6012
X1.7327 Y1.597
X1.7372 Y1.5932
X1.7421 Y1.5899
X1.7452 Y1.5882
X1.746 Y1.5878
X1.7469 Y1.5875
X1.7479 Y1.5874
X1.7505 Y1.5871
X1.7548 Y1.5862
X1.7563 Y1.5858
X1.7578 Y1.5852
X1.7634 Y1.5833
X1.7692 Y1.5822
X1.7751 Y1.5819
X1.781 Y1.5824
X1.7868 Y1.5835
X1.7925 Y1.5853
X1.7979 Y1.5876
X1.803 Y1.5905
X1.8079 Y1.5939
X1.8123 Y1.5978
X1.8164 Y1.6021
X1.82 Y1.6067
X1.8233 Y1.6117
X1.8261 Y1.6169
X1.827 Y1.6191
X1.8273 Y1.62
X1.8275 Y1.621
X1.8276 Y1.622
Y1.6587
X1.8273 Y1.6646
X1.826 Y1.6704
X1.8238 Y1.6758
X1.8209 Y1.681
X1.8174 Y1.6857
X1.8134 Y1.6901
X1.809 Y1.694
X1.8042 Y1.6974
X1.799 Y1.7003
X1.7937 Y1.7028
X1.7881 Y1.7047
X1.7823 Y1.7061
X1.7765 Y1.707
X1.7706 Y1.7072
X1.7647 Y1.707
X1.7588 Y1.7062
X1.7531 Y1.705
X1.7474 Y1.7032
X1.742 Y1.7009
X1.74 Y1.6999
X1.7386 Y1.699
X1.7375 Y1.6978
X1.7367 Y1.6964
X1.7365 Y1.6952
X1.7367 Y1.694
X1.7374 Y1.693
X1.7384 Y1.6924
X1.7624 Y1.6821
X1.8004 Y1.6657
X1.8233 Y1.6559
X1.8244 Y1.6557
X1.8256 Y1.6559
X1.8266 Y1.6565
X1.8273 Y1.6575
X1.8276 Y1.6587
Y1.6802
X1.8273 Y1.6861
X1.825 Y1.6915
X1.8217 Y1.6964
X1.8177 Y1.7007
X1.8133 Y1.7046
X1.8084 Y1.708
X1.8033 Y1.7109
X1.7979 Y1.7134
X1.7924 Y1.7154
X1.7867 Y1.7169
X1.7809 Y1.718
X1.7748 Y1.7186
X1.7686 Y1.7188
X1.7623 Y1.7184
X1.7561 Y1.7175
X1.75 Y1.7161
X1.7479 Y1.7155
X1.7461 Y1.7146
X1.7445 Y1.7133
X1.7434 Y1.7115
X1.7432 Y1.7103
X1.7435 Y1.7091
X1.7442 Y1.7081
X1.7452 Y1.7074
X1.7695 Y1.6981
X1.8001 Y1.6863
X1.8234 Y1.6774
X1.8245 Y1.6771
X1.8257 Y1.6774
X1.8267 Y1.678
X1.8273 Y1.679
X1.8276 Y1.6802
Y1.6954
X1.8273 Y1.7013
X1.8247 Y1.7066
X1.8211 Y1.7112
X1.8167 Y1.7152
X1.8119 Y1.7187
X1.8068 Y1.7217
X1.8015 Y1.7242
X1.7957 Y1.7264
X1.7896 Y1.7281
X1.7831 Y1.7294
X1.7765 Y1.7302
X1.7696 Y1.7305
X1.7625 Y1.7302
X1.7566 Y1.7295
X1.7546 Y1.7291
X1.7524 Y1.7283
X1.7507 Y1.7268
X1.7494 Y1.7249
X1.7492 Y1.7237
X1.7494 Y1.7225
X1.7501 Y1.7215
X1.7512 Y1.7208
X1.7754 Y1.7114
X1.8001 Y1.7017
X1.8234 Y1.6926
X1.8245 Y1.6924
X1.8257 Y1.6926
X1.8267 Y1.6933
X1.8273 Y1.6942
X1.8276 Y1.6954
Y1.7102
X1.8273 Y1.7161
X1.8242 Y1.7211
X1.8202 Y1.7254
X1.8155 Y1.7291
X1.8105 Y1.7322
X1.8052 Y1.7349
X1.7994 Y1.7373
X1.7932 Y1.7392
X1.7864 Y1.7408
X1.7792 Y1.7418
X1.7715 Y1.7423
X1.765 Y1.7422
X1.761 Y1.7418
X1.7585 Y1.7411
X1.7564 Y1.7396
X1.755 Y1.7375
X1.7548 Y1.7363
X1.755 Y1.7351
X1.7557 Y1.7341
X1.7568 Y1.7334
X1.781 Y1.724
X1.8001 Y1.7165
X1.8234 Y1.7074
X1.8245 Y1.7072
X1.8257 Y1.7074
X1.8267 Y1.7081
X1.8273 Y1.709
X1.8276 Y1.7102
Y1.7231
X1.8273 Y1.729
X1.8242 Y1.734
X1.82 Y1.7382
X1.8153 Y1.7417
X1.8103 Y1.7448
X1.8049 Y1.7473
X1.7989 Y1.7495
X1.792 Y1.7515
X1.7845 Y1.753
X1.7769 Y1.7539
X1.771 Y1.7541
X1.7667 Y1.7539
X1.7641 Y1.7533
X1.7619 Y1.7518
X1.7604 Y1.7496
X1.7601 Y1.7484
X1.7604 Y1.7472
X1.7611 Y1.7462
X1.7621 Y1.7455
X1.7862 Y1.7356
X1.8003 Y1.7298
X1.8233 Y1.7203
X1.8245 Y1.72
X1.8256 Y1.7203
X1.8266 Y1.7209
X1.8273 Y1.7219
X1.8276 Y1.7231
Y1.7359
X1.8275 Y1.7389
X1.8253 Y1.7444
X1.8216 Y1.749
X1.8171 Y1.7528
X1.8121 Y1.7559
X1.8068 Y1.7586
X1.8006 Y1.761
X1.7942 Y1.7629
X1.7869 Y1.7645
X1.78 Y1.7654
X1.7741 Y1.7658
X1.7718 Y1.7656
X1.7692 Y1.765
X1.7671 Y1.7635
X1.7656 Y1.7613
X1.7654 Y1.7601
X1.7656 Y1.759
X1.7663 Y1.758
X1.7672 Y1.7573
X1.7912 Y1.747
X1.8004 Y1.743
X1.8233 Y1.7332
X1.8244 Y1.7329
X1.8256 Y1.7331
X1.8266 Y1.7338
X1.8273 Y1.7348
X1.8276 Y1.7359
Y1.7469
X1.8273 Y1.7528
X1.8245 Y1.7579
X1.8204 Y1.7623
X1.8157 Y1.7658
X1.8146 Y1.7665
X1.8134 Y1.7671
X1.8122 Y1.7674
X1.8109 Y1.7675
X1.8096 Y1.7672
X1.8086 Y1.7663
X1.808 Y1.7651
Y1.7637
X1.8086 Y1.7625
X1.822 Y1.7451
X1.823 Y1.7442
X1.8242 Y1.7439
X1.8254 Y1.744
X1.8265 Y1.7446
X1.8273 Y1.7456
X1.8276 Y1.7469
Y1.7603
Y1.7617
Y1.7628
Y1.7631
X1.8272 Y1.7647
X1.8264 Y1.7661
X1.8252 Y1.7672
X1.8238 Y1.7675
X1.8224 Y1.7673
X1.8211 Y1.7668
X1.8198 Y1.7658
X1.819 Y1.7643
X1.8188 Y1.7627
X1.8193 Y1.7611
X1.8203 Y1.7597
X1.8217 Y1.7589
X1.8233 Y1.7586
X1.8249 Y1.759
X1.8263 Y1.7599
X1.8272 Y1.7612
X1.8276 Y1.7628
Y1.7643
X1.8275 Y1.7649
X1.8272 Y1.7654
X1.8269 Y1.766
X1.8265 Y1.7664
X1.826 Y1.7667
X1.8252 Y1.7672
X1.8247 Y1.7674
X1.8243 Y1.7675
X1.8234
X1.7704
X1.7699 Y1.7674
X1.7694 Y1.7673
X1.7688 Y1.767
X1.7683 Y1.7666
X1.7677 Y1.7658
X1.7674 Y1.7653
X1.7269 Y1.6742
X1.7266 Y1.673
X1.7268 Y1.6718
X1.7275 Y1.6708
X1.7285 Y1.6701
X1.7297 Y1.6698
X1.7309 Y1.6701
X1.7419 Y1.6745
X1.743 Y1.6752
X1.7437 Y1.6763
X1.7438 Y1.6776
X1.7435 Y1.6789
X1.7426 Y1.6798
X1.7414 Y1.6804
X1.7401
X1.7389 Y1.6799
G3 X1.7189 Y1.6563 I0.036 J-0.0509
G1 X1.7094 Y1.6349
X1.7072 Y1.6294
X1.7069 Y1.6235
X1.7077 Y1.6176
X1.7093 Y1.612
X1.7116 Y1.6065
X1.7145 Y1.6013
X1.7178 Y1.5965
X1.7217 Y1.592
X1.7259 Y1.5878
X1.7267 Y1.5871
X1.7288 Y1.5859
X1.7311 Y1.5855
X1.7335 Y1.5858
X1.7377 Y1.5869
X1.742 Y1.5875
X1.7463
X1.7479 Y1.5874
X1.7491 Y1.5875
X1.7501 Y1.5881
X1.7509 Y1.5891
X1.7512 Y1.5902
X1.7511 Y1.5914
X1.7505 Y1.5925
X1.7353 Y1.6106
X1.7304 Y1.6166
X1.7146 Y1.6355
X1.7136 Y1.6363
X1.7124 Y1.6366
X1.7112 Y1.6365
X1.7101 Y1.6359
X1.7094 Y1.6349
X1.7028 Y1.6201
X1.7007 Y1.6146
X1.7008 Y1.6087
X1.7021 Y1.6029
X1.7044 Y1.5975
X1.7073 Y1.5923
X1.7107 Y1.5875
X1.7146 Y1.5831
X1.7161 Y1.5818
X1.7189 Y1.5804
X1.722 Y1.5802
X1.7248 Y1.5814
X1.7291 Y1.5839
X1.7313 Y1.5849
X1.7335 Y1.5858
X1.7345 Y1.5864
X1.7353 Y1.5874
X1.7356 Y1.5885
X1.7354 Y1.5897
X1.7348 Y1.5908
X1.7245 Y1.6023
X1.7079 Y1.6208
X1.7069 Y1.6215
X1.7058 Y1.6218
X1.7046 Y1.6217
X1.7035 Y1.6211
X1.7028 Y1.6201
X1.6971 Y1.6072
X1.6949 Y1.6017
X1.6953 Y1.5958
X1.697 Y1.5902
X1.6996 Y1.5848
X1.7028 Y1.5799
X1.7069 Y1.5757
X1.709 Y1.5743
X1.7122 Y1.5732
X1.7156 Y1.5737
X1.7184 Y1.5756
X1.7198 Y1.5772
X1.7205 Y1.5779
X1.7248 Y1.5814
X1.7257 Y1.5824
X1.7261 Y1.5837
X1.7259 Y1.585
X1.7251 Y1.5862
X1.7202 Y1.5909
X1.702 Y1.6081
X1.701 Y1.6087
X1.6999 Y1.609
X1.6987 Y1.6088
X1.6977 Y1.6082
X1.6971 Y1.6072
X1.6917 Y1.5952
X1.6896 Y1.5897
X1.6901 Y1.5838
X1.6921 Y1.5783
X1.6951 Y1.5732
X1.6991 Y1.5688
X1.703 Y1.5663
X1.7068 Y1.565
X1.7107 Y1.5659
X1.7136 Y1.5686
X1.7162 Y1.573
X1.7179 Y1.5751
X1.7184 Y1.5756
X1.719 Y1.5767
X1.7191 Y1.578
X1.7187 Y1.5792
X1.7179 Y1.5801
X1.7167 Y1.581
X1.6964 Y1.5963
X1.6952 Y1.5969
X1.6938
X1.6926 Y1.5963
X1.6917 Y1.5952
X1.6868 Y1.5842
X1.6847 Y1.5787
X1.6853 Y1.5728
X1.6876 Y1.5674
X1.6912 Y1.5627
X1.6957 Y1.5589
X1.701 Y1.5563
X1.7023 Y1.5562
X1.7055 Y1.5564
X1.7082 Y1.558
X1.7101 Y1.5606
X1.712 Y1.5651
X1.7136 Y1.5686
X1.7138 Y1.5697
X1.7137 Y1.5708
X1.7132 Y1.5718
X1.7123 Y1.5725
X1.6912 Y1.5855
X1.69 Y1.5859
X1.6887 Y1.5858
X1.6876 Y1.5852
X1.6868 Y1.5842
X1.6819 Y1.5732
X1.6809 Y1.5705
X1.6806 Y1.5646
X1.6827 Y1.559
X1.6861 Y1.5542
X1.6905 Y1.5503
X1.6958 Y1.5476
X1.6981 Y1.5471
X1.7014 Y1.5472
X1.7044 Y1.5488
X1.7063 Y1.5515
X1.7101 Y1.5606
X1.7103 Y1.5617
X1.71 Y1.5629
X1.7094 Y1.5638
X1.7084 Y1.5645
X1.686 Y1.5747
X1.6849 Y1.575
X1.6837 Y1.5748
X1.6827 Y1.5742
X1.6819 Y1.5732
X1.678 Y1.5643
X1.6758 Y1.5588
X1.6767 Y1.553
X1.6794 Y1.5477
X1.6834 Y1.5434
X1.6883 Y1.54
X1.6938 Y1.5379
X1.6951 Y1.5378
X1.6981 Y1.5381
X1.7008 Y1.5397
X1.7025 Y1.5422
X1.7063 Y1.5515
X1.7065 Y1.5526
X1.7063 Y1.5538
X1.7056 Y1.5548
X1.7047 Y1.5554
X1.6821 Y1.5658
X1.6809 Y1.5661
X1.6797 Y1.5659
X1.6787 Y1.5653
X1.678 Y1.5643
X1.6734 Y1.554
X1.6723 Y1.5512
Y1.5453
X1.6746 Y1.5399
X1.6782 Y1.5352
X1.6828 Y1.5316
X1.6882 Y1.529
X1.6906 Y1.5286
X1.6939 Y1.5287
X1.6967 Y1.5303
X1.6986 Y1.5329
X1.7025 Y1.5422
X1.7027 Y1.5434
X1.7024 Y1.5446
X1.7017 Y1.5456
X1.7007 Y1.5462
X1.6773 Y1.5555
X1.6762 Y1.5557
X1.675 Y1.5555
X1.6741 Y1.5549
X1.6734 Y1.554
X1.6696 Y1.5456
X1.6686 Y1.5428
X1.6681 Y1.537
X1.6701 Y1.5314
X1.6736 Y1.5267
X1.678 Y1.5228
X1.6833 Y1.5201
X1.6864 Y1.5193
X1.6897 Y1.5194
X1.6927 Y1.5209
X1.6947 Y1.5236
X1.6986 Y1.5329
X1.6988 Y1.5341
X1.6986 Y1.5353
X1.6979 Y1.5362
X1.697 Y1.5369
X1.6737 Y1.5471
X1.6725 Y1.5474
X1.6714 Y1.5472
X1.6704 Y1.5465
X1.6696 Y1.5456
X1.6648 Y1.5347
X1.6637 Y1.5319
X1.6642 Y1.526
X1.6667 Y1.5207
X1.6706 Y1.5162
X1.6753 Y1.5127
X1.6807 Y1.5104
X1.6829 Y1.51
X1.6861 Y1.5102
X1.6889 Y1.5117
X1.6908 Y1.5143
X1.6947 Y1.5236
X1.6949 Y1.5248
X1.6946 Y1.526
X1.6939 Y1.527
X1.6929 Y1.5277
X1.6686 Y1.5363
X1.6675 Y1.5364
X1.6664 Y1.5362
X1.6655 Y1.5356
X1.6648 Y1.5347
X1.6612 Y1.5266
X1.6601 Y1.5238
X1.6599 Y1.5179
X1.6622 Y1.5124
X1.6658 Y1.5078
X1.6703 Y1.504
X1.6756 Y1.5014
X1.6785 Y1.5007
X1.6818 Y1.5008
X1.6848 Y1.5023
X1.6868 Y1.505
X1.6908 Y1.5143
X1.691 Y1.5155
X1.6907 Y1.5167
X1.6901 Y1.5177
X1.6891 Y1.5183
X1.6652 Y1.5281
X1.664 Y1.5283
X1.6629 Y1.5281
X1.6619 Y1.5275
X1.6612 Y1.5266
X1.657 Y1.5171
X1.656 Y1.5144
X1.6559 Y1.5085
X1.6582 Y1.503
X1.6619 Y1.4984
X1.6665 Y1.4946
X1.6718 Y1.492
X1.6745 Y1.4915
X1.6778
X1.6807 Y1.493
X1.6827 Y1.4956
X1.6868 Y1.505
X1.687 Y1.5061
X1.6867 Y1.5073
X1.686 Y1.5083
X1.685 Y1.509
X1.661 Y1.5187
X1.6599 Y1.5189
X1.6587 Y1.5187
X1.6577 Y1.5181
X1.657 Y1.5171
X1.6533 Y1.5085
X1.6523 Y1.5058
X1.6518 Y1.4999
X1.6539 Y1.4944
X1.6574 Y1.4896
X1.6618 Y1.4857
X1.6671 Y1.483
X1.6702 Y1.4822
X1.6735
X1.6766 Y1.4837
X1.6786 Y1.4863
X1.6827 Y1.4956
X1.6829 Y1.4968
X1.6827 Y1.498
X1.682 Y1.499
X1.681 Y1.4997
X1.6574 Y1.5101
X1.6562 Y1.5103
X1.655 Y1.5101
X1.654 Y1.5095
X1.6533 Y1.5085
X1.6515 Y1.5043
X1.6491 Y1.4987
X1.6481 Y1.4959
X1.6479 Y1.49
X1.6502 Y1.4845
X1.6538 Y1.4799
X1.6584 Y1.4761
X1.6637 Y1.4735
X1.6663 Y1.473
X1.6696
X1.6725 Y1.4745
X1.6745 Y1.4771
X1.6786 Y1.4863
X1.6788 Y1.4875
X1.6786 Y1.4887
X1.6779 Y1.4897
X1.6769 Y1.4904
X1.6531 Y1.5002
X1.652 Y1.5005
X1.6508 Y1.5003
X1.6498 Y1.4996
X1.6491 Y1.4987
X1.6448 Y1.4884
X1.6438 Y1.4857
X1.6442 Y1.4798
X1.6467 Y1.4744
X1.6505 Y1.4699
X1.6552 Y1.4664
X1.6606 Y1.464
X1.6625 Y1.4637
X1.6656 Y1.4639
X1.6684 Y1.4653
X1.6703 Y1.4679
X1.6745 Y1.4771
X1.6747 Y1.4783
X1.6745 Y1.4795
X1.6737 Y1.4805
X1.6727 Y1.4812
X1.6488 Y1.4901
X1.6476 Y1.4903
X1.6465 Y1.49
X1.6455 Y1.4894
X1.6448 Y1.4884
X1.6411 Y1.4794
X1.6401 Y1.4766
X1.6403 Y1.4707
X1.6427 Y1.4653
X1.6465 Y1.4608
X1.6511 Y1.4571
X1.6566 Y1.4548
X1.6583 Y1.4545
X1.6614 Y1.4547
X1.6642 Y1.4562
X1.6661 Y1.4587
X1.6703 Y1.4679
X1.6705 Y1.4691
X1.6703 Y1.4703
X1.6696 Y1.4713
X1.6685 Y1.472
X1.6451 Y1.481
X1.6439 Y1.4812
X1.6428 Y1.481
X1.6418 Y1.4803
X1.6411 Y1.4794
X1.639 Y1.4742
X1.6374 Y1.4699
X1.6365 Y1.4671
X1.6366 Y1.4612
X1.639 Y1.4558
X1.6428 Y1.4513
X1.6475 Y1.4477
X1.653 Y1.4455
X1.6543 Y1.4453
X1.6574 Y1.4456
X1.6601 Y1.447
X1.6619 Y1.4495
X1.6661 Y1.4587
X1.6663 Y1.4599
X1.6661 Y1.4611
X1.6654 Y1.4621
X1.6643 Y1.4628
X1.6414 Y1.4716
X1.6402 Y1.4718
X1.639 Y1.4716
X1.638 Y1.4709
X1.6374 Y1.4699
X1.6336 Y1.4601
X1.6327 Y1.4573
X1.633 Y1.4514
X1.6356 Y1.446
X1.6395 Y1.4416
X1.6443 Y1.4382
X1.6498 Y1.4361
X1.6505
X1.6534 Y1.4364
X1.656 Y1.4379
X1.6577 Y1.4403
X1.6619 Y1.4495
X1.6621 Y1.4507
X1.6619 Y1.4519
X1.6611 Y1.453
X1.6601 Y1.4536
X1.6375 Y1.4618
X1.6364 Y1.462
X1.6352 Y1.4617
X1.6342 Y1.461
X1.6336 Y1.4601
X1.6301 Y1.4509
X1.6292 Y1.4481
X1.6294 Y1.4422
X1.6319 Y1.4369
X1.6358 Y1.4324
X1.6406 Y1.4289
X1.6461 Y1.4269
X1.6465
X1.6493 Y1.4273
X1.6518 Y1.4288
X1.6535 Y1.4311
X1.6577 Y1.4403
X1.6579 Y1.4415
X1.6577 Y1.4427
X1.657 Y1.4438
X1.6559 Y1.4444
X1.634 Y1.4526
X1.6329 Y1.4528
X1.6317 Y1.4526
X1.6307 Y1.4519
X1.6301 Y1.4509
X1.6262 Y1.4407
X1.6253 Y1.4379
X1.6259 Y1.4321
X1.6287 Y1.4268
X1.6327 Y1.4226
X1.6377 Y1.4193
X1.6407 Y1.4184
X1.6442 Y1.4182
X1.6473 Y1.4196
X1.6495 Y1.4223
X1.6535 Y1.4311
X1.6537 Y1.4324
X1.6535 Y1.4336
X1.6527 Y1.4346
X1.6516 Y1.4353
X1.6301 Y1.4425
X1.6289 Y1.4426
X1.6278 Y1.4424
X1.6268 Y1.4417
X1.6262 Y1.4407
X1.6242 Y1.4356
X1.6228 Y1.4322
X1.6218 Y1.4294
X1.6221 Y1.4235
X1.6246 Y1.4182
X1.6285 Y1.4137
X1.6335 Y1.4105
X1.6365 Y1.4095
X1.64 Y1.4093
X1.6432 Y1.4107
X1.6454 Y1.4134
X1.6495 Y1.4223
X1.6497 Y1.4235
X1.6494 Y1.4248
X1.6487 Y1.4258
X1.6476 Y1.4264
X1.6267 Y1.4338
X1.6256 Y1.434
X1.6244 Y1.4338
X1.6235 Y1.4331
X1.6228 Y1.4322
X1.6205 Y1.427
X1.6192 Y1.4249
X1.6177 Y1.4224
X1.6172 Y1.4165
X1.6192 Y1.4109
X1.6228 Y1.4062
X1.6274 Y1.4026
X1.6329 Y1.4002
X1.6339 Y1.4001
X1.6369 Y1.4005
X1.6395 Y1.402
X1.6413 Y1.4044
X1.6454 Y1.4134
X1.6457 Y1.4146
X1.6454 Y1.4158
X1.6447 Y1.4168
X1.6437 Y1.4175
X1.6229 Y1.4259
X1.6216 Y1.4261
X1.6203 Y1.4258
X1.6192 Y1.4249
X1.6176 Y1.4226
X1.6146 Y1.4193
X1.6127 Y1.417
X1.6112 Y1.4113
X1.6124 Y1.4055
X1.6153 Y1.4004
X1.6194 Y1.3962
X1.6243 Y1.3928
X1.6299 Y1.3909
X1.6301
X1.633 Y1.3913
X1.6354 Y1.3928
X1.6371 Y1.3951
X1.6413 Y1.4044
X1.6415 Y1.4055
X1.6413 Y1.4066
X1.6408 Y1.4076
X1.6399 Y1.4083
X1.6183 Y1.4199
X1.617 Y1.4202
X1.6157 Y1.42
X1.6146 Y1.4193
X1.6138 Y1.4185
X1.6133 Y1.418
X1.609 Y1.4146
X1.6067 Y1.4128
X1.6044 Y1.4073
X1.6048 Y1.4014
X1.6069 Y1.3959
X1.6103 Y1.3911
X1.6145 Y1.3869
X1.6194 Y1.3837
X1.6249 Y1.3816
X1.6256
X1.6286 Y1.3819
X1.6311 Y1.3834
X1.6328 Y1.3858
X1.6371 Y1.3951
X1.6373 Y1.3961
X1.6372 Y1.3972
X1.6367 Y1.3982
X1.6359 Y1.3989
X1.6352 Y1.3993
X1.6123 Y1.4145
X1.6112 Y1.4149
X1.6101 Y1.415
X1.609 Y1.4146
X1.6083 Y1.4142
X1.6048 Y1.4122
X1.6035 Y1.4117
X1.6008 Y1.4105
X1.5973 Y1.4057
X1.5965 Y1.3999
X1.5975 Y1.3941
X1.5998 Y1.3886
X1.603 Y1.3837
X1.6071 Y1.3794
X1.6118 Y1.3758
X1.6171 Y1.3731
X1.6202 Y1.3724
X1.6235
X1.6265 Y1.3738
X1.6285 Y1.3764
X1.6328 Y1.3858
X1.6331 Y1.3871
X1.6328 Y1.3883
X1.632 Y1.3894
X1.6275 Y1.3932
X1.6065 Y1.4111
X1.6056 Y1.4117
X1.6045 Y1.4119
X1.6035 Y1.4117
X1.6005 Y1.4105
X1.5982 Y1.4099
X1.5971 Y1.4096
X1.5942 Y1.4088
X1.5899 Y1.4048
X1.5881 Y1.3992
X1.588 Y1.3933
X1.5893 Y1.3875
X1.5916 Y1.3821
X1.5947 Y1.3771
X1.5986 Y1.3726
X1.603 Y1.3687
X1.608 Y1.3655
X1.6134 Y1.3633
X1.6162 Y1.3627
X1.6194 Y1.3629
X1.6222 Y1.3643
X1.6242 Y1.3669
X1.6285 Y1.3764
X1.6288 Y1.3776
X1.6286 Y1.3788
X1.6279 Y1.3798
X1.6193 Y1.3887
X1.5999 Y1.4087
X1.5991 Y1.4093
X1.5981 Y1.4096
X1.5971
X1.5962 Y1.4094
X1.594 Y1.4091
X1.5919 Y1.4089
X1.5906
X1.5876 Y1.4088
X1.5826 Y1.4056
X1.5797 Y1.4005
X1.5786 Y1.3947
X1.5787 Y1.3888
X1.5799 Y1.383
X1.582 Y1.3775
X1.5848 Y1.3723
X1.5883 Y1.3676
X1.5924 Y1.3633
X1.5969 Y1.3595
X1.6019 Y1.3563
X1.6073 Y1.3539
X1.613 Y1.3526
X1.6132
X1.6158 Y1.3531
X1.618 Y1.3546
X1.6196 Y1.3568
X1.6242 Y1.3669
X1.6244 Y1.368
X1.6242 Y1.3691
X1.6237 Y1.37
X1.6108 Y1.3859
X1.5929 Y1.4078
X1.5919 Y1.4086
X1.5906 Y1.4089
X1.5876
X1.5833 Y1.4094
X1.5818 Y1.4096
X1.579 Y1.4088
X1.574 Y1.4057
X1.5707 Y1.4007
X1.569 Y1.3951
X1.5685 Y1.3892
X1.569 Y1.3833
X1.5704 Y1.3776
X1.5725 Y1.3721
X1.5752 Y1.3668
X1.5785 Y1.3619
X1.5823 Y1.3574
X1.5866 Y1.3534
X1.5913 Y1.3497
X1.5963 Y1.3466
X1.6017 Y1.3442
X1.6074 Y1.3426
X1.6082
X1.611 Y1.3431
X1.6134 Y1.3446
X1.615 Y1.3469
X1.6196 Y1.3568
X1.6198 Y1.3578
X1.6197 Y1.3589
X1.6192 Y1.3598
X1.6032 Y1.3825
X1.6016 Y1.3847
X1.5851 Y1.4082
X1.5843 Y1.409
X1.5833 Y1.4094
X1.5813 Y1.4099
X1.579 Y1.4105
X1.5777 Y1.411
X1.5763 Y1.4115
X1.5734 Y1.4114
X1.5678 Y1.4096
X1.5635 Y1.4055
X1.5606 Y1.4004
X1.5588 Y1.3947
X1.5581 Y1.3889
X1.5582 Y1.383
X1.5591 Y1.3771
X1.5608 Y1.3715
X1.563 Y1.366
X1.5657 Y1.3608
X1.569 Y1.3558
X1.5726 Y1.3512
X1.5767 Y1.3469
X1.5812 Y1.343
X1.586 Y1.3396
X1.591 Y1.3366
X1.5964 Y1.3342
X1.6021 Y1.3326
X1.6035
X1.6063 Y1.333
X1.6088 Y1.3345
X1.6104 Y1.3368
X1.615 Y1.3469
X1.6153 Y1.3478
X1.6152 Y1.3488
X1.6148 Y1.3496
X1.6005 Y1.3737
X1.594 Y1.3848
X1.5792 Y1.4097
X1.5785 Y1.4105
X1.5777 Y1.411
X1.5747 Y1.4122
X1.5712 Y1.4142
X1.5699 Y1.4149
X1.564 Y1.4152
X1.5587 Y1.4126
X1.5544 Y1.4085
X1.5512 Y1.4036
X1.549 Y1.3981
X1.5477 Y1.3924
X1.5472 Y1.3865
X1.5474 Y1.3806
X1.5483 Y1.3747
X1.5497 Y1.369
X1.5511 Y1.365
X1.5512 Y1.3648
X1.5522 Y1.3627
X1.5565 Y1.3544
X1.5597 Y1.3493
X1.5632 Y1.3446
X1.5671 Y1.3402
X1.5714 Y1.3362
X1.576 Y1.3325
X1.5809 Y1.3292
X1.5861 Y1.3263
X1.5915 Y1.3239
X1.5972 Y1.3225
X1.5988 Y1.3224
X1.6017 Y1.3228
X1.6041 Y1.3243
X1.6058 Y1.3266
X1.606 Y1.328
X1.6057 Y1.3293
X1.6048 Y1.3303
X1.5834 Y1.3465
X1.5752 Y1.3527
X1.557 Y1.3664
X1.5557 Y1.3669
X1.5544
X1.5532 Y1.3663
X1.5523 Y1.3653
X1.552 Y1.364
X1.5522 Y1.3627
X1.5659 Y1.3327
X1.5686 Y1.3274
X1.5725 Y1.323
X1.5771 Y1.3192
X1.5821 Y1.3161
X1.5875 Y1.3137
X1.5933 Y1.3123
X1.5944
X1.5971 Y1.3128
X1.5995 Y1.3142
X1.6012 Y1.3165
X1.6014 Y1.3176
X1.6012 Y1.3188
X1.6007 Y1.3198
X1.5998 Y1.3205
X1.5907 Y1.3254
X1.5703 Y1.3366
X1.5691 Y1.337
X1.5678 Y1.3368
X1.5667 Y1.3362
X1.566 Y1.3351
X1.5657 Y1.3339
X1.5659 Y1.3327
X1.5734 Y1.3164
X1.5761 Y1.3111
X1.5803 Y1.307
X1.5855 Y1.3041
X1.5886 Y1.3033
X1.5919
X1.5949 Y1.3047
X1.597 Y1.3074
X1.5972 Y1.3085
X1.597 Y1.3096
X1.5964 Y1.3106
X1.5955 Y1.3113
X1.5776 Y1.3203
X1.5764 Y1.3207
X1.5752 Y1.3205
X1.5741 Y1.3198
X1.5734 Y1.3188
X1.5731 Y1.3176
X1.5734 Y1.3164
X1.579 Y1.3039
X1.5796 Y1.3026
X1.5802 Y1.3013
X1.5816 Y1.2987
X1.5833 Y1.2976
X1.5872 Y1.2964
X1.5912 Y1.2975
X1.5939 Y1.3006
X1.5942 Y1.3018
X1.594 Y1.3029
X1.5934 Y1.3039
X1.5924 Y1.3046
X1.5913 Y1.3049
X1.5834 Y1.3056
X1.5821 Y1.3055
X1.581 Y1.3048
X1.5803 Y1.3038
X1.58 Y1.3026
X1.5802 Y1.3013
X1.5833 Y1.2946
X1.5835 Y1.294
X1.5839 Y1.2934
X1.5843 Y1.2927
X1.5848 Y1.292
X1.5851
X1.5864 Y1.2923
X1.5874 Y1.293
X1.5881 Y1.2941
X1.5883 Y1.2954
X1.586 Y1.3207
X1.5857 Y1.3239
X1.5853 Y1.3252
X1.5844 Y1.3261
X1.5832 Y1.3267
X1.5819
X1.5807 Y1.3262
X1.5799 Y1.3252
X1.5795 Y1.324
G3 X1.5839 Y1.2934 I0.0619 J-0.0067
G1 X1.5842 Y1.2927
X1.5848 Y1.292
X1.5856 Y1.2913
X1.5861 Y1.291
X1.5871 Y1.2907
X1.588 Y1.291
X1.5887 Y1.2917
X1.5889 Y1.2926
X1.5886 Y1.2935
X1.5879 Y1.2942
X1.587 Y1.2944
X1.5861 Y1.2942
X1.5854 Y1.2935
X1.5852 Y1.2925
X1.5855 Y1.2917
X1.5861 Y1.291
X1.5866 Y1.2908
X1.5871 Y1.2907
X1.5876
X1.588 Y1.2908
X1.5884 Y1.2909
X1.5888 Y1.2911
X1.5893 Y1.2913
X1.5899 Y1.292
X1.5903 Y1.2927
X1.6104 Y1.3368
X1.6107 Y1.3381
X1.6103 Y1.3394
X1.5973 Y1.3645
X1.5857 Y1.3869
X1.5722 Y1.413
X1.5718 Y1.4137
X1.5712 Y1.4142
X1.5704 Y1.4147
X1.5662 Y1.4178
X1.5638 Y1.4196
X1.5579 Y1.4205
X1.5523 Y1.4186
X1.5476 Y1.4151
X1.5437 Y1.4107
X1.5407 Y1.4056
X1.5385 Y1.4001
X1.5379 Y1.398
X1.5377 Y1.3963
X1.5378 Y1.3947
X1.5383 Y1.3931
X1.5512 Y1.3648
X1.552 Y1.3638
X1.5531 Y1.3632
X1.5544 Y1.3631
X1.5556 Y1.3636
X1.5566 Y1.3645
X1.5571 Y1.3656
X1.5615 Y1.3877
X1.567 Y1.415
Y1.416
X1.5667 Y1.417
X1.5662 Y1.4178
X1.5655 Y1.4185
X1.5619 Y1.4224
X1.5599 Y1.4246
X1.5544 Y1.4268
X1.5485 Y1.4261
X1.5432 Y1.4236
X1.5385 Y1.42
X1.5345 Y1.4156
X1.5329 Y1.4132
X1.5319 Y1.4109
X1.5317 Y1.4085
X1.5324 Y1.4061
X1.5383 Y1.3931
X1.5391 Y1.3921
X1.5402 Y1.3915
X1.5415 Y1.3914
X1.5427 Y1.3918
X1.5437 Y1.3927
X1.5465 Y1.3967
X1.562 Y1.4187
X1.5625 Y1.4199
X1.5624 Y1.4213
X1.5619 Y1.4224
X1.5616 Y1.4227
X1.5601 Y1.4249
X1.5589 Y1.427
X1.5582 Y1.4284
X1.5567 Y1.4309
X1.5515 Y1.4339
X1.5456 Y1.4341
X1.5399 Y1.4326
X1.5347 Y1.4299
X1.53 Y1.4263
X1.5287 Y1.4247
X1.5272 Y1.4223
X1.5268 Y1.4196
X1.5275 Y1.4169
X1.5324 Y1.4061
X1.5331 Y1.4052
X1.5341 Y1.4046
X1.5352 Y1.4044
X1.5363 Y1.4046
X1.5373 Y1.4053
X1.5381 Y1.406
X1.5575 Y1.4248
X1.5583 Y1.4258
X1.5585 Y1.4271
X1.5582 Y1.4284
X1.5576 Y1.4295
X1.5555 Y1.4347
X1.5542 Y1.4374
X1.5497 Y1.4413
X1.544 Y1.4425
X1.5381 Y1.442
X1.5325 Y1.4402
X1.5273 Y1.4374
X1.5249 Y1.4353
X1.523 Y1.4329
X1.5223 Y1.4298
X1.5229 Y1.4268
X1.5275 Y1.4169
X1.5283 Y1.4158
X1.5295 Y1.4152
X1.5308
X1.532 Y1.4157
X1.5323 Y1.4158
X1.5543 Y1.4311
X1.5552 Y1.4321
X1.5556 Y1.4334
X1.5555 Y1.4347
X1.5523 Y1.443
X1.551 Y1.4457
X1.5465 Y1.4495
X1.5409 Y1.4511
X1.535
X1.5292 Y1.4498
X1.5238 Y1.4474
X1.5209 Y1.4453
X1.5187 Y1.4428
X1.5179 Y1.4396
X1.5186 Y1.4364
X1.5229 Y1.4268
X1.5237 Y1.4258
X1.5249 Y1.4252
X1.5261 Y1.4251
X1.5273 Y1.4255
X1.5279 Y1.4258
X1.5509 Y1.4392
X1.5517 Y1.4399
X1.5522 Y1.4409
X1.5524 Y1.4419
X1.5523 Y1.443
X1.549 Y1.4513
X1.5478 Y1.454
X1.5435 Y1.458
X1.5379 Y1.4599
X1.532 Y1.4603
X1.5262 Y1.4595
X1.5206 Y1.4574
X1.5156 Y1.4543
X1.5153 Y1.4539
X1.5139 Y1.4515
X1.5135 Y1.4488
X1.5141 Y1.446
X1.5186 Y1.4364
X1.5193 Y1.4354
X1.5204 Y1.4348
X1.5216 Y1.4347
X1.5227 Y1.435
X1.5239 Y1.4356
X1.5475 Y1.4474
X1.5484 Y1.4481
X1.549 Y1.4491
X1.5492 Y1.4502
X1.549 Y1.4513
X1.5458 Y1.4594
X1.5446 Y1.4621
X1.5407 Y1.4665
X1.5353 Y1.4689
X1.5294 Y1.4697
X1.5235 Y1.4692
X1.5179 Y1.4675
X1.5126 Y1.4648
X1.5116 Y1.4638
X1.5098 Y1.4614
X1.5092 Y1.4584
X1.5098 Y1.4554
X1.5141 Y1.446
X1.5148 Y1.4451
X1.5159 Y1.4445
X1.517 Y1.4443
X1.5181 Y1.4446
X1.5199 Y1.4453
X1.5441 Y1.4555
X1.5451 Y1.4562
X1.5457 Y1.4571
X1.546 Y1.4583
X1.5458 Y1.4594
X1.542 Y1.4691
X1.5408 Y1.4718
X1.5367 Y1.476
X1.5313 Y1.4783
X1.5254 Y1.4791
X1.5195 Y1.4786
X1.5138 Y1.4771
X1.5086 Y1.4744
X1.5073 Y1.4733
X1.5055 Y1.4708
X1.5049 Y1.4678
X1.5056 Y1.4648
X1.5098 Y1.4554
X1.5106 Y1.4545
X1.5116 Y1.4539
X1.5127 Y1.4537
X1.5139 Y1.454
X1.5162 Y1.4549
X1.5403 Y1.4652
X1.5413 Y1.4658
X1.5419 Y1.4668
X1.5422 Y1.4679
X1.542 Y1.4691
X1.54 Y1.4742
X1.5382 Y1.4785
X1.537 Y1.4812
X1.5329 Y1.4855
X1.5275 Y1.4878
X1.5216 Y1.4886
X1.5157 Y1.4882
X1.51 Y1.4868
X1.5047 Y1.4841
X1.5032 Y1.4828
X1.5013 Y1.4804
X1.5006 Y1.4774
X1.5012 Y1.4743
X1.5056 Y1.4648
X1.5063 Y1.4639
X1.5073 Y1.4633
X1.5084 Y1.4631
X1.5095 Y1.4634
X1.5124 Y1.4645
X1.5365 Y1.4746
X1.5375 Y1.4752
X1.5382 Y1.4762
X1.5384 Y1.4773
X1.5382 Y1.4785
X1.5341 Y1.4884
X1.5328 Y1.4911
X1.5286 Y1.4952
X1.5231 Y1.4974
X1.5173 Y1.4982
X1.5114 Y1.4977
X1.5057 Y1.4963
X1.5004 Y1.4936
X1.4989 Y1.4923
X1.4971 Y1.4899
X1.4964 Y1.4869
X1.497 Y1.4839
X1.5012 Y1.4743
X1.5019 Y1.4734
X1.5029 Y1.4728
X1.5041 Y1.4726
X1.5053 Y1.4728
X1.5084 Y1.4742
X1.5324 Y1.4844
X1.5334 Y1.4851
X1.5341 Y1.4861
X1.5343 Y1.4872
X1.5341 Y1.4884
X1.531 Y1.4957
X1.5297 Y1.4986
X1.5284 Y1.5013
X1.5239 Y1.5052
X1.5184 Y1.5072
X1.5125 Y1.5078
X1.5066 Y1.5072
X1.501 Y1.5056
X1.4958 Y1.5028
X1.4946 Y1.5018
X1.4928 Y1.4993
X1.4922 Y1.4964
X1.4928 Y1.4934
X1.497 Y1.4839
X1.4977 Y1.4829
X1.4987 Y1.4823
X1.4999 Y1.4821
X1.5011 Y1.4824
X1.5043 Y1.4838
X1.5281 Y1.4946
X1.5291 Y1.4953
X1.5297 Y1.4963
X1.5299 Y1.4975
X1.5297 Y1.4986
X1.5257 Y1.5077
X1.5244 Y1.5103
X1.5201 Y1.5144
X1.5146 Y1.5166
X1.5088 Y1.5173
X1.5029 Y1.5168
X1.4972 Y1.5153
X1.4919 Y1.5126
X1.4905 Y1.5114
X1.4887 Y1.509
X1.488 Y1.506
X1.4886 Y1.503
X1.4928 Y1.4934
X1.4935 Y1.4925
X1.4945 Y1.4918
X1.4957 Y1.4916
X1.4969 Y1.4919
X1.5001 Y1.4933
X1.524 Y1.5037
X1.525 Y1.5043
X1.5257 Y1.5053
X1.5259 Y1.5065
X1.5257 Y1.5077
X1.5216 Y1.5171
X1.5202 Y1.5198
X1.516 Y1.5239
X1.5105 Y1.5261
X1.5047 Y1.5268
X1.4988 Y1.5263
X1.4931 Y1.5249
X1.4878 Y1.5222
X1.4864 Y1.521
X1.4845 Y1.5186
X1.4838 Y1.5156
X1.4844 Y1.5126
X1.4886 Y1.503
X1.4893 Y1.502
X1.4903 Y1.5014
X1.4915 Y1.5012
X1.4926 Y1.5015
X1.4959 Y1.5029
X1.5199 Y1.5131
X1.5209 Y1.5138
X1.5216 Y1.5148
X1.5218 Y1.516
X1.5216 Y1.5171
X1.5172 Y1.527
X1.5158 Y1.5296
X1.5115 Y1.5336
X1.5059 Y1.5357
X1.5001 Y1.5364
X1.4942 Y1.5358
X1.4885 Y1.5343
X1.4833 Y1.5315
X1.4822 Y1.5305
X1.4804 Y1.5281
X1.4797 Y1.5252
X1.4803 Y1.5223
X1.4825 Y1.5171
X1.4844 Y1.5126
X1.4851 Y1.5116
X1.4862 Y1.511
X1.4873 Y1.5108
X1.4885 Y1.5111
X1.4917 Y1.5125
X1.5155 Y1.523
X1.5165 Y1.5236
X1.5172 Y1.5247
X1.5174 Y1.5258
X1.5172 Y1.527
X1.5125 Y1.5372
X1.5111 Y1.5398
X1.5065 Y1.5436
X1.5009 Y1.5454
X1.495 Y1.5459
X1.4892 Y1.5452
X1.4835 Y1.5435
X1.4784 Y1.5405
X1.4778 Y1.54
X1.4762 Y1.5376
X1.4757 Y1.5348
X1.4762 Y1.532
X1.4803 Y1.5223
X1.481 Y1.5213
X1.4821 Y1.5206
X1.4833 Y1.5205
X1.4845 Y1.5208
X1.4873 Y1.5221
X1.5109 Y1.5332
X1.5119 Y1.5339
X1.5125 Y1.5349
X1.5127 Y1.5361
X1.5125 Y1.5372
X1.5083 Y1.5463
X1.5069 Y1.5489
X1.5025 Y1.5528
X1.497 Y1.5548
X1.4911 Y1.5554
X1.4852 Y1.5548
X1.4795 Y1.5531
X1.4744 Y1.5502
X1.4739 Y1.5497
X1.4722 Y1.5474
X1.4717 Y1.5445
X1.4722 Y1.5417
X1.4762 Y1.532
X1.4769 Y1.531
X1.478 Y1.5304
X1.4791 Y1.5302
X1.4803 Y1.5304
X1.4829 Y1.5316
X1.5067 Y1.5422
X1.5077 Y1.5429
X1.5083 Y1.5439
X1.5086 Y1.5451
X1.5083 Y1.5463
X1.5044 Y1.5549
X1.5016 Y1.5601
X1.4966 Y1.5633
X1.4909 Y1.5648
X1.485 Y1.5649
X1.4792 Y1.5639
X1.4736 Y1.5619
X1.4709 Y1.5601
X1.4687 Y1.5577
X1.4677 Y1.5545
X1.4683 Y1.5512
X1.4722 Y1.5417
X1.4729 Y1.5407
X1.4739 Y1.5401
X1.475 Y1.5399
X1.4762 Y1.5401
X1.4786 Y1.5411
X1.5026 Y1.5508
X1.5037 Y1.5514
X1.5044 Y1.5525
X1.5046 Y1.5537
X1.5044 Y1.5549
X1.5 Y1.5643
X1.4973 Y1.5696
X1.4923 Y1.5728
X1.4866 Y1.5742
X1.4807 Y1.5743
X1.4749 Y1.5734
X1.4694 Y1.5712
X1.4669 Y1.5695
X1.4647 Y1.5671
X1.4638 Y1.564
X1.4643 Y1.5607
X1.4683 Y1.5512
X1.469 Y1.5503
X1.47 Y1.5496
X1.4711 Y1.5494
X1.4723 Y1.5496
X1.4742 Y1.5504
X1.4983 Y1.5602
X1.4993 Y1.5609
X1.5 Y1.5619
X1.5002 Y1.5631
X1.5 Y1.5643
X1.4955 Y1.5742
X1.4941 Y1.5768
X1.4899 Y1.581
X1.4844 Y1.5832
X1.4786 Y1.5839
X1.4727 Y1.5833
X1.467 Y1.5815
X1.4619 Y1.5785
X1.4614 Y1.578
X1.4598 Y1.5754
X1.4595 Y1.5723
X1.4605 Y1.5693
X1.4609 Y1.5686
X1.4629 Y1.5643
X1.4643 Y1.5607
X1.465 Y1.5598
X1.4661 Y1.5591
X1.4672 Y1.5589
X1.4684 Y1.5592
X1.4699 Y1.5598
X1.4938 Y1.5701
X1.4948 Y1.5708
X1.4955 Y1.5718
X1.4957 Y1.573
X1.4955 Y1.5742
X1.4907 Y1.5844
X1.4894 Y1.587
X1.4849 Y1.5909
X1.4793 Y1.5928
X1.4734 Y1.5932
X1.4676 Y1.5924
X1.462 Y1.5906
X1.457 Y1.5874
X1.4556 Y1.5858
X1.454 Y1.5828
X1.4539 Y1.5794
X1.4554 Y1.5763
X1.4583 Y1.5729
X1.459 Y1.5719
X1.4605 Y1.5693
X1.4612 Y1.5685
X1.4623 Y1.568
X1.4634 Y1.5679
X1.4645 Y1.5682
X1.4657 Y1.5688
X1.4892 Y1.5804
X1.4902 Y1.5811
X1.4908 Y1.5821
X1.491 Y1.5833
X1.4907 Y1.5844
X1.4866 Y1.5935
X1.4852 Y1.5961
X1.4808 Y1.6001
X1.4753 Y1.6021
X1.4694 Y1.6026
X1.4635 Y1.6019
X1.4579 Y1.6001
X1.4528 Y1.5971
X1.4485 Y1.5931
X1.4474 Y1.591
X1.4464 Y1.5875
X1.4472 Y1.5841
X1.4495 Y1.5814
X1.4504 Y1.5809
X1.4525 Y1.5791
X1.4547 Y1.5772
X1.4554 Y1.5763
X1.4566 Y1.5755
X1.4579 Y1.5753
X1.4592 Y1.5756
X1.462 Y1.5771
X1.4852 Y1.5895
X1.4861 Y1.5902
X1.4866 Y1.5912
X1.4868 Y1.5924
X1.4866 Y1.5935
X1.4826 Y1.6021
X1.4799 Y1.6073
X1.4749 Y1.6105
X1.4692 Y1.6119
X1.4633 Y1.612
X1.4575 Y1.6109
X1.4519 Y1.6088
X1.4468 Y1.6058
X1.4425 Y1.6019
X1.4391 Y1.597
X1.4382 Y1.5943
X1.4379 Y1.5908
X1.4394 Y1.5875
X1.4421 Y1.5854
X1.4461 Y1.5835
X1.4495 Y1.5814
X1.4506 Y1.581
X1.4518
X1.4528 Y1.5814
X1.4585 Y1.5847
X1.4813 Y1.5982
X1.4822 Y1.5989
X1.4827 Y1.5999
X1.4829 Y1.601
X1.4826 Y1.6021
X1.4783 Y1.6115
X1.4769 Y1.6141
X1.4729 Y1.6185
X1.4675 Y1.6208
X1.4616 Y1.6215
X1.4557 Y1.621
X1.45 Y1.6194
X1.4446 Y1.617
X1.4397 Y1.6138
X1.4353 Y1.6098
X1.4317 Y1.6052
X1.4292 Y1.5998
X1.4281 Y1.594
X1.4282 Y1.5937
X1.4291 Y1.5908
X1.4313 Y1.5885
X1.4341 Y1.5873
X1.4375 Y1.5867
X1.441 Y1.5858
X1.4418 Y1.5855
X1.4421 Y1.5854
X1.4431 Y1.5851
X1.4441 Y1.5852
X1.4451 Y1.5857
X1.4552 Y1.5926
X1.4772 Y1.6077
X1.4779 Y1.6085
X1.4784 Y1.6094
X1.4785 Y1.6105
X1.4783 Y1.6115
X1.4737 Y1.6214
X1.4724 Y1.624
X1.4681 Y1.6281
X1.4626 Y1.6303
X1.4568 Y1.6309
X1.4509 Y1.6303
X1.4452 Y1.6289
X1.4397 Y1.6266
X1.4346 Y1.6236
X1.43 Y1.6199
X1.4259 Y1.6156
X1.4225 Y1.6108
X1.42 Y1.6055
X1.4183 Y1.5998
X1.4181 Y1.5939
X1.4185 Y1.5927
X1.4201 Y1.5898
X1.4228 Y1.5879
X1.426 Y1.5874
X1.4289 Y1.5876
X1.4332 Y1.5875
X1.4341 Y1.5873
X1.4354 Y1.5874
X1.4365 Y1.588
X1.452 Y1.6007
X1.4728 Y1.6178
X1.4736 Y1.6188
X1.474 Y1.6201
X1.4737 Y1.6214
X1.469 Y1.6316
X1.4676 Y1.6342
X1.4631 Y1.638
X1.4575 Y1.6399
X1.4516 Y1.6404
X1.4458 Y1.6398
X1.44 Y1.6384
X1.4346 Y1.6362
X1.4294 Y1.6334
X1.4246 Y1.6299
X1.4202 Y1.6259
X1.4164 Y1.6214
X1.4131 Y1.6166
X1.4104 Y1.6113
X1.4085 Y1.6057
X1.4075 Y1.5999
X1.4078 Y1.594
X1.4096 Y1.5883
X1.4119 Y1.5862
X1.4149 Y1.5852
X1.418 Y1.5856
X1.4204 Y1.5864
X1.4225 Y1.5869
X1.4247 Y1.5873
X1.426 Y1.5874
X1.427 Y1.5877
X1.4279 Y1.5883
X1.4484 Y1.6085
X1.449 Y1.6091
X1.4683 Y1.6282
X1.469 Y1.6292
X1.4693 Y1.6304
X1.469 Y1.6316
X1.4648 Y1.6407
X1.4635 Y1.6433
X1.4591 Y1.6473
X1.4536 Y1.6493
X1.4477 Y1.65
X1.4418 Y1.6496
X1.436 Y1.6483
X1.4305 Y1.6464
X1.4251 Y1.6438
X1.4202 Y1.6406
X1.4155 Y1.637
X1.4113 Y1.6329
X1.4074 Y1.6284
X1.4041 Y1.6235
X1.4013 Y1.6183
X1.399 Y1.6129
X1.3975 Y1.6072
X1.3967 Y1.6013
X1.3968 Y1.5954
X1.3979 Y1.5896
X1.4004 Y1.5843
X1.4013 Y1.5833
X1.4041 Y1.5814
X1.4075 Y1.581
X1.4107 Y1.5821
X1.4118 Y1.5828
X1.4139 Y1.5839
X1.4161 Y1.5849
X1.418 Y1.5856
X1.4187 Y1.5859
X1.4192 Y1.5864
X1.4387 Y1.6085
X1.4461 Y1.6169
X1.4643 Y1.6374
X1.4649 Y1.6384
X1.4651 Y1.6395
X1.4648 Y1.6407
X1.4605 Y1.6501
X1.4591 Y1.6527
X1.4548 Y1.6568
X1.4493 Y1.6589
X1.4434 Y1.6597
X1.4375 Y1.6594
X1.4317 Y1.6583
X1.4261 Y1.6565
X1.4207 Y1.6541
X1.4156 Y1.6512
X1.4108 Y1.6478
X1.4063 Y1.6439
X1.4021 Y1.6398
X1.3983 Y1.6352
X1.3949 Y1.6304
X1.3919 Y1.6253
X1.3895 Y1.6199
X1.3876 Y1.6143
X1.3863 Y1.6086
X1.3855 Y1.6027
X1.3856 Y1.5968
X1.3864 Y1.591
X1.388 Y1.5853
X1.3908 Y1.5801
X1.3948 Y1.5757
X1.3953 Y1.5755
X1.3984 Y1.5745
X1.4016 Y1.575
X1.4043 Y1.5768
X1.4046 Y1.5772
X1.4075 Y1.5798
X1.4097 Y1.5815
X1.4107 Y1.5821
X1.4294 Y1.6067
X1.4433 Y1.625
X1.4601 Y1.647
X1.4606 Y1.648
X1.4607 Y1.6491
X1.4605 Y1.6501
X1.456 Y1.6599
X1.4546 Y1.6625
X1.4502 Y1.6665
X1.4447 Y1.6687
X1.4389 Y1.6695
X1.433 Y1.6693
X1.4272 Y1.6682
X1.4215 Y1.6666
X1.416 Y1.6643
X1.4108 Y1.6616
X1.4058 Y1.6584
X1.401 Y1.6547
X1.3964 Y1.6505
X1.3921 Y1.6459
X1.3882 Y1.6411
X1.3847 Y1.636
X1.3817 Y1.6307
X1.3792 Y1.6253
X1.3772 Y1.6198
X1.3757 Y1.6141
X1.3746 Y1.6083
X1.3742 Y1.6024
X1.3743 Y1.5965
X1.375 Y1.5906
X1.3765 Y1.5849
X1.3787 Y1.5794
X1.3817 Y1.5743
X1.3857 Y1.57
X1.389 Y1.5678
X1.3926 Y1.5666
X1.3963 Y1.5674
X1.3991 Y1.57
X1.4009 Y1.5729
X1.4032 Y1.5757
X1.4043 Y1.5768
X1.421 Y1.6029
X1.4407 Y1.6335
X1.4557 Y1.657
X1.4561 Y1.658
X1.4562 Y1.659
X1.456 Y1.6599
X1.4512 Y1.6702
X1.4499 Y1.6728
X1.4453 Y1.6766
X1.4398 Y1.6787
X1.4339 Y1.6794
X1.428 Y1.6792
X1.4222 Y1.6782
X1.4165 Y1.6766
X1.411 Y1.6744
X1.4057 Y1.6718
X1.4004 Y1.6686
X1.3951 Y1.6649
X1.39 Y1.6605
X1.385 Y1.6556
X1.3805 Y1.6503
X1.3764 Y1.6446
X1.3728 Y1.6388
X1.3697 Y1.6328
X1.3673 Y1.6268
X1.3653 Y1.6207
X1.3639 Y1.6146
X1.363 Y1.6086
X1.3626 Y1.6027
X1.3627 Y1.5968
X1.3634 Y1.5909
X1.3646 Y1.5851
X1.3664 Y1.5795
X1.3688 Y1.5741
X1.3719 Y1.5691
X1.3757 Y1.5646
X1.3803 Y1.5608
X1.3856 Y1.5581
X1.3877 Y1.5577
X1.3911 Y1.5579
X1.3941 Y1.5597
X1.3959 Y1.5627
X1.3964 Y1.5643
X1.3983 Y1.5686
X1.3989 Y1.5698
X1.3991 Y1.57
X1.4136 Y1.5973
X1.4379 Y1.6427
X1.4511 Y1.6676
X1.4515 Y1.6689
X1.4512 Y1.6702
X1.4471 Y1.6793
X1.4457 Y1.6819
X1.4414 Y1.686
X1.436 Y1.6883
X1.4302 Y1.6893
X1.4243 Y1.6892
X1.4184 Y1.6884
X1.4127 Y1.687
X1.4071 Y1.6851
X1.4017 Y1.6826
X1.396 Y1.6795
X1.3902 Y1.6757
X1.3844 Y1.6712
X1.3788 Y1.6661
X1.3735 Y1.6604
X1.3687 Y1.6543
X1.3644 Y1.6479
X1.3607 Y1.6413
X1.3576 Y1.6344
X1.3551 Y1.6275
X1.3531 Y1.6205
X1.3518 Y1.6135
X1.3511 Y1.6069
X1.3509 Y1.6006
X1.3513 Y1.5945
X1.3521 Y1.5885
X1.3533 Y1.5828
X1.3551 Y1.5771
X1.3573 Y1.5717
X1.3602 Y1.5665
X1.3635 Y1.5616
X1.3674 Y1.5572
X1.3719 Y1.5534
X1.3769 Y1.5503
X1.3825 Y1.5483
X1.3884 Y1.5477
X1.3886 Y1.5478
X1.3916 Y1.5491
X1.3937 Y1.5515
X1.3945 Y1.5546
Y1.5557
X1.3946 Y1.557
X1.3952 Y1.56
X1.3958 Y1.5622
X1.3959 Y1.5627
X1.3961 Y1.5639
X1.3957 Y1.5651
X1.3949 Y1.5661
X1.3941 Y1.567
X1.3937 Y1.5681
X1.3938 Y1.5693
X1.3943 Y1.5703
X1.4074 Y1.5885
X1.4521 Y1.6502
X1.4532 Y1.6511
X1.4545 Y1.6515
X1.4558 Y1.6513
X1.457 Y1.6505
X1.4576 Y1.6493
X1.4577 Y1.6479
X1.4573 Y1.6466
X1.4563 Y1.6457
X1.455 Y1.6453
X1.4536 Y1.6454
X1.4524 Y1.6462
X1.4517 Y1.6473
X1.4516 Y1.6487
G3 X1.4471 Y1.6793 I-0.062 J0.0065
G1 X1.4427 Y1.6887
X1.44 Y1.694
X1.435 Y1.6972
X1.4293 Y1.6989
X1.4235 Y1.6995
X1.4176 Y1.6992
X1.4117 Y1.6982
X1.406 Y1.6967
X1.4002 Y1.6946
X1.3941 Y1.6917
X1.3877 Y1.6882
X1.3813 Y1.6838
X1.375 Y1.6788
X1.3691 Y1.6732
X1.3634 Y1.667
X1.3582 Y1.6602
X1.3535 Y1.653
X1.3502 Y1.647
X1.3498 Y1.6459
X1.3495 Y1.6448
X1.3494 Y1.6436
X1.3496 Y1.6424
X1.3504 Y1.6414
X1.3514 Y1.6407
X1.3527 Y1.6406
X1.3539 Y1.6409
X1.3759 Y1.652
X1.4178 Y1.673
X1.4412 Y1.6847
X1.4422 Y1.6854
X1.4428 Y1.6864
X1.4429 Y1.6876
X1.4427 Y1.6887
X1.4381 Y1.6988
X1.4353 Y1.704
X1.4304 Y1.7073
X1.4248 Y1.709
X1.4189 Y1.7097
X1.413 Y1.7094
X1.4072 Y1.7085
X1.4014 Y1.707
X1.3952 Y1.7049
X1.389 Y1.7022
X1.3823 Y1.6987
X1.3754 Y1.6942
X1.3686 Y1.689
X1.3619 Y1.683
X1.3556 Y1.6763
X1.351 Y1.6706
X1.3501 Y1.6692
X1.3495 Y1.6677
X1.3494 Y1.666
X1.3496 Y1.6649
X1.3503 Y1.6639
X1.3513 Y1.6633
X1.3524 Y1.663
X1.3536 Y1.6632
X1.377 Y1.6721
X1.4121 Y1.6855
X1.4363 Y1.6947
X1.4374 Y1.6953
X1.4381 Y1.6964
X1.4383 Y1.6976
X1.4381 Y1.6988
X1.4332 Y1.7093
X1.4319 Y1.7119
X1.4277 Y1.7161
X1.4223 Y1.7185
X1.4165 Y1.7196
X1.4106 Y1.7197
X1.4047 Y1.7192
X1.3989 Y1.718
X1.393 Y1.7163
X1.3865 Y1.7138
X1.3794 Y1.7105
X1.372 Y1.7062
X1.3645 Y1.7011
X1.3573 Y1.6952
